luts/dune_teal_orange.cube
# Dune Cinematic Teal-Orange LUT
LUT_3D_SIZE 9
0.000000 0.000000 0.000000
0.000000 0.000000 0.056563
0.000000 0.000000 0.179626
0.000000 0.000000 0.302689
0.000000 0.000000 0.425752
0.000000 0.000000 0.548245
0.000000 0.000000 0.669370
0.000000 0.000000 0.790495
0.000000 0.000000 0.911620
0.000000 0.088760 0.000000
0.000000 0.088760 0.056563
0.000000 0.088760 0.179626
0.000000 0.088760 0.302689
0.000000 0.088760 0.425752
0.000000 0.088760 0.548245
0.000000 0.088760 0.669370
0.000000 0.088760 0.790495
0.000000 0.088760 0.911620
0.000000 0.247520 0.000000
0.000000 0.247520 0.056563
0.000000 0.247520 0.179626
0.000000 0.247520 0.302689
0.000000 0.247520 0.425752
0.000000 0.247520 0.548245
0.000000 0.247520 0.669370
0.000000 0.247520 0.790495
0.000000 0.247520 0.911620
0.000000 0.406280 0.000000
0.000000 0.406280 0.056563
0.000000 0.406280 0.179626
0.000000 0.406280 0.302689
0.000000 0.406280 0.425752
0.000000 0.406280 0.548245
0.000000 0.406280 0.669370
0.000000 0.406280 0.790495
0.000000 0.406280 0.911620
0.000000 0.564800 0.000000
0.000000 0.564800 0.056563
0.000000 0.564800 0.179626
0.000000 0.564800 0.302689
0.000000 0.564800 0.425752
0.000000 0.564800 0.548245
0.000000 0.564800 0.669370
0.000000 0.564800 0.790495
0.000000 0.564800 0.911620
0.000000 0.722300 0.000000
0.000000 0.722300 0.056563
0.000000 0.722300 0.179626
0.000000 0.722300 0.302689
0.000000 0.722300 0.425752
0.000000 0.722300 0.548245
0.000000 0.722300 0.669370
0.000000 0.722300 0.790495
0.000000 0.722300 0.911620
0.000000 0.879800 0.000000
0.000000 0.879800 0.056563
0.000000 0.879800 0.179626
0.000000 0.879800 0.302689
0.000000 0.879800 0.425752
0.000000 0.879800 0.548245
0.000000 0.879800 0.669370
0.000000 0.879800 0.790495
0.000000 0.879800 0.911620
0.000000 1.000000 0.000000
0.000000 1.000000 0.056563
0.000000 1.000000 0.179626
0.000000 1.000000 0.302689
0.000000 1.000000 0.425752
0.000000 1.000000 0.548245
0.000000 1.000000 0.669370
0.000000 1.000000 0.790495
0.000000 1.000000 0.911620
0.000000 1.000000 0.000000
0.000000 1.000000 0.056563
0.000000 1.000000 0.179626
0.000000 1.000000 0.302689
0.000000 1.000000 0.425752
0.000000 1.000000 0.548245
0.000000 1.000000 0.669370
0.000000 1.000000 0.790495
0.000000 1.000000 0.911620
0.106176 0.000000 0.000000
0.106176 0.000000 0.056563
0.106176 0.000000 0.179626
0.106176 0.000000 0.302689
0.106176 0.000000 0.425752
0.106176 0.000000 0.548245
0.106176 0.000000 0.669370
0.106176 0.000000 0.790495
0.106176 0.000000 0.911620
0.106176 0.088760 0.000000
0.106176 0.088760 0.056563
0.106176 0.088760 0.179626
0.106176 0.088760 0.302689
0.106176 0.088760 0.425752
0.106176 0.088760 0.548245
0.106176 0.088760 0.669370
0.106176 0.088760 0.790495
0.106176 0.088760 0.911620
0.106176 0.247520 0.000000
0.106176 0.247520 0.056563
0.106176 0.247520 0.179626
0.106176 0.247520 0.302689
0.106176 0.247520 0.425752
0.106176 0.247520 0.548245
0.106176 0.247520 0.669370
0.106176 0.247520 0.790495
0.106176 0.247520 0.911620
0.106176 0.406280 0.000000
0.106176 0.406280 0.056563
0.106176 0.406280 0.179626
0.106176 0.406280 0.302689
0.106176 0.406280 0.425752
0.106176 0.406280 0.548245
0.106176 0.406280 0.669370
0.106176 0.406280 0.790495
0.106176 0.406280 0.911620
0.106176 0.564800 0.000000
0.106176 0.564800 0.056563
0.106176 0.564800 0.179626
0.106176 0.564800 0.302689
0.106176 0.564800 0.425752
0.106176 0.564800 0.548245
0.106176 0.564800 0.669370
0.106176 0.564800 0.790495
0.106176 0.564800 0.911620
0.106176 0.722300 0.000000
0.106176 0.722300 0.056563
0.106176 0.722300 0.179626
0.106176 0.722300 0.302689
0.106176 0.722300 0.425752
0.106176 0.722300 0.548245
0.106176 0.722300 0.669370
0.106176 0.722300 0.790495
0.106176 0.722300 0.911620
0.106176 0.879800 0.000000
0.106176 0.879800 0.056563
0.106176 0.879800 0.179626
0.106176 0.879800 0.302689
0.106176 0.879800 0.425752
0.106176 0.879800 0.548245
0.106176 0.879800 0.669370
0.106176 0.879800 0.790495
0.106176 0.879800 0.911620
0.106176 1.000000 0.000000
0.106176 1.000000 0.056563
0.106176 1.000000 0.179626
0.106176 1.000000 0.302689
0.106176 1.000000 0.425752
0.106176 1.000000 0.548245
0.106176 1.000000 0.669370
0.106176 1.000000 0.790495
0.106176 1.000000 0.911620
0.106176 1.000000 0.000000
0.106176 1.000000 0.056563
0.106176 1.000000 0.179626
0.106176 1.000000 0.302689
0.106176 1.000000 0.425752
0.106176 1.000000 0.548245
0.106176 1.000000 0.669370
0.106176 1.000000 0.790495
0.106176 1.000000 0.911620
0.285852 0.000000 0.000000
0.285852 0.000000 0.056563
0.285852 0.000000 0.179626
0.285852 0.000000 0.302689
0.285852 0.000000 0.425752
0.285852 0.000000 0.548245
0.285852 0.000000 0.669370
0.285852 0.000000 0.790495
0.285852 0.000000 0.911620
0.285852 0.088760 0.000000
0.285852 0.088760 0.056563
0.285852 0.088760 0.179626
0.285852 0.088760 0.302689
0.285852 0.088760 0.425752
0.285852 0.088760 0.548245
0.285852 0.088760 0.669370
0.285852 0.088760 0.790495
0.285852 0.088760 0.911620
0.285852 0.247520 0.000000
0.285852 0.247520 0.056563
0.285852 0.247520 0.179626
0.285852 0.247520 0.302689
0.285852 0.247520 0.425752
0.285852 0.247520 0.548245
0.285852 0.247520 0.669370
0.285852 0.247520 0.790495
0.285852 0.247520 0.911620
0.285852 0.406280 0.000000
0.285852 0.406280 0.056563
0.285852 0.406280 0.179626
0.285852 0.406280 0.302689
0.285852 0.406280 0.425752
0.285852 0.406280 0.548245
0.285852 0.406280 0.669370
0.285852 0.406280 0.790495
0.285852 0.406280 0.911620
0.285852 0.564800 0.000000
0.285852 0.564800 0.056563
0.285852 0.564800 0.179626
0.285852 0.564800 0.302689
0.285852 0.564800 0.425752
0.285852 0.564800 0.548245
0.285852 0.564800 0.669370
0.285852 0.564800 0.790495
0.285852 0.564800 0.911620
0.285852 0.722300 0.000000
0.285852 0.722300 0.056563
0.285852 0.722300 0.179626
0.285852 0.722300 0.302689
0.285852 0.722300 0.425752
0.285852 0.722300 0.548245
0.285852 0.722300 0.669370
0.285852 0.722300 0.790495
0.285852 0.722300 0.911620
0.285852 0.879800 0.000000
0.285852 0.879800 0.056563
0.285852 0.879800 0.179626
0.285852 0.879800 0.302689
0.285852 0.879800 0.425752
0.285852 0.879800 0.548245
0.285852 0.879800 0.669370
0.285852 0.879800 0.790495
0.285852 0.879800 0.911620
0.285852 1.000000 0.000000
0.285852 1.000000 0.056563
0.285852 1.000000 0.179626
0.285852 1.000000 0.302689
0.285852 1.000000 0.425752
0.285852 1.000000 0.548245
0.285852 1.000000 0.669370
0.285852 1.000000 0.790495
0.285852 1.000000 0.911620
0.285852 1.000000 0.000000
0.285852 1.000000 0.056563
0.285852 1.000000 0.179626
0.285852 1.000000 0.302689
0.285852 1.000000 0.425752
0.285852 1.000000 0.548245
0.285852 1.000000 0.669370
0.285852 1.000000 0.790495
0.285852 1.000000 0.911620
0.465528 0.000000 0.000000
0.465528 0.000000 0.056563
0.465528 0.000000 0.179626
0.465528 0.000000 0.302689
0.465528 0.000000 0.425752
0.465528 0.000000 0.548245
0.465528 0.000000 0.669370
0.465528 0.000000 0.790495
0.465528 0.000000 0.911620
0.465528 0.088760 0.000000
0.465528 0.088760 0.056563
0.465528 0.088760 0.179626
0.465528 0.088760 0.302689
0.465528 0.088760 0.425752
0.465528 0.088760 0.548245
0.465528 0.088760 0.669370
0.465528 0.088760 0.790495
0.465528 0.088760 0.911620
0.465528 0.247520 0.000000
0.465528 0.247520 0.056563
0.465528 0.247520 0.179626
0.465528 0.247520 0.302689
0.465528 0.247520 0.425752
0.465528 0.247520 0.548245
0.465528 0.247520 0.669370
0.465528 0.247520 0.790495
0.465528 0.247520 0.911620
0.465528 0.406280 0.000000
0.465528 0.406280 0.056563
0.465528 0.406280 0.179626
0.465528 0.406280 0.302689
0.465528 0.406280 0.425752
0.465528 0.406280 0.548245
0.465528 0.406280 0.669370
0.465528 0.406280 0.790495
0.465528 0.406280 0.911620
0.465528 0.564800 0.000000
0.465528 0.564800 0.056563
0.465528 0.564800 0.179626
0.465528 0.564800 0.302689
0.465528 0.564800 0.425752
0.465528 0.564800 0.548245
0.465528 0.564800 0.669370
0.465528 0.564800 0.790495
0.465528 0.564800 0.911620
0.465528 0.722300 0.000000
0.465528 0.722300 0.056563
0.465528 0.722300 0.179626
0.465528 0.722300 0.302689
0.465528 0.722300 0.425752
0.465528 0.722300 0.548245
0.465528 0.722300 0.669370
0.465528 0.722300 0.790495
0.465528 0.722300 0.911620
0.465528 0.879800 0.000000
0.465528 0.879800 0.056563
0.465528 0.879800 0.179626
0.465528 0.879800 0.302689
0.465528 0.879800 0.425752
0.465528 0.879800 0.548245
0.465528 0.879800 0.669370
0.465528 0.879800 0.790495
0.465528 0.879800 0.911620
0.465528 1.000000 0.000000
0.465528 1.000000 0.056563
0.465528 1.000000 0.179626
0.465528 1.000000 0.302689
0.465528 1.000000 0.425752
0.465528 1.000000 0.548245
0.465528 1.000000 0.669370
0.465528 1.000000 0.790495
0.465528 1.000000 0.911620
0.465528 1.000000 0.000000
0.465528 1.000000 0.056563
0.465528 1.000000 0.179626
0.465528 1.000000 0.302689
0.465528 1.000000 0.425752
0.465528 1.000000 0.548245
0.465528 1.000000 0.669370
0.465528 1.000000 0.790495
0.465528 1.000000 0.911620
0.645960 0.000000 0.000000
0.645960 0.000000 0.056563
0.645960 0.000000 0.179626
0.645960 0.000000 0.302689
0.645960 0.000000 0.425752
0.645960 0.000000 0.548245
0.645960 0.000000 0.669370
0.645960 0.000000 0.790495
0.645960 0.000000 0.911620
0.645960 0.088760 0.000000
0.645960 0.088760 0.056563
0.645960 0.088760 0.179626
0.645960 0.088760 0.302689
0.645960 0.088760 0.425752
0.645960 0.088760 0.548245
0.645960 0.088760 0.669370
0.645960 0.088760 0.790495
0.645960 0.088760 0.911620
0.645960 0.247520 0.000000
0.645960 0.247520 0.056563
0.645960 0.247520 0.179626
0.645960 0.247520 0.302689
0.645960 0.247520 0.425752
0.645960 0.247520 0.548245
0.645960 0.247520 0.669370
0.645960 0.247520 0.790495
0.645960 0.247520 0.911620
0.645960 0.406280 0.000000
0.645960 0.406280 0.056563
0.645960 0.406280 0.179626
0.645960 0.406280 0.302689
0.645960 0.406280 0.425752
0.645960 0.406280 0.548245
0.645960 0.406280 0.669370
0.645960 0.406280 0.790495
0.645960 0.406280 0.911620
0.645960 0.564800 0.000000
0.645960 0.564800 0.056563
0.645960 0.564800 0.179626
0.645960 0.564800 0.302689
0.645960 0.564800 0.425752
0.645960 0.564800 0.548245
0.645960 0.564800 0.669370
0.645960 0.564800 0.790495
0.645960 0.564800 0.911620
0.645960 0.722300 0.000000
0.645960 0.722300 0.056563
0.645960 0.722300 0.179626
0.645960 0.722300 0.302689
0.645960 0.722300 0.425752
0.645960 0.722300 0.548245
0.645960 0.722300 0.669370
0.645960 0.722300 0.790495
0.645960 0.722300 0.911620
0.645960 0.879800 0.000000
0.645960 0.879800 0.056563
0.645960 0.879800 0.179626
0.645960 0.879800 0.302689
0.645960 0.879800 0.425752
0.645960 0.879800 0.548245
0.645960 0.879800 0.669370
0.645960 0.879800 0.790495
0.645960 0.879800 0.911620
0.645960 1.000000 0.000000
0.645960 1.000000 0.056563
0.645960 1.000000 0.179626
0.645960 1.000000 0.302689
0.645960 1.000000 0.425752
0.645960 1.000000 0.548245
0.645960 1.000000 0.669370
0.645960 1.000000 0.790495
0.645960 1.000000 0.911620
0.645960 1.000000 0.000000
0.645960 1.000000 0.056563
0.645960 1.000000 0.179626
0.645960 1.000000 0.302689
0.645960 1.000000 0.425752
0.645960 1.000000 0.548245
0.645960 1.000000 0.669370
0.645960 1.000000 0.790495
0.645960 1.000000 0.911620
0.827085 0.000000 0.000000
0.827085 0.000000 0.056563
0.827085 0.000000 0.179626
0.827085 0.000000 0.302689
0.827085 0.000000 0.425752
0.827085 0.000000 0.548245
0.827085 0.000000 0.669370
0.827085 0.000000 0.790495
0.827085 0.000000 0.911620
0.827085 0.088760 0.000000
0.827085 0.088760 0.056563
0.827085 0.088760 0.179626
0.827085 0.088760 0.302689
0.827085 0.088760 0.425752
0.827085 0.088760 0.548245
0.827085 0.088760 0.669370
0.827085 0.088760 0.790495
0.827085 0.088760 0.911620
0.827085 0.247520 0.000000
0.827085 0.247520 0.056563
0.827085 0.247520 0.179626
0.827085 0.247520 0.302689
0.827085 0.247520 0.425752
0.827085 0.247520 0.548245
0.827085 0.247520 0.669370
0.827085 0.247520 0.790495
0.827085 0.247520 0.911620
0.827085 0.406280 0.000000
0.827085 0.406280 0.056563
0.827085 0.406280 0.179626
0.827085 0.406280 0.302689
0.827085 0.406280 0.425752
0.827085 0.406280 0.548245
0.827085 0.406280 0.669370
0.827085 0.406280 0.790495
0.827085 0.406280 0.911620
0.827085 0.564800 0.000000
0.827085 0.564800 0.056563
0.827085 0.564800 0.179626
0.827085 0.564800 0.302689
0.827085 0.564800 0.425752
0.827085 0.564800 0.548245
0.827085 0.564800 0.669370
0.827085 0.564800 0.790495
0.827085 0.564800 0.911620
0.827085 0.722300 0.000000
0.827085 0.722300 0.056563
0.827085 0.722300 0.179626
0.827085 0.722300 0.302689
0.827085 0.722300 0.425752
0.827085 0.722300 0.548245
0.827085 0.722300 0.669370
0.827085 0.722300 0.790495
0.827085 0.722300 0.911620
0.827085 0.879800 0.000000
0.827085 0.879800 0.056563
0.827085 0.879800 0.179626
0.827085 0.879800 0.302689
0.827085 0.879800 0.425752
0.827085 0.879800 0.548245
0.827085 0.879800 0.669370
0.827085 0.879800 0.790495
0.827085 0.879800 0.911620
0.827085 1.000000 0.000000
0.827085 1.000000 0.056563
0.827085 1.000000 0.179626
0.827085 1.000000 0.302689
0.827085 1.000000 0.425752
0.827085 1.000000 0.548245
0.827085 1.000000 0.669370
0.827085 1.000000 0.790495
0.827085 1.000000 0.911620
0.827085 1.000000 0.000000
0.827085 1.000000 0.056563
0.827085 1.000000 0.179626
0.827085 1.000000 0.302689
0.827085 1.000000 0.425752
0.827085 1.000000 0.548245
0.827085 1.000000 0.669370
0.827085 1.000000 0.790495
0.827085 1.000000 0.911620
1.000000 0.000000 0.000000
1.000000 0.000000 0.056563
1.000000 0.000000 0.179626
1.000000 0.000000 0.302689
1.000000 0.000000 0.425752
1.000000 0.000000 0.548245
1.000000 0.000000 0.669370
1.000000 0.000000 0.790495
1.000000 0.000000 0.911620
1.000000 0.088760 0.000000
1.000000 0.088760 0.056563
1.000000 0.088760 0.179626
1.000000 0.088760 0.302689
1.000000 0.088760 0.425752
1.000000 0.088760 0.548245
1.000000 0.088760 0.669370
1.000000 0.088760 0.790495
1.000000 0.088760 0.911620
1.000000 0.247520 0.000000
1.000000 0.247520 0.056563
1.000000 0.247520 0.179626
1.000000 0.247520 0.302689
1.000000 0.247520 0.425752
1.000000 0.247520 0.548245
1.000000 0.247520 0.669370
1.000000 0.247520 0.790495
1.000000 0.247520 0.911620
1.000000 0.406280 0.000000
1.000000 0.406280 0.056563
1.000000 0.406280 0.179626
1.000000 0.406280 0.302689
1.000000 0.406280 0.425752
1.000000 0.406280 0.548245
1.000000 0.406280 0.669370
1.000000 0.406280 0.790495
1.000000 0.406280 0.911620
1.000000 0.564800 0.000000
1.000000 0.564800 0.056563
1.000000 0.564800 0.179626
1.000000 0.564800 0.302689
1.000000 0.564800 0.425752
1.000000 0.564800 0.548245
1.000000 0.564800 0.669370
1.000000 0.564800 0.790495
1.000000 0.564800 0.911620
1.000000 0.722300 0.000000
1.000000 0.722300 0.056563
1.000000 0.722300 0.179626
1.000000 0.722300 0.302689
1.000000 0.722300 0.425752
1.000000 0.722300 0.548245
1.000000 0.722300 0.669370
1.000000 0.722300 0.790495
1.000000 0.722300 0.911620
1.000000 0.879800 0.000000
1.000000 0.879800 0.056563
1.000000 0.879800 0.179626
1.000000 0.879800 0.302689
1.000000 0.879800 0.425752
1.000000 0.879800 0.548245
1.000000 0.879800 0.669370
1.000000 0.879800 0.790495
1.000000 0.879800 0.911620
1.000000 1.000000 0.000000
1.000000 1.000000 0.056563
1.000000 1.000000 0.179626
1.000000 1.000000 0.302689
1.000000 1.000000 0.425752
1.000000 1.000000 0.548245
1.000000 1.000000 0.669370
1.000000 1.000000 0.790495
1.000000 1.000000 0.911620
1.000000 1.000000 0.000000
1.000000 1.000000 0.056563
1.000000 1.000000 0.179626
1.000000 1.000000 0.302689
1.000000 1.000000 0.425752
1.000000 1.000000 0.548245
1.000000 1.000000 0.669370
1.000000 1.000000 0.790495
1.000000 1.000000 0.911620
1.000000 0.000000 0.000000
1.000000 0.000000 0.056563
1.000000 0.000000 0.179626
1.000000 0.000000 0.302689
1.000000 0.000000 0.425752
1.000000 0.000000 0.548245
1.000000 0.000000 0.669370
1.000000 0.000000 0.790495
1.000000 0.000000 0.911620
1.000000 0.088760 0.000000
1.000000 0.088760 0.056563
1.000000 0.088760 0.179626
1.000000 0.088760 0.302689
1.000000 0.088760 0.425752
1.000000 0.088760 0.548245
1.000000 0.088760 0.669370
1.000000 0.088760 0.790495
1.000000 0.088760 0.911620
1.000000 0.247520 0.000000
1.000000 0.247520 0.056563
1.000000 0.247520 0.179626
1.000000 0.247520 0.302689
1.000000 0.247520 0.425752
1.000000 0.247520 0.548245
1.000000 0.247520 0.669370
1.000000 0.247520 0.790495
1.000000 0.247520 0.911620
1.000000 0.406280 0.000000
1.000000 0.406280 0.056563
1.000000 0.406280 0.179626
1.000000 0.406280 0.302689
1.000000 0.406280 0.425752
1.000000 0.406280 0.548245
1.000000 0.406280 0.669370
1.000000 0.406280 0.790495
1.000000 0.406280 0.911620
1.000000 0.564800 0.000000
1.000000 0.564800 0.056563
1.000000 0.564800 0.179626
1.000000 0.564800 0.302689
1.000000 0.564800 0.425752
1.000000 0.564800 0.548245
1.000000 0.564800 0.669370
1.000000 0.564800 0.790495
1.000000 0.564800 0.911620
1.000000 0.722300 0.000000
1.000000 0.722300 0.056563
1.000000 0.722300 0.179626
1.000000 0.722300 0.302689
1.000000 0.722300 0.425752
1.000000 0.722300 0.548245
1.000000 0.722300 0.669370
1.000000 0.722300 0.790495
1.000000 0.722300 0.911620
1.000000 0.879800 0.000000
1.000000 0.879800 0.056563
1.000000 0.879800 0.179626
1.000000 0.879800 0.302689
1.000000 0.879800 0.425752
1.000000 0.879800 0.548245
1.000000 0.879800 0.669370
1.000000 0.879800 0.790495
1.000000 0.879800 0.911620
1.000000 1.000000 0.000000
1.000000 1.000000 0.056563
1.000000 1.000000 0.179626
1.000000 1.000000 0.302689
1.000000 1.000000 0.425752
1.000000 1.000000 0.548245
1.000000 1.000000 0.669370
1.000000 1.000000 0.790495
1.000000 1.000000 0.911620
1.000000 1.000000 0.000000
1.000000 1.000000 0.056563
1.000000 1.000000 0.179626
1.000000 1.000000 0.302689
1.000000 1.000000 0.425752
1.000000 1.000000 0.548245
1.000000 1.000000 0.669370
1.000000 1.000000 0.790495
1.000000 1.000000 0.911620
1.000000 0.000000 0.000000
1.000000 0.000000 0.056563
1.000000 0.000000 0.179626
1.000000 0.000000 0.302689
1.000000 0.000000 0.425752
1.000000 0.000000 0.548245
1.000000 0.000000 0.669370
1.000000 0.000000 0.790495
1.000000 0.000000 0.911620
1.000000 0.088760 0.000000
1.000000 0.088760 0.056563
1.000000 0.088760 0.179626
1.000000 0.088760 0.302689
1.000000 0.088760 0.425752
1.000000 0.088760 0.548245
1.000000 0.088760 0.669370
1.000000 0.088760 0.790495
1.000000 0.088760 0.911620
1.000000 0.247520 0.000000
1.000000 0.247520 0.056563
1.000000 0.247520 0.179626
1.000000 0.247520 0.302689
1.000000 0.247520 0.425752
1.000000 0.247520 0.548245
1.000000 0.247520 0.669370
1.000000 0.247520 0.790495
1.000000 0.247520 0.911620
1.000000 0.406280 0.000000
1.000000 0.406280 0.056563
1.000000 0.406280 0.179626
1.000000 0.406280 0.302689
1.000000 0.406280 0.425752
1.000000 0.406280 0.548245
1.000000 0.406280 0.669370
1.000000 0.406280 0.790495
1.000000 0.406280 0.911620
1.000000 0.564800 0.000000
1.000000 0.564800 0.056563
1.000000 0.564800 0.179626
1.000000 0.564800 0.302689
1.000000 0.564800 0.425752
1.000000 0.564800 0.548245
1.000000 0.564800 0.669370
1.000000 0.564800 0.790495
1.000000 0.564800 0.911620
1.000000 0.722300 0.000000
1.000000 0.722300 0.056563
1.000000 0.722300 0.179626
1.000000 0.722300 0.302689
1.000000 0.722300 0.425752
1.000000 0.722300 0.548245
1.000000 0.722300 0.669370
1.000000 0.722300 0.790495
1.000000 0.722300 0.911620
1.000000 0.879800 0.000000
1.000000 0.879800 0.056563
1.000000 0.879800 0.179626
1.000000 0.879800 0.302689
1.000000 0.879800 0.425752
1.000000 0.879800 0.548245
1.000000 0.879800 0.669370
1.000000 0.879800 0.790495
1.000000 0.879800 0.911620
1.000000 1.000000 0.000000
1.000000 1.000000 0.056563
1.000000 1.000000 0.179626
1.000000 1.000000 0.302689
1.000000 1.000000 0.425752
1.000000 1.000000 0.548245
1.000000 1.000000 0.669370
1.000000 1.000000 0.790495
1.000000 1.000000 0.911620
1.000000 1.000000 0.000000
1.000000 1.000000 0.056563
1.000000 1.000000 0.179626
1.000000 1.000000 0.302689
1.000000 1.000000 0.425752
1.000000 1.000000 0.548245
1.000000 1.000000 0.669370
1.000000 1.000000 0.790495
1.000000 1.000000 0.911620
