luts/dune_teal_orange.cube
# Dune Cinematic Teal-Orange LUT
LUT_3D_SIZE 5
0.000000 0.000000 0.000000
0.000000 0.000000 0.179626
0.000000 0.000000 0.425752
0.000000 0.000000 0.669370
0.000000 0.000000 0.911620
0.000000 0.247520 0.000000
0.000000 0.247520 0.179626
0.000000 0.247520 0.425752
0.000000 0.247520 0.669370
0.000000 0.247520 0.911620
0.000000 0.564800 0.000000
0.000000 0.564800 0.179626
0.000000 0.564800 0.425752
0.000000 0.564800 0.669370
0.000000 0.564800 0.911620
0.000000 0.879800 0.000000
0.000000 0.879800 0.179626
0.000000 0.879800 0.425752
0.000000 0.879800 0.669370
0.000000 0.879800 0.911620
0.000000 1.000000 0.000000
0.000000 1.000000 0.179626
0.000000 1.000000 0.425752
0.000000 1.000000 0.669370
0.000000 1.000000 0.911620
0.285852 0.000000 0.000000
0.285852 0.000000 0.179626
0.285852 0.000000 0.425752
0.285852 0.000000 0.669370
0.285852 0.000000 0.911620
0.285852 0.247520 0.000000
0.285852 0.247520 0.179626
0.285852 0.247520 0.425752
0.285852 0.247520 0.669370
0.285852 0.247520 0.911620
0.285852 0.564800 0.000000
0.285852 0.564800 0.179626
0.285852 0.564800 0.425752
0.285852 0.564800 0.669370
0.285852 0.564800 0.911620
0.285852 0.879800 0.000000
0.285852 0.879800 0.179626
0.285852 0.879800 0.425752
0.285852 0.879800 0.669370
0.285852 0.879800 0.911620
0.285852 1.000000 0.000000
0.285852 1.000000 0.179626
0.285852 1.000000 0.425752
0.285852 1.000000 0.669370
0.285852 1.000000 0.911620
0.645960 0.000000 0.000000
0.645960 0.000000 0.179626
0.645960 0.000000 0.425752
0.645960 0.000000 0.669370
0.645960 0.000000 0.911620
0.645960 0.247520 0.000000
0.645960 0.247520 0.179626
0.645960 0.247520 0.425752
0.645960 0.247520 0.669370
0.645960 0.247520 0.911620
0.645960 0.564800 0.000000
0.645960 0.564800 0.179626
0.645960 0.564800 0.425752
0.645960 0.564800 0.669370
0.645960 0.564800 0.911620
0.645960 0.879800 0.000000
0.645960 0.879800 0.179626
0.645960 0.879800 0.425752
0.645960 0.879800 0.669370
0.645960 0.879800 0.911620
0.645960 1.000000 0.000000
0.645960 1.000000 0.179626
0.645960 1.000000 0.425752
0.645960 1.000000 0.669370
0.645960 1.000000 0.911620
1.000000 0.000000 0.000000
1.000000 0.000000 0.179626
1.000000 0.000000 0.425752
1.000000 0.000000 0.669370
1.000000 0.000000 0.911620
1.000000 0.247520 0.000000
1.000000 0.247520 0.179626
1.000000 0.247520 0.425752
1.000000 0.247520 0.669370
1.000000 0.247520 0.911620
1.000000 0.564800 0.000000
1.000000 0.564800 0.179626
1.000000 0.564800 0.425752
1.000000 0.564800 0.669370
1.000000 0.564800 0.911620
1.000000 0.879800 0.000000
1.000000 0.879800 0.179626
1.000000 0.879800 0.425752
1.000000 0.879800 0.669370
1.000000 0.879800 0.911620
1.000000 1.000000 0.000000
1.000000 1.000000 0.179626
1.000000 1.000000 0.425752
1.000000 1.000000 0.669370
1.000000 1.000000 0.911620
1.000000 0.000000 0.000000
1.000000 0.000000 0.179626
1.000000 0.000000 0.425752
1.000000 0.000000 0.669370
1.000000 0.000000 0.911620
1.000000 0.247520 0.000000
1.000000 0.247520 0.179626
1.000000 0.247520 0.425752
1.000000 0.247520 0.669370
1.000000 0.247520 0.911620
1.000000 0.564800 0.000000
1.000000 0.564800 0.179626
1.000000 0.564800 0.425752
1.000000 0.564800 0.669370
1.000000 0.564800 0.911620
1.000000 0.879800 0.000000
1.000000 0.879800 0.179626
1.000000 0.879800 0.425752
1.000000 0.879800 0.669370
1.000000 0.879800 0.911620
1.000000 1.000000 0.000000
1.000000 1.000000 0.179626
1.000000 1.000000 0.425752
1.000000 1.000000 0.669370
1.000000 1.000000 0.911620
