luts/dune_teal_orange.cube
# Dune Cinematic Teal-Orange LUT
LUT_3D_SIZE 33
0.000000 0.000000 0.000000
0.000000 0.000000 0.000000
0.000000 0.000000 0.000000
0.000000 0.000000 0.025797
0.000000 0.000000 0.056563
0.000000 0.000000 0.087329
0.000000 0.000000 0.118094
0.000000 0.000000 0.148860
0.000000 0.000000 0.179626
0.000000 0.000000 0.210392
0.000000 0.000000 0.241157
0.000000 0.000000 0.271923
0.000000 0.000000 0.302689
0.000000 0.000000 0.333455
0.000000 0.000000 0.364220
0.000000 0.000000 0.394986
0.000000 0.000000 0.425752
0.000000 0.000000 0.456518
0.000000 0.000000 0.487283
0.000000 0.000000 0.517964
0.000000 0.000000 0.548245
0.000000 0.000000 0.578526
0.000000 0.000000 0.608807
0.000000 0.000000 0.639089
0.000000 0.000000 0.669370
0.000000 0.000000 0.699651
0.000000 0.000000 0.729932
0.000000 0.000000 0.760214
0.000000 0.000000 0.790495
0.000000 0.000000 0.820776
0.000000 0.000000 0.851058
0.000000 0.000000 0.881339
0.000000 0.000000 0.911620
0.000000 0.000000 0.000000
0.000000 0.000000 0.000000
0.000000 0.000000 0.000000
0.000000 0.000000 0.025797
0.000000 0.000000 0.056563
0.000000 0.000000 0.087329
0.000000 0.000000 0.118094
0.000000 0.000000 0.148860
0.000000 0.000000 0.179626
0.000000 0.000000 0.210392
0.000000 0.000000 0.241157
0.000000 0.000000 0.271923
0.000000 0.000000 0.302689
0.000000 0.000000 0.333455
0.000000 0.000000 0.364220
0.000000 0.000000 0.394986
0.000000 0.000000 0.425752
0.000000 0.000000 0.456518
0.000000 0.000000 0.487283
0.000000 0.000000 0.517964
0.000000 0.000000 0.548245
0.000000 0.000000 0.578526
0.000000 0.000000 0.608807
0.000000 0.000000 0.639089
0.000000 0.000000 0.669370
0.000000 0.000000 0.699651
0.000000 0.000000 0.729932
0.000000 0.000000 0.760214
0.000000 0.000000 0.790495
0.000000 0.000000 0.820776
0.000000 0.000000 0.851058
0.000000 0.000000 0.881339
0.000000 0.000000 0.911620
0.000000 0.009380 0.000000
0.000000 0.009380 0.000000
0.000000 0.009380 0.000000
0.000000 0.009380 0.025797
0.000000 0.009380 0.056563
0.000000 0.009380 0.087329
0.000000 0.009380 0.118094
0.000000 0.009380 0.148860
0.000000 0.009380 0.179626
0.000000 0.009380 0.210392
0.000000 0.009380 0.241157
0.000000 0.009380 0.271923
0.000000 0.009380 0.302689
0.000000 0.009380 0.333455
0.000000 0.009380 0.364220
0.000000 0.009380 0.394986
0.000000 0.009380 0.425752
0.000000 0.009380 0.456518
0.000000 0.009380 0.487283
0.000000 0.009380 0.517964
0.000000 0.009380 0.548245
0.000000 0.009380 0.578526
0.000000 0.009380 0.608807
0.000000 0.009380 0.639089
0.000000 0.009380 0.669370
0.000000 0.009380 0.699651
0.000000 0.009380 0.729932
0.000000 0.009380 0.760214
0.000000 0.009380 0.790495
0.000000 0.009380 0.820776
0.000000 0.009380 0.851058
0.000000 0.009380 0.881339
0.000000 0.009380 0.911620
0.000000 0.049070 0.000000
0.000000 0.049070 0.000000
0.000000 0.049070 0.000000
0.000000 0.049070 0.025797
0.000000 0.049070 0.056563
0.000000 0.049070 0.087329
0.000000 0.049070 0.118094
0.000000 0.049070 0.148860
0.000000 0.049070 0.179626
0.000000 0.049070 0.210392
0.000000 0.049070 0.241157
0.000000 0.049070 0.271923
0.000000 0.049070 0.302689
0.000000 0.049070 0.333455
0.000000 0.049070 0.364220
0.000000 0.049070 0.394986
0.000000 0.049070 0.425752
0.000000 0.049070 0.456518
0.000000 0.049070 0.487283
0.000000 0.049070 0.517964
0.000000 0.049070 0.548245
0.000000 0.049070 0.578526
0.000000 0.049070 0.608807
0.000000 0.049070 0.639089
0.000000 0.049070 0.669370
0.000000 0.049070 0.699651
0.000000 0.049070 0.729932
0.000000 0.049070 0.760214
0.000000 0.049070 0.790495
0.000000 0.049070 0.820776
0.000000 0.049070 0.851058
0.000000 0.049070 0.881339
0.000000 0.049070 0.911620
0.000000 0.088760 0.000000
0.000000 0.088760 0.000000
0.000000 0.088760 0.000000
0.000000 0.088760 0.025797
0.000000 0.088760 0.056563
0.000000 0.088760 0.087329
0.000000 0.088760 0.118094
0.000000 0.088760 0.148860
0.000000 0.088760 0.179626
0.000000 0.088760 0.210392
0.000000 0.088760 0.241157
0.000000 0.088760 0.271923
0.000000 0.088760 0.302689
0.000000 0.088760 0.333455
0.000000 0.088760 0.364220
0.000000 0.088760 0.394986
0.000000 0.088760 0.425752
0.000000 0.088760 0.456518
0.000000 0.088760 0.487283
0.000000 0.088760 0.517964
0.000000 0.088760 0.548245
0.000000 0.088760 0.578526
0.000000 0.088760 0.608807
0.000000 0.088760 0.639089
0.000000 0.088760 0.669370
0.000000 0.088760 0.699651
0.000000 0.088760 0.729932
0.000000 0.088760 0.760214
0.000000 0.088760 0.790495
0.000000 0.088760 0.820776
0.000000 0.088760 0.851058
0.000000 0.088760 0.881339
0.000000 0.088760 0.911620
0.000000 0.128450 0.000000
0.000000 0.128450 0.000000
0.000000 0.128450 0.000000
0.000000 0.128450 0.025797
0.000000 0.128450 0.056563
0.000000 0.128450 0.087329
0.000000 0.128450 0.118094
0.000000 0.128450 0.148860
0.000000 0.128450 0.179626
0.000000 0.128450 0.210392
0.000000 0.128450 0.241157
0.000000 0.128450 0.271923
0.000000 0.128450 0.302689
0.000000 0.128450 0.333455
0.000000 0.128450 0.364220
0.000000 0.128450 0.394986
0.000000 0.128450 0.425752
0.000000 0.128450 0.456518
0.000000 0.128450 0.487283
0.000000 0.128450 0.517964
0.000000 0.128450 0.548245
0.000000 0.128450 0.578526
0.000000 0.128450 0.608807
0.000000 0.128450 0.639089
0.000000 0.128450 0.669370
0.000000 0.128450 0.699651
0.000000 0.128450 0.729932
0.000000 0.128450 0.760214
0.000000 0.128450 0.790495
0.000000 0.128450 0.820776
0.000000 0.128450 0.851058
0.000000 0.128450 0.881339
0.000000 0.128450 0.911620
0.000000 0.168140 0.000000
0.000000 0.168140 0.000000
0.000000 0.168140 0.000000
0.000000 0.168140 0.025797
0.000000 0.168140 0.056563
0.000000 0.168140 0.087329
0.000000 0.168140 0.118094
0.000000 0.168140 0.148860
0.000000 0.168140 0.179626
0.000000 0.168140 0.210392
0.000000 0.168140 0.241157
0.000000 0.168140 0.271923
0.000000 0.168140 0.302689
0.000000 0.168140 0.333455
0.000000 0.168140 0.364220
0.000000 0.168140 0.394986
0.000000 0.168140 0.425752
0.000000 0.168140 0.456518
0.000000 0.168140 0.487283
0.000000 0.168140 0.517964
0.000000 0.168140 0.548245
0.000000 0.168140 0.578526
0.000000 0.168140 0.608807
0.000000 0.168140 0.639089
0.000000 0.168140 0.669370
0.000000 0.168140 0.699651
0.000000 0.168140 0.729932
0.000000 0.168140 0.760214
0.000000 0.168140 0.790495
0.000000 0.168140 0.820776
0.000000 0.168140 0.851058
0.000000 0.168140 0.881339
0.000000 0.168140 0.911620
0.000000 0.207830 0.000000
0.000000 0.207830 0.000000
0.000000 0.207830 0.000000
0.000000 0.207830 0.025797
0.000000 0.207830 0.056563
0.000000 0.207830 0.087329
0.000000 0.207830 0.118094
0.000000 0.207830 0.148860
0.000000 0.207830 0.179626
0.000000 0.207830 0.210392
0.000000 0.207830 0.241157
0.000000 0.207830 0.271923
0.000000 0.207830 0.302689
0.000000 0.207830 0.333455
0.000000 0.207830 0.364220
0.000000 0.207830 0.394986
0.000000 0.207830 0.425752
0.000000 0.207830 0.456518
0.000000 0.207830 0.487283
0.000000 0.207830 0.517964
0.000000 0.207830 0.548245
0.000000 0.207830 0.578526
0.000000 0.207830 0.608807
0.000000 0.207830 0.639089
0.000000 0.207830 0.669370
0.000000 0.207830 0.699651
0.000000 0.207830 0.729932
0.000000 0.207830 0.760214
0.000000 0.207830 0.790495
0.000000 0.207830 0.820776
0.000000 0.207830 0.851058
0.000000 0.207830 0.881339
0.000000 0.207830 0.911620
0.000000 0.247520 0.000000
0.000000 0.247520 0.000000
0.000000 0.247520 0.000000
0.000000 0.247520 0.025797
0.000000 0.247520 0.056563
0.000000 0.247520 0.087329
0.000000 0.247520 0.118094
0.000000 0.247520 0.148860
0.000000 0.247520 0.179626
0.000000 0.247520 0.210392
0.000000 0.247520 0.241157
0.000000 0.247520 0.271923
0.000000 0.247520 0.302689
0.000000 0.247520 0.333455
0.000000 0.247520 0.364220
0.000000 0.247520 0.394986
0.000000 0.247520 0.425752
0.000000 0.247520 0.456518
0.000000 0.247520 0.487283
0.000000 0.247520 0.517964
0.000000 0.247520 0.548245
0.000000 0.247520 0.578526
0.000000 0.247520 0.608807
0.000000 0.247520 0.639089
0.000000 0.247520 0.669370
0.000000 0.247520 0.699651
0.000000 0.247520 0.729932
0.000000 0.247520 0.760214
0.000000 0.247520 0.790495
0.000000 0.247520 0.820776
0.000000 0.247520 0.851058
0.000000 0.247520 0.881339
0.000000 0.247520 0.911620
0.000000 0.287210 0.000000
0.000000 0.287210 0.000000
0.000000 0.287210 0.000000
0.000000 0.287210 0.025797
0.000000 0.287210 0.056563
0.000000 0.287210 0.087329
0.000000 0.287210 0.118094
0.000000 0.287210 0.148860
0.000000 0.287210 0.179626
0.000000 0.287210 0.210392
0.000000 0.287210 0.241157
0.000000 0.287210 0.271923
0.000000 0.287210 0.302689
0.000000 0.287210 0.333455
0.000000 0.287210 0.364220
0.000000 0.287210 0.394986
0.000000 0.287210 0.425752
0.000000 0.287210 0.456518
0.000000 0.287210 0.487283
0.000000 0.287210 0.517964
0.000000 0.287210 0.548245
0.000000 0.287210 0.578526
0.000000 0.287210 0.608807
0.000000 0.287210 0.639089
0.000000 0.287210 0.669370
0.000000 0.287210 0.699651
0.000000 0.287210 0.729932
0.000000 0.287210 0.760214
0.000000 0.287210 0.790495
0.000000 0.287210 0.820776
0.000000 0.287210 0.851058
0.000000 0.287210 0.881339
0.000000 0.287210 0.911620
0.000000 0.326900 0.000000
0.000000 0.326900 0.000000
0.000000 0.326900 0.000000
0.000000 0.326900 0.025797
0.000000 0.326900 0.056563
0.000000 0.326900 0.087329
0.000000 0.326900 0.118094
0.000000 0.326900 0.148860
0.000000 0.326900 0.179626
0.000000 0.326900 0.210392
0.000000 0.326900 0.241157
0.000000 0.326900 0.271923
0.000000 0.326900 0.302689
0.000000 0.326900 0.333455
0.000000 0.326900 0.364220
0.000000 0.326900 0.394986
0.000000 0.326900 0.425752
0.000000 0.326900 0.456518
0.000000 0.326900 0.487283
0.000000 0.326900 0.517964
0.000000 0.326900 0.548245
0.000000 0.326900 0.578526
0.000000 0.326900 0.608807
0.000000 0.326900 0.639089
0.000000 0.326900 0.669370
0.000000 0.326900 0.699651
0.000000 0.326900 0.729932
0.000000 0.326900 0.760214
0.000000 0.326900 0.790495
0.000000 0.326900 0.820776
0.000000 0.326900 0.851058
0.000000 0.326900 0.881339
0.000000 0.326900 0.911620
0.000000 0.366590 0.000000
0.000000 0.366590 0.000000
0.000000 0.366590 0.000000
0.000000 0.366590 0.025797
0.000000 0.366590 0.056563
0.000000 0.366590 0.087329
0.000000 0.366590 0.118094
0.000000 0.366590 0.148860
0.000000 0.366590 0.179626
0.000000 0.366590 0.210392
0.000000 0.366590 0.241157
0.000000 0.366590 0.271923
0.000000 0.366590 0.302689
0.000000 0.366590 0.333455
0.000000 0.366590 0.364220
0.000000 0.366590 0.394986
0.000000 0.366590 0.425752
0.000000 0.366590 0.456518
0.000000 0.366590 0.487283
0.000000 0.366590 0.517964
0.000000 0.366590 0.548245
0.000000 0.366590 0.578526
0.000000 0.366590 0.608807
0.000000 0.366590 0.639089
0.000000 0.366590 0.669370
0.000000 0.366590 0.699651
0.000000 0.366590 0.729932
0.000000 0.366590 0.760214
0.000000 0.366590 0.790495
0.000000 0.366590 0.820776
0.000000 0.366590 0.851058
0.000000 0.366590 0.881339
0.000000 0.366590 0.911620
0.000000 0.406280 0.000000
0.000000 0.406280 0.000000
0.000000 0.406280 0.000000
0.000000 0.406280 0.025797
0.000000 0.406280 0.056563
0.000000 0.406280 0.087329
0.000000 0.406280 0.118094
0.000000 0.406280 0.148860
0.000000 0.406280 0.179626
0.000000 0.406280 0.210392
0.000000 0.406280 0.241157
0.000000 0.406280 0.271923
0.000000 0.406280 0.302689
0.000000 0.406280 0.333455
0.000000 0.406280 0.364220
0.000000 0.406280 0.394986
0.000000 0.406280 0.425752
0.000000 0.406280 0.456518
0.000000 0.406280 0.487283
0.000000 0.406280 0.517964
0.000000 0.406280 0.548245
0.000000 0.406280 0.578526
0.000000 0.406280 0.608807
0.000000 0.406280 0.639089
0.000000 0.406280 0.669370
0.000000 0.406280 0.699651
0.000000 0.406280 0.729932
0.000000 0.406280 0.760214
0.000000 0.406280 0.790495
0.000000 0.406280 0.820776
0.000000 0.406280 0.851058
0.000000 0.406280 0.881339
0.000000 0.406280 0.911620
0.000000 0.445970 0.000000
0.000000 0.445970 0.000000
0.000000 0.445970 0.000000
0.000000 0.445970 0.025797
0.000000 0.445970 0.056563
0.000000 0.445970 0.087329
0.000000 0.445970 0.118094
0.000000 0.445970 0.148860
0.000000 0.445970 0.179626
0.000000 0.445970 0.210392
0.000000 0.445970 0.241157
0.000000 0.445970 0.271923
0.000000 0.445970 0.302689
0.000000 0.445970 0.333455
0.000000 0.445970 0.364220
0.000000 0.445970 0.394986
0.000000 0.445970 0.425752
0.000000 0.445970 0.456518
0.000000 0.445970 0.487283
0.000000 0.445970 0.517964
0.000000 0.445970 0.548245
0.000000 0.445970 0.578526
0.000000 0.445970 0.608807
0.000000 0.445970 0.639089
0.000000 0.445970 0.669370
0.000000 0.445970 0.699651
0.000000 0.445970 0.729932
0.000000 0.445970 0.760214
0.000000 0.445970 0.790495
0.000000 0.445970 0.820776
0.000000 0.445970 0.851058
0.000000 0.445970 0.881339
0.000000 0.445970 0.911620
0.000000 0.485660 0.000000
0.000000 0.485660 0.000000
0.000000 0.485660 0.000000
0.000000 0.485660 0.025797
0.000000 0.485660 0.056563
0.000000 0.485660 0.087329
0.000000 0.485660 0.118094
0.000000 0.485660 0.148860
0.000000 0.485660 0.179626
0.000000 0.485660 0.210392
0.000000 0.485660 0.241157
0.000000 0.485660 0.271923
0.000000 0.485660 0.302689
0.000000 0.485660 0.333455
0.000000 0.485660 0.364220
0.000000 0.485660 0.394986
0.000000 0.485660 0.425752
0.000000 0.485660 0.456518
0.000000 0.485660 0.487283
0.000000 0.485660 0.517964
0.000000 0.485660 0.548245
0.000000 0.485660 0.578526
0.000000 0.485660 0.608807
0.000000 0.485660 0.639089
0.000000 0.485660 0.669370
0.000000 0.485660 0.699651
0.000000 0.485660 0.729932
0.000000 0.485660 0.760214
0.000000 0.485660 0.790495
0.000000 0.485660 0.820776
0.000000 0.485660 0.851058
0.000000 0.485660 0.881339
0.000000 0.485660 0.911620
0.000000 0.525350 0.000000
0.000000 0.525350 0.000000
0.000000 0.525350 0.000000
0.000000 0.525350 0.025797
0.000000 0.525350 0.056563
0.000000 0.525350 0.087329
0.000000 0.525350 0.118094
0.000000 0.525350 0.148860
0.000000 0.525350 0.179626
0.000000 0.525350 0.210392
0.000000 0.525350 0.241157
0.000000 0.525350 0.271923
0.000000 0.525350 0.302689
0.000000 0.525350 0.333455
0.000000 0.525350 0.364220
0.000000 0.525350 0.394986
0.000000 0.525350 0.425752
0.000000 0.525350 0.456518
0.000000 0.525350 0.487283
0.000000 0.525350 0.517964
0.000000 0.525350 0.548245
0.000000 0.525350 0.578526
0.000000 0.525350 0.608807
0.000000 0.525350 0.639089
0.000000 0.525350 0.669370
0.000000 0.525350 0.699651
0.000000 0.525350 0.729932
0.000000 0.525350 0.760214
0.000000 0.525350 0.790495
0.000000 0.525350 0.820776
0.000000 0.525350 0.851058
0.000000 0.525350 0.881339
0.000000 0.525350 0.911620
0.000000 0.564800 0.000000
0.000000 0.564800 0.000000
0.000000 0.564800 0.000000
0.000000 0.564800 0.025797
0.000000 0.564800 0.056563
0.000000 0.564800 0.087329
0.000000 0.564800 0.118094
0.000000 0.564800 0.148860
0.000000 0.564800 0.179626
0.000000 0.564800 0.210392
0.000000 0.564800 0.241157
0.000000 0.564800 0.271923
0.000000 0.564800 0.302689
0.000000 0.564800 0.333455
0.000000 0.564800 0.364220
0.000000 0.564800 0.394986
0.000000 0.564800 0.425752
0.000000 0.564800 0.456518
0.000000 0.564800 0.487283
0.000000 0.564800 0.517964
0.000000 0.564800 0.548245
0.000000 0.564800 0.578526
0.000000 0.564800 0.608807
0.000000 0.564800 0.639089
0.000000 0.564800 0.669370
0.000000 0.564800 0.699651
0.000000 0.564800 0.729932
0.000000 0.564800 0.760214
0.000000 0.564800 0.790495
0.000000 0.564800 0.820776
0.000000 0.564800 0.851058
0.000000 0.564800 0.881339
0.000000 0.564800 0.911620
0.000000 0.604175 0.000000
0.000000 0.604175 0.000000
0.000000 0.604175 0.000000
0.000000 0.604175 0.025797
0.000000 0.604175 0.056563
0.000000 0.604175 0.087329
0.000000 0.604175 0.118094
0.000000 0.604175 0.148860
0.000000 0.604175 0.179626
0.000000 0.604175 0.210392
0.000000 0.604175 0.241157
0.000000 0.604175 0.271923
0.000000 0.604175 0.302689
0.000000 0.604175 0.333455
0.000000 0.604175 0.364220
0.000000 0.604175 0.394986
0.000000 0.604175 0.425752
0.000000 0.604175 0.456518
0.000000 0.604175 0.487283
0.000000 0.604175 0.517964
0.000000 0.604175 0.548245
0.000000 0.604175 0.578526
0.000000 0.604175 0.608807
0.000000 0.604175 0.639089
0.000000 0.604175 0.669370
0.000000 0.604175 0.699651
0.000000 0.604175 0.729932
0.000000 0.604175 0.760214
0.000000 0.604175 0.790495
0.000000 0.604175 0.820776
0.000000 0.604175 0.851058
0.000000 0.604175 0.881339
0.000000 0.604175 0.911620
0.000000 0.643550 0.000000
0.000000 0.643550 0.000000
0.000000 0.643550 0.000000
0.000000 0.643550 0.025797
0.000000 0.643550 0.056563
0.000000 0.643550 0.087329
0.000000 0.643550 0.118094
0.000000 0.643550 0.148860
0.000000 0.643550 0.179626
0.000000 0.643550 0.210392
0.000000 0.643550 0.241157
0.000000 0.643550 0.271923
0.000000 0.643550 0.302689
0.000000 0.643550 0.333455
0.000000 0.643550 0.364220
0.000000 0.643550 0.394986
0.000000 0.643550 0.425752
0.000000 0.643550 0.456518
0.000000 0.643550 0.487283
0.000000 0.643550 0.517964
0.000000 0.643550 0.548245
0.000000 0.643550 0.578526
0.000000 0.643550 0.608807
0.000000 0.643550 0.639089
0.000000 0.643550 0.669370
0.000000 0.643550 0.699651
0.000000 0.643550 0.729932
0.000000 0.643550 0.760214
0.000000 0.643550 0.790495
0.000000 0.643550 0.820776
0.000000 0.643550 0.851058
0.000000 0.643550 0.881339
0.000000 0.643550 0.911620
0.000000 0.682925 0.000000
0.000000 0.682925 0.000000
0.000000 0.682925 0.000000
0.000000 0.682925 0.025797
0.000000 0.682925 0.056563
0.000000 0.682925 0.087329
0.000000 0.682925 0.118094
0.000000 0.682925 0.148860
0.000000 0.682925 0.179626
0.000000 0.682925 0.210392
0.000000 0.682925 0.241157
0.000000 0.682925 0.271923
0.000000 0.682925 0.302689
0.000000 0.682925 0.333455
0.000000 0.682925 0.364220
0.000000 0.682925 0.394986
0.000000 0.682925 0.425752
0.000000 0.682925 0.456518
0.000000 0.682925 0.487283
0.000000 0.682925 0.517964
0.000000 0.682925 0.548245
0.000000 0.682925 0.578526
0.000000 0.682925 0.608807
0.000000 0.682925 0.639089
0.000000 0.682925 0.669370
0.000000 0.682925 0.699651
0.000000 0.682925 0.729932
0.000000 0.682925 0.760214
0.000000 0.682925 0.790495
0.000000 0.682925 0.820776
0.000000 0.682925 0.851058
0.000000 0.682925 0.881339
0.000000 0.682925 0.911620
0.000000 0.722300 0.000000
0.000000 0.722300 0.000000
0.000000 0.722300 0.000000
0.000000 0.722300 0.025797
0.000000 0.722300 0.056563
0.000000 0.722300 0.087329
0.000000 0.722300 0.118094
0.000000 0.722300 0.148860
0.000000 0.722300 0.179626
0.000000 0.722300 0.210392
0.000000 0.722300 0.241157
0.000000 0.722300 0.271923
0.000000 0.722300 0.302689
0.000000 0.722300 0.333455
0.000000 0.722300 0.364220
0.000000 0.722300 0.394986
0.000000 0.722300 0.425752
0.000000 0.722300 0.456518
0.000000 0.722300 0.487283
0.000000 0.722300 0.517964
0.000000 0.722300 0.548245
0.000000 0.722300 0.578526
0.000000 0.722300 0.608807
0.000000 0.722300 0.639089
0.000000 0.722300 0.669370
0.000000 0.722300 0.699651
0.000000 0.722300 0.729932
0.000000 0.722300 0.760214
0.000000 0.722300 0.790495
0.000000 0.722300 0.820776
0.000000 0.722300 0.851058
0.000000 0.722300 0.881339
0.000000 0.722300 0.911620
0.000000 0.761675 0.000000
0.000000 0.761675 0.000000
0.000000 0.761675 0.000000
0.000000 0.761675 0.025797
0.000000 0.761675 0.056563
0.000000 0.761675 0.087329
0.000000 0.761675 0.118094
0.000000 0.761675 0.148860
0.000000 0.761675 0.179626
0.000000 0.761675 0.210392
0.000000 0.761675 0.241157
0.000000 0.761675 0.271923
0.000000 0.761675 0.302689
0.000000 0.761675 0.333455
0.000000 0.761675 0.364220
0.000000 0.761675 0.394986
0.000000 0.761675 0.425752
0.000000 0.761675 0.456518
0.000000 0.761675 0.487283
0.000000 0.761675 0.517964
0.000000 0.761675 0.548245
0.000000 0.761675 0.578526
0.000000 0.761675 0.608807
0.000000 0.761675 0.639089
0.000000 0.761675 0.669370
0.000000 0.761675 0.699651
0.000000 0.761675 0.729932
0.000000 0.761675 0.760214
0.000000 0.761675 0.790495
0.000000 0.761675 0.820776
0.000000 0.761675 0.851058
0.000000 0.761675 0.881339
0.000000 0.761675 0.911620
0.000000 0.801050 0.000000
0.000000 0.801050 0.000000
0.000000 0.801050 0.000000
0.000000 0.801050 0.025797
0.000000 0.801050 0.056563
0.000000 0.801050 0.087329
0.000000 0.801050 0.118094
0.000000 0.801050 0.148860
0.000000 0.801050 0.179626
0.000000 0.801050 0.210392
0.000000 0.801050 0.241157
0.000000 0.801050 0.271923
0.000000 0.801050 0.302689
0.000000 0.801050 0.333455
0.000000 0.801050 0.364220
0.000000 0.801050 0.394986
0.000000 0.801050 0.425752
0.000000 0.801050 0.456518
0.000000 0.801050 0.487283
0.000000 0.801050 0.517964
0.000000 0.801050 0.548245
0.000000 0.801050 0.578526
0.000000 0.801050 0.608807
0.000000 0.801050 0.639089
0.000000 0.801050 0.669370
0.000000 0.801050 0.699651
0.000000 0.801050 0.729932
0.000000 0.801050 0.760214
0.000000 0.801050 0.790495
0.000000 0.801050 0.820776
0.000000 0.801050 0.851058
0.000000 0.801050 0.881339
0.000000 0.801050 0.911620
0.000000 0.840425 0.000000
0.000000 0.840425 0.000000
0.000000 0.840425 0.000000
0.000000 0.840425 0.025797
0.000000 0.840425 0.056563
0.000000 0.840425 0.087329
0.000000 0.840425 0.118094
0.000000 0.840425 0.148860
0.000000 0.840425 0.179626
0.000000 0.840425 0.210392
0.000000 0.840425 0.241157
0.000000 0.840425 0.271923
0.000000 0.840425 0.302689
0.000000 0.840425 0.333455
0.000000 0.840425 0.364220
0.000000 0.840425 0.394986
0.000000 0.840425 0.425752
0.000000 0.840425 0.456518
0.000000 0.840425 0.487283
0.000000 0.840425 0.517964
0.000000 0.840425 0.548245
0.000000 0.840425 0.578526
0.000000 0.840425 0.608807
0.000000 0.840425 0.639089
0.000000 0.840425 0.669370
0.000000 0.840425 0.699651
0.000000 0.840425 0.729932
0.000000 0.840425 0.760214
0.000000 0.840425 0.790495
0.000000 0.840425 0.820776
0.000000 0.840425 0.851058
0.000000 0.840425 0.881339
0.000000 0.840425 0.911620
0.000000 0.879800 0.000000
0.000000 0.879800 0.000000
0.000000 0.879800 0.000000
0.000000 0.879800 0.025797
0.000000 0.879800 0.056563
0.000000 0.879800 0.087329
0.000000 0.879800 0.118094
0.000000 0.879800 0.148860
0.000000 0.879800 0.179626
0.000000 0.879800 0.210392
0.000000 0.879800 0.241157
0.000000 0.879800 0.271923
0.000000 0.879800 0.302689
0.000000 0.879800 0.333455
0.000000 0.879800 0.364220
0.000000 0.879800 0.394986
0.000000 0.879800 0.425752
0.000000 0.879800 0.456518
0.000000 0.879800 0.487283
0.000000 0.879800 0.517964
0.000000 0.879800 0.548245
0.000000 0.879800 0.578526
0.000000 0.879800 0.608807
0.000000 0.879800 0.639089
0.000000 0.879800 0.669370
0.000000 0.879800 0.699651
0.000000 0.879800 0.729932
0.000000 0.879800 0.760214
0.000000 0.879800 0.790495
0.000000 0.879800 0.820776
0.000000 0.879800 0.851058
0.000000 0.879800 0.881339
0.000000 0.879800 0.911620
0.000000 0.919175 0.000000
0.000000 0.919175 0.000000
0.000000 0.919175 0.000000
0.000000 0.919175 0.025797
0.000000 0.919175 0.056563
0.000000 0.919175 0.087329
0.000000 0.919175 0.118094
0.000000 0.919175 0.148860
0.000000 0.919175 0.179626
0.000000 0.919175 0.210392
0.000000 0.919175 0.241157
0.000000 0.919175 0.271923
0.000000 0.919175 0.302689
0.000000 0.919175 0.333455
0.000000 0.919175 0.364220
0.000000 0.919175 0.394986
0.000000 0.919175 0.425752
0.000000 0.919175 0.456518
0.000000 0.919175 0.487283
0.000000 0.919175 0.517964
0.000000 0.919175 0.548245
0.000000 0.919175 0.578526
0.000000 0.919175 0.608807
0.000000 0.919175 0.639089
0.000000 0.919175 0.669370
0.000000 0.919175 0.699651
0.000000 0.919175 0.729932
0.000000 0.919175 0.760214
0.000000 0.919175 0.790495
0.000000 0.919175 0.820776
0.000000 0.919175 0.851058
0.000000 0.919175 0.881339
0.000000 0.919175 0.911620
0.000000 0.958550 0.000000
0.000000 0.958550 0.000000
0.000000 0.958550 0.000000
0.000000 0.958550 0.025797
0.000000 0.958550 0.056563
0.000000 0.958550 0.087329
0.000000 0.958550 0.118094
0.000000 0.958550 0.148860
0.000000 0.958550 0.179626
0.000000 0.958550 0.210392
0.000000 0.958550 0.241157
0.000000 0.958550 0.271923
0.000000 0.958550 0.302689
0.000000 0.958550 0.333455
0.000000 0.958550 0.364220
0.000000 0.958550 0.394986
0.000000 0.958550 0.425752
0.000000 0.958550 0.456518
0.000000 0.958550 0.487283
0.000000 0.958550 0.517964
0.000000 0.958550 0.548245
0.000000 0.958550 0.578526
0.000000 0.958550 0.608807
0.000000 0.958550 0.639089
0.000000 0.958550 0.669370
0.000000 0.958550 0.699651
0.000000 0.958550 0.729932
0.000000 0.958550 0.760214
0.000000 0.958550 0.790495
