luts/grand_budapest.cube
# Grand Budapest Hotel LUT
LUT_3D_SIZE 33
0.000000 0.000000 0.000000
0.000000 0.000000 0.034620
0.000000 0.000000 0.073879
0.000000 0.000000 0.112470
0.000000 0.000000 0.150646
0.000000 0.000000 0.188522
0.000000 0.000000 0.226162
0.000000 0.000000 0.263609
0.000000 0.000000 0.300891
0.000000 0.000000 0.338031
0.000000 0.000000 0.375045
0.000000 0.000000 0.411946
0.000000 0.000000 0.448744
0.000000 0.000000 0.485450
0.000000 0.000000 0.522070
0.000000 0.000000 0.558610
0.000000 0.000000 0.595077
0.000000 0.000000 0.631474
0.000000 0.000000 0.667807
0.000000 0.000000 0.704079
0.000000 0.000000 0.740293
0.000000 0.000000 0.776452
0.000000 0.000000 0.812560
0.000000 0.000000 0.848617
0.000000 0.000000 0.884628
0.000000 0.000000 0.920593
0.000000 0.000000 0.956514
0.000000 0.000000 0.961176
0.000000 0.000000 0.961176
0.000000 0.000000 0.961176
0.000000 0.000000 0.961176
0.000000 0.000000 0.961176
0.000000 0.000000 0.961176
0.000000 0.031335 0.000000
0.000000 0.031335 0.034620
0.000000 0.031335 0.073879
0.000000 0.031335 0.112470
0.000000 0.031335 0.150646
0.000000 0.031335 0.188522
0.000000 0.031335 0.226162
0.000000 0.031335 0.263609
0.000000 0.031335 0.300891
0.000000 0.031335 0.338031
0.000000 0.031335 0.375045
0.000000 0.031335 0.411946
0.000000 0.031335 0.448744
0.000000 0.031335 0.485450
0.000000 0.031335 0.522070
0.000000 0.031335 0.558610
0.000000 0.031335 0.595077
0.000000 0.031335 0.631474
0.000000 0.031335 0.667807
0.000000 0.031335 0.704079
0.000000 0.031335 0.740293
0.000000 0.031335 0.776452
0.000000 0.031335 0.812560
0.000000 0.031335 0.848617
0.000000 0.031335 0.884628
0.000000 0.031335 0.920593
0.000000 0.031335 0.956514
0.000000 0.031335 0.961176
0.000000 0.031335 0.961176
0.000000 0.031335 0.961176
0.000000 0.031335 0.961176
0.000000 0.031335 0.961176
0.000000 0.031335 0.961176
0.000000 0.067841 0.000000
0.000000 0.067841 0.034620
0.000000 0.067841 0.073879
0.000000 0.067841 0.112470
0.000000 0.067841 0.150646
0.000000 0.067841 0.188522
0.000000 0.067841 0.226162
0.000000 0.067841 0.263609
0.000000 0.067841 0.300891
0.000000 0.067841 0.338031
0.000000 0.067841 0.375045
0.000000 0.067841 0.411946
0.000000 0.067841 0.448744
0.000000 0.067841 0.485450
0.000000 0.067841 0.522070
0.000000 0.067841 0.558610
0.000000 0.067841 0.595077
0.000000 0.067841 0.631474
0.000000 0.067841 0.667807
0.000000 0.067841 0.704079
0.000000 0.067841 0.740293
0.000000 0.067841 0.776452
0.000000 0.067841 0.812560
0.000000 0.067841 0.848617
0.000000 0.067841 0.884628
0.000000 0.067841 0.920593
0.000000 0.067841 0.956514
0.000000 0.067841 0.961176
0.000000 0.067841 0.961176
0.000000 0.067841 0.961176
0.000000 0.067841 0.961176
0.000000 0.067841 0.961176
0.000000 0.067841 0.961176
0.000000 0.103716 0.000000
0.000000 0.103716 0.034620
0.000000 0.103716 0.073879
0.000000 0.103716 0.112470
0.000000 0.103716 0.150646
0.000000 0.103716 0.188522
0.000000 0.103716 0.226162
0.000000 0.103716 0.263609
0.000000 0.103716 0.300891
0.000000 0.103716 0.338031
0.000000 0.103716 0.375045
0.000000 0.103716 0.411946
0.000000 0.103716 0.448744
0.000000 0.103716 0.485450
0.000000 0.103716 0.522070
0.000000 0.103716 0.558610
0.000000 0.103716 0.595077
0.000000 0.103716 0.631474
0.000000 0.103716 0.667807
0.000000 0.103716 0.704079
0.000000 0.103716 0.740293
0.000000 0.103716 0.776452
0.000000 0.103716 0.812560
0.000000 0.103716 0.848617
0.000000 0.103716 0.884628
0.000000 0.103716 0.920593
0.000000 0.103716 0.956514
0.000000 0.103716 0.961176
0.000000 0.103716 0.961176
0.000000 0.103716 0.961176
0.000000 0.103716 0.961176
0.000000 0.103716 0.961176
0.000000 0.103716 0.961176
0.000000 0.139204 0.000000
0.000000 0.139204 0.034620
0.000000 0.139204 0.073879
0.000000 0.139204 0.112470
0.000000 0.139204 0.150646
0.000000 0.139204 0.188522
0.000000 0.139204 0.226162
0.000000 0.139204 0.263609
0.000000 0.139204 0.300891
0.000000 0.139204 0.338031
0.000000 0.139204 0.375045
0.000000 0.139204 0.411946
0.000000 0.139204 0.448744
0.000000 0.139204 0.485450
0.000000 0.139204 0.522070
0.000000 0.139204 0.558610
0.000000 0.139204 0.595077
0.000000 0.139204 0.631474
0.000000 0.139204 0.667807
0.000000 0.139204 0.704079
0.000000 0.139204 0.740293
0.000000 0.139204 0.776452
0.000000 0.139204 0.812560
0.000000 0.139204 0.848617
0.000000 0.139204 0.884628
0.000000 0.139204 0.920593
0.000000 0.139204 0.956514
0.000000 0.139204 0.961176
0.000000 0.139204 0.961176
0.000000 0.139204 0.961176
0.000000 0.139204 0.961176
0.000000 0.139204 0.961176
0.000000 0.139204 0.961176
0.000000 0.174410 0.000000
0.000000 0.174410 0.034620
0.000000 0.174410 0.073879
0.000000 0.174410 0.112470
0.000000 0.174410 0.150646
0.000000 0.174410 0.188522
0.000000 0.174410 0.226162
0.000000 0.174410 0.263609
0.000000 0.174410 0.300891
0.000000 0.174410 0.338031
0.000000 0.174410 0.375045
0.000000 0.174410 0.411946
0.000000 0.174410 0.448744
0.000000 0.174410 0.485450
0.000000 0.174410 0.522070
0.000000 0.174410 0.558610
0.000000 0.174410 0.595077
0.000000 0.174410 0.631474
0.000000 0.174410 0.667807
0.000000 0.174410 0.704079
0.000000 0.174410 0.740293
0.000000 0.174410 0.776452
0.000000 0.174410 0.812560
0.000000 0.174410 0.848617
0.000000 0.174410 0.884628
0.000000 0.174410 0.920593
0.000000 0.174410 0.956514
0.000000 0.174410 0.961176
0.000000 0.174410 0.961176
0.000000 0.174410 0.961176
0.000000 0.174410 0.961176
0.000000 0.174410 0.961176
0.000000 0.174410 0.961176
0.000000 0.209397 0.000000
0.000000 0.209397 0.034620
0.000000 0.209397 0.073879
0.000000 0.209397 0.112470
0.000000 0.209397 0.150646
0.000000 0.209397 0.188522
0.000000 0.209397 0.226162
0.000000 0.209397 0.263609
0.000000 0.209397 0.300891
0.000000 0.209397 0.338031
0.000000 0.209397 0.375045
0.000000 0.209397 0.411946
0.000000 0.209397 0.448744
0.000000 0.209397 0.485450
0.000000 0.209397 0.522070
0.000000 0.209397 0.558610
0.000000 0.209397 0.595077
0.000000 0.209397 0.631474
0.000000 0.209397 0.667807
0.000000 0.209397 0.704079
0.000000 0.209397 0.740293
0.000000 0.209397 0.776452
0.000000 0.209397 0.812560
0.000000 0.209397 0.848617
0.000000 0.209397 0.884628
0.000000 0.209397 0.920593
0.000000 0.209397 0.956514
0.000000 0.209397 0.961176
0.000000 0.209397 0.961176
0.000000 0.209397 0.961176
0.000000 0.209397 0.961176
0.000000 0.209397 0.961176
0.000000 0.209397 0.961176
0.000000 0.244203 0.000000
0.000000 0.244203 0.034620
0.000000 0.244203 0.073879
0.000000 0.244203 0.112470
0.000000 0.244203 0.150646
0.000000 0.244203 0.188522
0.000000 0.244203 0.226162
0.000000 0.244203 0.263609
0.000000 0.244203 0.300891
0.000000 0.244203 0.338031
0.000000 0.244203 0.375045
0.000000 0.244203 0.411946
0.000000 0.244203 0.448744
0.000000 0.244203 0.485450
0.000000 0.244203 0.522070
0.000000 0.244203 0.558610
0.000000 0.244203 0.595077
0.000000 0.244203 0.631474
0.000000 0.244203 0.667807
0.000000 0.244203 0.704079
0.000000 0.244203 0.740293
0.000000 0.244203 0.776452
0.000000 0.244203 0.812560
0.000000 0.244203 0.848617
0.000000 0.244203 0.884628
0.000000 0.244203 0.920593
0.000000 0.244203 0.956514
0.000000 0.244203 0.961176
0.000000 0.244203 0.961176
0.000000 0.244203 0.961176
0.000000 0.244203 0.961176
0.000000 0.244203 0.961176
0.000000 0.244203 0.961176
0.000000 0.278855 0.000000
0.000000 0.278855 0.034620
0.000000 0.278855 0.073879
0.000000 0.278855 0.112470
0.000000 0.278855 0.150646
0.000000 0.278855 0.188522
0.000000 0.278855 0.226162
0.000000 0.278855 0.263609
0.000000 0.278855 0.300891
0.000000 0.278855 0.338031
0.000000 0.278855 0.375045
0.000000 0.278855 0.411946
0.000000 0.278855 0.448744
0.000000 0.278855 0.485450
0.000000 0.278855 0.522070
0.000000 0.278855 0.558610
0.000000 0.278855 0.595077
0.000000 0.278855 0.631474
0.000000 0.278855 0.667807
0.000000 0.278855 0.704079
0.000000 0.278855 0.740293
0.000000 0.278855 0.776452
0.000000 0.278855 0.812560
0.000000 0.278855 0.848617
0.000000 0.278855 0.884628
0.000000 0.278855 0.920593
0.000000 0.278855 0.956514
0.000000 0.278855 0.961176
0.000000 0.278855 0.961176
0.000000 0.278855 0.961176
0.000000 0.278855 0.961176
0.000000 0.278855 0.961176
0.000000 0.278855 0.961176
0.000000 0.313375 0.000000
0.000000 0.313375 0.034620
0.000000 0.313375 0.073879
0.000000 0.313375 0.112470
0.000000 0.313375 0.150646
0.000000 0.313375 0.188522
0.000000 0.313375 0.226162
0.000000 0.313375 0.263609
0.000000 0.313375 0.300891
0.000000 0.313375 0.338031
0.000000 0.313375 0.375045
0.000000 0.313375 0.411946
0.000000 0.313375 0.448744
0.000000 0.313375 0.485450
0.000000 0.313375 0.522070
0.000000 0.313375 0.558610
0.000000 0.313375 0.595077
0.000000 0.313375 0.631474
0.000000 0.313375 0.667807
0.000000 0.313375 0.704079
0.000000 0.313375 0.740293
0.000000 0.313375 0.776452
0.000000 0.313375 0.812560
0.000000 0.313375 0.848617
0.000000 0.313375 0.884628
0.000000 0.313375 0.920593
0.000000 0.313375 0.956514
0.000000 0.313375 0.961176
0.000000 0.313375 0.961176
0.000000 0.313375 0.961176
0.000000 0.313375 0.961176
0.000000 0.313375 0.961176
0.000000 0.313375 0.961176
0.000000 0.347777 0.000000
0.000000 0.347777 0.034620
0.000000 0.347777 0.073879
0.000000 0.347777 0.112470
0.000000 0.347777 0.150646
0.000000 0.347777 0.188522
0.000000 0.347777 0.226162
0.000000 0.347777 0.263609
0.000000 0.347777 0.300891
0.000000 0.347777 0.338031
0.000000 0.347777 0.375045
0.000000 0.347777 0.411946
0.000000 0.347777 0.448744
0.000000 0.347777 0.485450
0.000000 0.347777 0.522070
0.000000 0.347777 0.558610
0.000000 0.347777 0.595077
0.000000 0.347777 0.631474
0.000000 0.347777 0.667807
0.000000 0.347777 0.704079
0.000000 0.347777 0.740293
0.000000 0.347777 0.776452
0.000000 0.347777 0.812560
0.000000 0.347777 0.848617
0.000000 0.347777 0.884628
0.000000 0.347777 0.920593
0.000000 0.347777 0.956514
0.000000 0.347777 0.961176
0.000000 0.347777 0.961176
0.000000 0.347777 0.961176
0.000000 0.347777 0.961176
0.000000 0.347777 0.961176
0.000000 0.347777 0.961176
0.000000 0.382074 0.000000
0.000000 0.382074 0.034620
0.000000 0.382074 0.073879
0.000000 0.382074 0.112470
0.000000 0.382074 0.150646
0.000000 0.382074 0.188522
0.000000 0.382074 0.226162
0.000000 0.382074 0.263609
0.000000 0.382074 0.300891
0.000000 0.382074 0.338031
0.000000 0.382074 0.375045
0.000000 0.382074 0.411946
0.000000 0.382074 0.448744
0.000000 0.382074 0.485450
0.000000 0.382074 0.522070
0.000000 0.382074 0.558610
0.000000 0.382074 0.595077
0.000000 0.382074 0.631474
0.000000 0.382074 0.667807
0.000000 0.382074 0.704079
0.000000 0.382074 0.740293
0.000000 0.382074 0.776452
0.000000 0.382074 0.812560
0.000000 0.382074 0.848617
0.000000 0.382074 0.884628
0.000000 0.382074 0.920593
0.000000 0.382074 0.956514
0.000000 0.382074 0.961176
0.000000 0.382074 0.961176
0.000000 0.382074 0.961176
0.000000 0.382074 0.961176
0.000000 0.382074 0.961176
0.000000 0.382074 0.961176
0.000000 0.416276 0.000000
0.000000 0.416276 0.034620
0.000000 0.416276 0.073879
0.000000 0.416276 0.112470
0.000000 0.416276 0.150646
0.000000 0.416276 0.188522
0.000000 0.416276 0.226162
0.000000 0.416276 0.263609
0.000000 0.416276 0.300891
0.000000 0.416276 0.338031
0.000000 0.416276 0.375045
0.000000 0.416276 0.411946
0.000000 0.416276 0.448744
0.000000 0.416276 0.485450
0.000000 0.416276 0.522070
0.000000 0.416276 0.558610
0.000000 0.416276 0.595077
0.000000 0.416276 0.631474
0.000000 0.416276 0.667807
0.000000 0.416276 0.704079
0.000000 0.416276 0.740293
0.000000 0.416276 0.776452
0.000000 0.416276 0.812560
0.000000 0.416276 0.848617
0.000000 0.416276 0.884628
0.000000 0.416276 0.920593
0.000000 0.416276 0.956514
0.000000 0.416276 0.961176
0.000000 0.416276 0.961176
0.000000 0.416276 0.961176
0.000000 0.416276 0.961176
0.000000 0.416276 0.961176
0.000000 0.416276 0.961176
0.000000 0.450391 0.000000
0.000000 0.450391 0.034620
0.000000 0.450391 0.073879
0.000000 0.450391 0.112470
0.000000 0.450391 0.150646
0.000000 0.450391 0.188522
0.000000 0.450391 0.226162
0.000000 0.450391 0.263609
0.000000 0.450391 0.300891
0.000000 0.450391 0.338031
0.000000 0.450391 0.375045
0.000000 0.450391 0.411946
0.000000 0.450391 0.448744
0.000000 0.450391 0.485450
0.000000 0.450391 0.522070
0.000000 0.450391 0.558610
0.000000 0.450391 0.595077
0.000000 0.450391 0.631474
0.000000 0.450391 0.667807
0.000000 0.450391 0.704079
0.000000 0.450391 0.740293
0.000000 0.450391 0.776452
0.000000 0.450391 0.812560
0.000000 0.450391 0.848617
0.000000 0.450391 0.884628
0.000000 0.450391 0.920593
0.000000 0.450391 0.956514
0.000000 0.450391 0.961176
0.000000 0.450391 0.961176
0.000000 0.450391 0.961176
0.000000 0.450391 0.961176
0.000000 0.450391 0.961176
0.000000 0.450391 0.961176
0.000000 0.484426 0.000000
0.000000 0.484426 0.034620
0.000000 0.484426 0.073879
0.000000 0.484426 0.112470
0.000000 0.484426 0.150646
0.000000 0.484426 0.188522
0.000000 0.484426 0.226162
0.000000 0.484426 0.263609
0.000000 0.484426 0.300891
0.000000 0.484426 0.338031
0.000000 0.484426 0.375045
0.000000 0.484426 0.411946
0.000000 0.484426 0.448744
0.000000 0.484426 0.485450
0.000000 0.484426 0.522070
0.000000 0.484426 0.558610
0.000000 0.484426 0.595077
0.000000 0.484426 0.631474
0.000000 0.484426 0.667807
0.000000 0.484426 0.704079
0.000000 0.484426 0.740293
0.000000 0.484426 0.776452
0.000000 0.484426 0.812560
0.000000 0.484426 0.848617
0.000000 0.484426 0.884628
0.000000 0.484426 0.920593
0.000000 0.484426 0.956514
0.000000 0.484426 0.961176
0.000000 0.484426 0.961176
0.000000 0.484426 0.961176
0.000000 0.484426 0.961176
0.000000 0.484426 0.961176
0.000000 0.484426 0.961176
0.000000 0.518388 0.000000
0.000000 0.518388 0.034620
0.000000 0.518388 0.073879
0.000000 0.518388 0.112470
0.000000 0.518388 0.150646
0.000000 0.518388 0.188522
0.000000 0.518388 0.226162
0.000000 0.518388 0.263609
0.000000 0.518388 0.300891
0.000000 0.518388 0.338031
0.000000 0.518388 0.375045
0.000000 0.518388 0.411946
0.000000 0.518388 0.448744
0.000000 0.518388 0.485450
0.000000 0.518388 0.522070
0.000000 0.518388 0.558610
0.000000 0.518388 0.595077
0.000000 0.518388 0.631474
0.000000 0.518388 0.667807
0.000000 0.518388 0.704079
0.000000 0.518388 0.740293
0.000000 0.518388 0.776452
0.000000 0.518388 0.812560
0.000000 0.518388 0.848617
0.000000 0.518388 0.884628
0.000000 0.518388 0.920593
0.000000 0.518388 0.956514
0.000000 0.518388 0.961176
0.000000 0.518388 0.961176
0.000000 0.518388 0.961176
0.000000 0.518388 0.961176
0.000000 0.518388 0.961176
0.000000 0.518388 0.961176
0.000000 0.552280 0.000000
0.000000 0.552280 0.034620
0.000000 0.552280 0.073879
0.000000 0.552280 0.112470
0.000000 0.552280 0.150646
0.000000 0.552280 0.188522
0.000000 0.552280 0.226162
0.000000 0.552280 0.263609
0.000000 0.552280 0.300891
0.000000 0.552280 0.338031
0.000000 0.552280 0.375045
0.000000 0.552280 0.411946
0.000000 0.552280 0.448744
0.000000 0.552280 0.485450
0.000000 0.552280 0.522070
0.000000 0.552280 0.558610
0.000000 0.552280 0.595077
0.000000 0.552280 0.631474
0.000000 0.552280 0.667807
0.000000 0.552280 0.704079
0.000000 0.552280 0.740293
0.000000 0.552280 0.776452
0.000000 0.552280 0.812560
0.000000 0.552280 0.848617
0.000000 0.552280 0.884628
0.000000 0.552280 0.920593
0.000000 0.552280 0.956514
0.000000 0.552280 0.961176
0.000000 0.552280 0.961176
0.000000 0.552280 0.961176
0.000000 0.552280 0.961176
0.000000 0.552280 0.961176
0.000000 0.552280 0.961176
0.000000 0.586109 0.000000
0.000000 0.586109 0.034620
0.000000 0.586109 0.073879
0.000000 0.586109 0.112470
0.000000 0.586109 0.150646
0.000000 0.586109 0.188522
0.000000 0.586109 0.226162
0.000000 0.586109 0.263609
0.000000 0.586109 0.300891
0.000000 0.586109 0.338031
0.000000 0.586109 0.375045
0.000000 0.586109 0.411946
0.000000 0.586109 0.448744
0.000000 0.586109 0.485450
0.000000 0.586109 0.522070
0.000000 0.586109 0.558610
0.000000 0.586109 0.595077
0.000000 0.586109 0.631474
0.000000 0.586109 0.667807
0.000000 0.586109 0.704079
0.000000 0.586109 0.740293
0.000000 0.586109 0.776452
0.000000 0.586109 0.812560
0.000000 0.586109 0.848617
0.000000 0.586109 0.884628
0.000000 0.586109 0.920593
0.000000 0.586109 0.956514
0.000000 0.586109 0.961176
0.000000 0.586109 0.961176
0.000000 0.586109 0.961176
0.000000 0.586109 0.961176
0.000000 0.586109 0.961176
0.000000 0.586109 0.961176
0.000000 0.619877 0.000000
0.000000 0.619877 0.034620
0.000000 0.619877 0.073879
0.000000 0.619877 0.112470
0.000000 0.619877 0.150646
0.000000 0.619877 0.188522
0.000000 0.619877 0.226162
0.000000 0.619877 0.263609
0.000000 0.619877 0.300891
0.000000 0.619877 0.338031
0.000000 0.619877 0.375045
0.000000 0.619877 0.411946
0.000000 0.619877 0.448744
0.000000 0.619877 0.485450
0.000000 0.619877 0.522070
0.000000 0.619877 0.558610
0.000000 0.619877 0.595077
0.000000 0.619877 0.631474
0.000000 0.619877 0.667807
0.000000 0.619877 0.704079
0.000000 0.619877 0.740293
0.000000 0.619877 0.776452
0.000000 0.619877 0.812560
0.000000 0.619877 0.848617
0.000000 0.619877 0.884628
0.000000 0.619877 0.920593
0.000000 0.619877 0.956514
0.000000 0.619877 0.961176
0.000000 0.619877 0.961176
0.000000 0.619877 0.961176
0.000000 0.619877 0.961176
0.000000 0.619877 0.961176
0.000000 0.619877 0.961176
0.000000 0.653588 0.000000
0.000000 0.653588 0.034620
0.000000 0.653588 0.073879
0.000000 0.653588 0.112470
0.000000 0.653588 0.150646
0.000000 0.653588 0.188522
0.000000 0.653588 0.226162
0.000000 0.653588 0.263609
0.000000 0.653588 0.300891
0.000000 0.653588 0.338031
0.000000 0.653588 0.375045
0.000000 0.653588 0.411946
0.000000 0.653588 0.448744
0.000000 0.653588 0.485450
0.000000 0.653588 0.522070
0.000000 0.653588 0.558610
0.000000 0.653588 0.595077
0.000000 0.653588 0.631474
0.000000 0.653588 0.667807
0.000000 0.653588 0.704079
0.000000 0.653588 0.740293
0.000000 0.653588 0.776452
0.000000 0.653588 0.812560
0.000000 0.653588 0.848617
0.000000 0.653588 0.884628
0.000000 0.653588 0.920593
0.000000 0.653588 0.956514
0.000000 0.653588 0.961176
0.000000 0.653588 0.961176
0.000000 0.653588 0.961176
0.000000 0.653588 0.961176
0.000000 0.653588 0.961176
0.000000 0.653588 0.961176
0.000000 0.687246 0.000000
0.000000 0.687246 0.034620
0.000000 0.687246 0.073879
0.000000 0.687246 0.112470
0.000000 0.687246 0.150646
0.000000 0.687246 0.188522
0.000000 0.687246 0.226162
0.000000 0.687246 0.263609
0.000000 0.687246 0.300891
0.000000 0.687246 0.338031
0.000000 0.687246 0.375045
0.000000 0.687246 0.411946
0.000000 0.687246 0.448744
0.000000 0.687246 0.485450
0.000000 0.687246 0.522070
0.000000 0.687246 0.558610
0.000000 0.687246 0.595077
0.000000 0.687246 0.631474
0.000000 0.687246 0.667807
0.000000 0.687246 0.704079
0.000000 0.687246 0.740293
0.000000 0.687246 0.776452
0.000000 0.687246 0.812560
0.000000 0.687246 0.848617
0.000000 0.687246 0.884628
0.000000 0.687246 0.920593
0.000000 0.687246 0.956514
0.000000 0.687246 0.961176
0.000000 0.687246 0.961176
0.000000 0.687246 0.961176
0.000000 0.687246 0.961176
0.000000 0.687246 0.961176
0.000000 0.687246 0.961176
0.000000 0.720853 0.000000
0.000000 0.720853 0.034620
0.000000 0.720853 0.073879
0.000000 0.720853 0.112470
0.000000 0.720853 0.150646
0.000000 0.720853 0.188522
0.000000 0.720853 0.226162
0.000000 0.720853 0.263609
0.000000 0.720853 0.300891
0.000000 0.720853 0.338031
0.000000 0.720853 0.375045
0.000000 0.720853 0.411946
0.000000 0.720853 0.448744
0.000000 0.720853 0.485450
0.000000 0.720853 0.522070
0.000000 0.720853 0.558610
0.000000 0.720853 0.595077
0.000000 0.720853 0.631474
0.000000 0.720853 0.667807
0.000000 0.720853 0.704079
0.000000 0.720853 0.740293
0.000000 0.720853 0.776452
0.000000 0.720853 0.812560
0.000000 0.720853 0.848617
0.000000 0.720853 0.884628
0.000000 0.720853 0.920593
0.000000 0.720853 0.956514
0.000000 0.720853 0.961176
0.000000 0.720853 0.961176
0.000000 0.720853 0.961176
0.000000 0.720853 0.961176
0.000000 0.720853 0.961176
0.000000 0.720853 0.961176
0.000000 0.754411 0.000000
0.000000 0.754411 0.034620
0.000000 0.754411 0.073879
0.000000 0.754411 0.112470
0.000000 0.754411 0.150646
0.000000 0.754411 0.188522
0.000000 0.754411 0.226162
0.000000 0.754411 0.263609
0.000000 0.754411 0.300891
0.000000 0.754411 0.338031
0.000000 0.754411 0.375045
0.000000 0.754411 0.411946
0.000000 0.754411 0.448744
0.000000 0.754411 0.485450
0.000000 0.754411 0.522070
0.000000 0.754411 0.558610
0.000000 0.754411 0.595077
0.000000 0.754411 0.631474
0.000000 0.754411 0.667807
0.000000 0.754411 0.704079
0.000000 0.754411 0.740293
0.000000 0.754411 0.776452
0.000000 0.754411 0.812560
0.000000 0.754411 0.848617
0.000000 0.754411 0.884628
0.000000 0.754411 0.920593
0.000000 0.754411 0.956514
0.000000 0.754411 0.961176
0.000000 0.754411 0.961176
0.000000 0.754411 0.961176
0.000000 0.754411 0.961176
0.000000 0.754411 0.961176
0.000000 0.754411 0.961176
0.000000 0.787923 0.000000
0.000000 0.787923 0.034620
0.000000 0.787923 0.073879
0.000000 0.787923 0.112470
0.000000 0.787923 0.150646
0.000000 0.787923 0.188522
0.000000 0.787923 0.226162
0.000000 0.787923 0.263609
0.000000 0.787923 0.300891
0.000000 0.787923 0.338031
0.000000 0.787923 0.375045
0.000000 0.787923 0.411946
0.000000 0.787923 0.448744
0.000000 0.787923 0.485450
0.000000 0.787923 0.522070
0.000000 0.787923 0.558610
0.000000 0.787923 0.595077
0.000000 0.787923 0.631474
0.000000 0.787923 0.667807
0.000000 0.787923 0.704079
0.000000 0.787923 0.740293
0.000000 0.787923 0.776452
0.000000 0.787923 0.812560
0.000000 0.787923 0.848617
0.000000 0.787923 0.884628
0.000000 0.787923 0.920593
0.000000 0.787923 0.956514
0.000000 0.787923 0.961176
0.000000 0.787923 0.961176
0.000000 0.787923 0.961176
0.000000 0.787923 0.961176
0.000000 0.787923 0.961176
0.000000 0.787923 0.961176
0.000000 0.821391 0.000000
0.000000 0.821391 0.034620
0.000000 0.821391 0.073879
0.000000 0.821391 0.112470
0.000000 0.821391 0.150646
0.000000 0.821391 0.188522
0.000000 0.821391 0.226162
0.000000 0.821391 0.263609
0.000000 0.821391 0.300891
0.000000 0.821391 0.338031
0.000000 0.821391 0.375045
0.000000 0.821391 0.411946
0.000000 0.821391 0.448744
0.000000 0.821391 0.485450
0.000000 0.821391 0.522070
0.000000 0.821391 0.558610
0.000000 0.821391 0.595077
0.000000 0.821391 0.631474
0.000000 0.821391 0.667807
0.000000 0.821391 0.704079
0.000000 0.821391 0.740293
0.000000 0.821391 0.776452
0.000000 0.821391 0.812560
0.000000 0.821391 0.848617
0.000000 0.821391 0.884628
0.000000 0.821391 0.920593
0.000000 0.821391 0.956514
0.000000 0.821391 0.961176
0.000000 0.821391 0.961176
0.000000 0.821391 0.961176
0.000000 0.821391 0.961176
0.000000 0.821391 0.961176
0.000000 0.821391 0.961176
0.000000 0.854817 0.000000
0.000000 0.854817 0.034620
0.000000 0.854817 0.073879
0.000000 0.854817 0.112470
0.000000 0.854817 0.150646
0.000000 0.854817 0.188522
0.000000 0.854817 0.226162
0.000000 0.854817 0.263609
0.000000 0.854817 0.300891
0.000000 0.854817 0.338031
0.000000 0.854817 0.375045
0.000000 0.854817 0.411946
0.000000 0.854817 0.448744
0.000000 0.854817 0.485450
0.000000 0.854817 0.522070
0.000000 0.854817 0.558610
0.000000 0.854817 0.595077
0.000000 0.854817 0.631474
0.000000 0.854817 0.667807
0.000000 0.854817 0.704079
0.000000 0.854817 0.740293
0.000000 0.854817 0.776452
0.000000 0.854817 0.812560
0.000000 0.854817 0.848617
0.000000 0.854817 0.884628
0.000000 0.854817 0.920593
0.000000 0.854817 0.956514
0.000000 0.854817 0.961176
0.000000 0.854817 0.961176
0.000000 0.854817 0.961176
0.000000 0.854817 0.961176
0.000000 0.854817 0.961176
0.000000 0.854817 0.961176
0.000000 0.888203 0.000000
0.000000 0.888203 0.034620
0.000000 0.888203 0.073879
0.000000 0.888203 0.112470
0.000000 0.888203 0.150646
0.000000 0.888203 0.188522
0.000000 0.888203 0.226162
0.000000 0.888203 0.263609
0.000000 0.888203 0.300891
0.000000 0.888203 0.338031
0.000000 0.888203 0.375045
0.000000 0.888203 0.411946
0.000000 0.888203 0.448744
0.000000 0.888203 0.485450
0.000000 0.888203 0.522070
0.000000 0.888203 0.558610
0.000000 0.888203 0.595077
0.000000 0.888203 0.631474
0.000000 0.888203 0.667807
0.000000 0.888203 0.704079
0.000000 0.888203 0.740293
0.000000 0.888203 0.776452
0.000000 0.888203 0.812560
0.000000 0.888203 0.848617
0.000000 0.888203 0.884628
0.000000 0.888203 0.920593
0.000000 0.888203 0.956514
0.000000 0.888203 0.961176
0.000000 0.888203 0.961176
