luts/grand_budapest.cube
# Grand Budapest Hotel LUT
LUT_3D_SIZE 9
0.000000 0.000000 0.000000
0.000000 0.000000 0.150646
0.000000 0.000000 0.300891
0.000000 0.000000 0.448744
0.000000 0.000000 0.595077
0.000000 0.000000 0.740293
0.000000 0.000000 0.884628
0.000000 0.000000 0.961176
0.000000 0.000000 0.961176
0.000000 0.139204 0.000000
0.000000 0.139204 0.150646
0.000000 0.139204 0.300891
0.000000 0.139204 0.448744
0.000000 0.139204 0.595077
0.000000 0.139204 0.740293
0.000000 0.139204 0.884628
0.000000 0.139204 0.961176
0.000000 0.139204 0.961176
0.000000 0.278855 0.000000
0.000000 0.278855 0.150646
0.000000 0.278855 0.300891
0.000000 0.278855 0.448744
0.000000 0.278855 0.595077
0.000000 0.278855 0.740293
0.000000 0.278855 0.884628
0.000000 0.278855 0.961176
0.000000 0.278855 0.961176
0.000000 0.416276 0.000000
0.000000 0.416276 0.150646
0.000000 0.416276 0.300891
0.000000 0.416276 0.448744
0.000000 0.416276 0.595077
0.000000 0.416276 0.740293
0.000000 0.416276 0.884628
0.000000 0.416276 0.961176
0.000000 0.416276 0.961176
0.000000 0.552280 0.000000
0.000000 0.552280 0.150646
0.000000 0.552280 0.300891
0.000000 0.552280 0.448744
0.000000 0.552280 0.595077
0.000000 0.552280 0.740293
0.000000 0.552280 0.884628
0.000000 0.552280 0.961176
0.000000 0.552280 0.961176
0.000000 0.687246 0.000000
0.000000 0.687246 0.150646
0.000000 0.687246 0.300891
0.000000 0.687246 0.448744
0.000000 0.687246 0.595077
0.000000 0.687246 0.740293
0.000000 0.687246 0.884628
0.000000 0.687246 0.961176
0.000000 0.687246 0.961176
0.000000 0.821391 0.000000
0.000000 0.821391 0.150646
0.000000 0.821391 0.300891
0.000000 0.821391 0.448744
0.000000 0.821391 0.595077
0.000000 0.821391 0.740293
0.000000 0.821391 0.884628
0.000000 0.821391 0.961176
0.000000 0.821391 0.961176
0.000000 0.954859 0.000000
0.000000 0.954859 0.150646
0.000000 0.954859 0.300891
0.000000 0.954859 0.448744
0.000000 0.954859 0.595077
0.000000 0.954859 0.740293
0.000000 0.954859 0.884628
0.000000 0.954859 0.961176
0.000000 0.954859 0.961176
0.000000 1.000000 0.000000
0.000000 1.000000 0.150646
0.000000 1.000000 0.300891
0.000000 1.000000 0.448744
0.000000 1.000000 0.595077
0.000000 1.000000 0.740293
0.000000 1.000000 0.884628
0.000000 1.000000 0.961176
0.000000 1.000000 0.961176
0.156782 0.000000 0.000000
0.156782 0.000000 0.150646
0.156782 0.000000 0.300891
0.156782 0.000000 0.448744
0.156782 0.000000 0.595077
0.156782 0.000000 0.740293
0.156782 0.000000 0.884628
0.156782 0.000000 0.961176
0.156782 0.000000 0.961176
0.156782 0.139204 0.000000
0.156782 0.139204 0.150646
0.156782 0.139204 0.300891
0.156782 0.139204 0.448744
0.156782 0.139204 0.595077
0.156782 0.139204 0.740293
0.156782 0.139204 0.884628
0.156782 0.139204 0.961176
0.156782 0.139204 0.961176
0.156782 0.278855 0.000000
0.156782 0.278855 0.150646
0.156782 0.278855 0.300891
0.156782 0.278855 0.448744
0.156782 0.278855 0.595077
0.156782 0.278855 0.740293
0.156782 0.278855 0.884628
0.156782 0.278855 0.961176
0.156782 0.278855 0.961176
0.156782 0.416276 0.000000
0.156782 0.416276 0.150646
0.156782 0.416276 0.300891
0.156782 0.416276 0.448744
0.156782 0.416276 0.595077
0.156782 0.416276 0.740293
0.156782 0.416276 0.884628
0.156782 0.416276 0.961176
0.156782 0.416276 0.961176
0.156782 0.552280 0.000000
0.156782 0.552280 0.150646
0.156782 0.552280 0.300891
0.156782 0.552280 0.448744
0.156782 0.552280 0.595077
0.156782 0.552280 0.740293
0.156782 0.552280 0.884628
0.156782 0.552280 0.961176
0.156782 0.552280 0.961176
0.156782 0.687246 0.000000
0.156782 0.687246 0.150646
0.156782 0.687246 0.300891
0.156782 0.687246 0.448744
0.156782 0.687246 0.595077
0.156782 0.687246 0.740293
0.156782 0.687246 0.884628
0.156782 0.687246 0.961176
0.156782 0.687246 0.961176
0.156782 0.821391 0.000000
0.156782 0.821391 0.150646
0.156782 0.821391 0.300891
0.156782 0.821391 0.448744
0.156782 0.821391 0.595077
0.156782 0.821391 0.740293
0.156782 0.821391 0.884628
0.156782 0.821391 0.961176
0.156782 0.821391 0.961176
0.156782 0.954859 0.000000
0.156782 0.954859 0.150646
0.156782 0.954859 0.300891
0.156782 0.954859 0.448744
0.156782 0.954859 0.595077
0.156782 0.954859 0.740293
0.156782 0.954859 0.884628
0.156782 0.954859 0.961176
0.156782 0.954859 0.961176
0.156782 1.000000 0.000000
0.156782 1.000000 0.150646
0.156782 1.000000 0.300891
0.156782 1.000000 0.448744
0.156782 1.000000 0.595077
0.156782 1.000000 0.740293
0.156782 1.000000 0.884628
0.156782 1.000000 0.961176
0.156782 1.000000 0.961176
0.313447 0.000000 0.000000
0.313447 0.000000 0.150646
0.313447 0.000000 0.300891
0.313447 0.000000 0.448744
0.313447 0.000000 0.595077
0.313447 0.000000 0.740293
0.313447 0.000000 0.884628
0.313447 0.000000 0.961176
0.313447 0.000000 0.961176
0.313447 0.139204 0.000000
0.313447 0.139204 0.150646
0.313447 0.139204 0.300891
0.313447 0.139204 0.448744
0.313447 0.139204 0.595077
0.313447 0.139204 0.740293
0.313447 0.139204 0.884628
0.313447 0.139204 0.961176
0.313447 0.139204 0.961176
0.313447 0.278855 0.000000
0.313447 0.278855 0.150646
0.313447 0.278855 0.300891
0.313447 0.278855 0.448744
0.313447 0.278855 0.595077
0.313447 0.278855 0.740293
0.313447 0.278855 0.884628
0.313447 0.278855 0.961176
0.313447 0.278855 0.961176
0.313447 0.416276 0.000000
0.313447 0.416276 0.150646
0.313447 0.416276 0.300891
0.313447 0.416276 0.448744
0.313447 0.416276 0.595077
0.313447 0.416276 0.740293
0.313447 0.416276 0.884628
0.313447 0.416276 0.961176
0.313447 0.416276 0.961176
0.313447 0.552280 0.000000
0.313447 0.552280 0.150646
0.313447 0.552280 0.300891
0.313447 0.552280 0.448744
0.313447 0.552280 0.595077
0.313447 0.552280 0.740293
0.313447 0.552280 0.884628
0.313447 0.552280 0.961176
0.313447 0.552280 0.961176
0.313447 0.687246 0.000000
0.313447 0.687246 0.150646
0.313447 0.687246 0.300891
0.313447 0.687246 0.448744
0.313447 0.687246 0.595077
0.313447 0.687246 0.740293
0.313447 0.687246 0.884628
0.313447 0.687246 0.961176
0.313447 0.687246 0.961176
0.313447 0.821391 0.000000
0.313447 0.821391 0.150646
0.313447 0.821391 0.300891
0.313447 0.821391 0.448744
0.313447 0.821391 0.595077
0.313447 0.821391 0.740293
0.313447 0.821391 0.884628
0.313447 0.821391 0.961176
0.313447 0.821391 0.961176
0.313447 0.954859 0.000000
0.313447 0.954859 0.150646
0.313447 0.954859 0.300891
0.313447 0.954859 0.448744
0.313447 0.954859 0.595077
0.313447 0.954859 0.740293
0.313447 0.954859 0.884628
0.313447 0.954859 0.961176
0.313447 0.954859 0.961176
0.313447 1.000000 0.000000
0.313447 1.000000 0.150646
0.313447 1.000000 0.300891
0.313447 1.000000 0.448744
0.313447 1.000000 0.595077
0.313447 1.000000 0.740293
0.313447 1.000000 0.884628
0.313447 1.000000 0.961176
0.313447 1.000000 0.961176
0.467615 0.000000 0.000000
0.467615 0.000000 0.150646
0.467615 0.000000 0.300891
0.467615 0.000000 0.448744
0.467615 0.000000 0.595077
0.467615 0.000000 0.740293
0.467615 0.000000 0.884628
0.467615 0.000000 0.961176
0.467615 0.000000 0.961176
0.467615 0.139204 0.000000
0.467615 0.139204 0.150646
0.467615 0.139204 0.300891
0.467615 0.139204 0.448744
0.467615 0.139204 0.595077
0.467615 0.139204 0.740293
0.467615 0.139204 0.884628
0.467615 0.139204 0.961176
0.467615 0.139204 0.961176
0.467615 0.278855 0.000000
0.467615 0.278855 0.150646
0.467615 0.278855 0.300891
0.467615 0.278855 0.448744
0.467615 0.278855 0.595077
0.467615 0.278855 0.740293
0.467615 0.278855 0.884628
0.467615 0.278855 0.961176
0.467615 0.278855 0.961176
0.467615 0.416276 0.000000
0.467615 0.416276 0.150646
0.467615 0.416276 0.300891
0.467615 0.416276 0.448744
0.467615 0.416276 0.595077
0.467615 0.416276 0.740293
0.467615 0.416276 0.884628
0.467615 0.416276 0.961176
0.467615 0.416276 0.961176
0.467615 0.552280 0.000000
0.467615 0.552280 0.150646
0.467615 0.552280 0.300891
0.467615 0.552280 0.448744
0.467615 0.552280 0.595077
0.467615 0.552280 0.740293
0.467615 0.552280 0.884628
0.467615 0.552280 0.961176
0.467615 0.552280 0.961176
0.467615 0.687246 0.000000
0.467615 0.687246 0.150646
0.467615 0.687246 0.300891
0.467615 0.687246 0.448744
0.467615 0.687246 0.595077
0.467615 0.687246 0.740293
0.467615 0.687246 0.884628
0.467615 0.687246 0.961176
0.467615 0.687246 0.961176
0.467615 0.821391 0.000000
0.467615 0.821391 0.150646
0.467615 0.821391 0.300891
0.467615 0.821391 0.448744
0.467615 0.821391 0.595077
0.467615 0.821391 0.740293
0.467615 0.821391 0.884628
0.467615 0.821391 0.961176
0.467615 0.821391 0.961176
0.467615 0.954859 0.000000
0.467615 0.954859 0.150646
0.467615 0.954859 0.300891
0.467615 0.954859 0.448744
0.467615 0.954859 0.595077
0.467615 0.954859 0.740293
0.467615 0.954859 0.884628
0.467615 0.954859 0.961176
0.467615 0.954859 0.961176
0.467615 1.000000 0.000000
0.467615 1.000000 0.150646
0.467615 1.000000 0.300891
0.467615 1.000000 0.448744
0.467615 1.000000 0.595077
0.467615 1.000000 0.740293
0.467615 1.000000 0.884628
0.467615 1.000000 0.961176
0.467615 1.000000 0.961176
0.620196 0.000000 0.000000
0.620196 0.000000 0.150646
0.620196 0.000000 0.300891
0.620196 0.000000 0.448744
0.620196 0.000000 0.595077
0.620196 0.000000 0.740293
0.620196 0.000000 0.884628
0.620196 0.000000 0.961176
0.620196 0.000000 0.961176
0.620196 0.139204 0.000000
0.620196 0.139204 0.150646
0.620196 0.139204 0.300891
0.620196 0.139204 0.448744
0.620196 0.139204 0.595077
0.620196 0.139204 0.740293
0.620196 0.139204 0.884628
0.620196 0.139204 0.961176
0.620196 0.139204 0.961176
0.620196 0.278855 0.000000
0.620196 0.278855 0.150646
0.620196 0.278855 0.300891
0.620196 0.278855 0.448744
0.620196 0.278855 0.595077
0.620196 0.278855 0.740293
0.620196 0.278855 0.884628
0.620196 0.278855 0.961176
0.620196 0.278855 0.961176
0.620196 0.416276 0.000000
0.620196 0.416276 0.150646
0.620196 0.416276 0.300891
0.620196 0.416276 0.448744
0.620196 0.416276 0.595077
0.620196 0.416276 0.740293
0.620196 0.416276 0.884628
0.620196 0.416276 0.961176
0.620196 0.416276 0.961176
0.620196 0.552280 0.000000
0.620196 0.552280 0.150646
0.620196 0.552280 0.300891
0.620196 0.552280 0.448744
0.620196 0.552280 0.595077
0.620196 0.552280 0.740293
0.620196 0.552280 0.884628
0.620196 0.552280 0.961176
0.620196 0.552280 0.961176
0.620196 0.687246 0.000000
0.620196 0.687246 0.150646
0.620196 0.687246 0.300891
0.620196 0.687246 0.448744
0.620196 0.687246 0.595077
0.620196 0.687246 0.740293
0.620196 0.687246 0.884628
0.620196 0.687246 0.961176
0.620196 0.687246 0.961176
0.620196 0.821391 0.000000
0.620196 0.821391 0.150646
0.620196 0.821391 0.300891
0.620196 0.821391 0.448744
0.620196 0.821391 0.595077
0.620196 0.821391 0.740293
0.620196 0.821391 0.884628
0.620196 0.821391 0.961176
0.620196 0.821391 0.961176
0.620196 0.954859 0.000000
0.620196 0.954859 0.150646
0.620196 0.954859 0.300891
0.620196 0.954859 0.448744
0.620196 0.954859 0.595077
0.620196 0.954859 0.740293
0.620196 0.954859 0.884628
0.620196 0.954859 0.961176
0.620196 0.954859 0.961176
0.620196 1.000000 0.000000
0.620196 1.000000 0.150646
0.620196 1.000000 0.300891
0.620196 1.000000 0.448744
0.620196 1.000000 0.595077
0.620196 1.000000 0.740293
0.620196 1.000000 0.884628
0.620196 1.000000 0.961176
0.620196 1.000000 0.961176
0.771613 0.000000 0.000000
0.771613 0.000000 0.150646
0.771613 0.000000 0.300891
0.771613 0.000000 0.448744
0.771613 0.000000 0.595077
0.771613 0.000000 0.740293
0.771613 0.000000 0.884628
0.771613 0.000000 0.961176
0.771613 0.000000 0.961176
0.771613 0.139204 0.000000
0.771613 0.139204 0.150646
0.771613 0.139204 0.300891
0.771613 0.139204 0.448744
0.771613 0.139204 0.595077
0.771613 0.139204 0.740293
0.771613 0.139204 0.884628
0.771613 0.139204 0.961176
0.771613 0.139204 0.961176
0.771613 0.278855 0.000000
0.771613 0.278855 0.150646
0.771613 0.278855 0.300891
0.771613 0.278855 0.448744
0.771613 0.278855 0.595077
0.771613 0.278855 0.740293
0.771613 0.278855 0.884628
0.771613 0.278855 0.961176
0.771613 0.278855 0.961176
0.771613 0.416276 0.000000
0.771613 0.416276 0.150646
0.771613 0.416276 0.300891
0.771613 0.416276 0.448744
0.771613 0.416276 0.595077
0.771613 0.416276 0.740293
0.771613 0.416276 0.884628
0.771613 0.416276 0.961176
0.771613 0.416276 0.961176
0.771613 0.552280 0.000000
0.771613 0.552280 0.150646
0.771613 0.552280 0.300891
0.771613 0.552280 0.448744
0.771613 0.552280 0.595077
0.771613 0.552280 0.740293
0.771613 0.552280 0.884628
0.771613 0.552280 0.961176
0.771613 0.552280 0.961176
0.771613 0.687246 0.000000
0.771613 0.687246 0.150646
0.771613 0.687246 0.300891
0.771613 0.687246 0.448744
0.771613 0.687246 0.595077
0.771613 0.687246 0.740293
0.771613 0.687246 0.884628
0.771613 0.687246 0.961176
0.771613 0.687246 0.961176
0.771613 0.821391 0.000000
0.771613 0.821391 0.150646
0.771613 0.821391 0.300891
0.771613 0.821391 0.448744
0.771613 0.821391 0.595077
0.771613 0.821391 0.740293
0.771613 0.821391 0.884628
0.771613 0.821391 0.961176
0.771613 0.821391 0.961176
0.771613 0.954859 0.000000
0.771613 0.954859 0.150646
0.771613 0.954859 0.300891
0.771613 0.954859 0.448744
0.771613 0.954859 0.595077
0.771613 0.954859 0.740293
0.771613 0.954859 0.884628
0.771613 0.954859 0.961176
0.771613 0.954859 0.961176
0.771613 1.000000 0.000000
0.771613 1.000000 0.150646
0.771613 1.000000 0.300891
0.771613 1.000000 0.448744
0.771613 1.000000 0.595077
0.771613 1.000000 0.740293
0.771613 1.000000 0.884628
0.771613 1.000000 0.961176
0.771613 1.000000 0.961176
0.922110 0.000000 0.000000
0.922110 0.000000 0.150646
0.922110 0.000000 0.300891
0.922110 0.000000 0.448744
0.922110 0.000000 0.595077
0.922110 0.000000 0.740293
0.922110 0.000000 0.884628
0.922110 0.000000 0.961176
0.922110 0.000000 0.961176
0.922110 0.139204 0.000000
0.922110 0.139204 0.150646
0.922110 0.139204 0.300891
0.922110 0.139204 0.448744
0.922110 0.139204 0.595077
0.922110 0.139204 0.740293
0.922110 0.139204 0.884628
0.922110 0.139204 0.961176
0.922110 0.139204 0.961176
0.922110 0.278855 0.000000
0.922110 0.278855 0.150646
0.922110 0.278855 0.300891
0.922110 0.278855 0.448744
0.922110 0.278855 0.595077
0.922110 0.278855 0.740293
0.922110 0.278855 0.884628
0.922110 0.278855 0.961176
0.922110 0.278855 0.961176
0.922110 0.416276 0.000000
0.922110 0.416276 0.150646
0.922110 0.416276 0.300891
0.922110 0.416276 0.448744
0.922110 0.416276 0.595077
0.922110 0.416276 0.740293
0.922110 0.416276 0.884628
0.922110 0.416276 0.961176
0.922110 0.416276 0.961176
0.922110 0.552280 0.000000
0.922110 0.552280 0.150646
0.922110 0.552280 0.300891
0.922110 0.552280 0.448744
0.922110 0.552280 0.595077
0.922110 0.552280 0.740293
0.922110 0.552280 0.884628
0.922110 0.552280 0.961176
0.922110 0.552280 0.961176
0.922110 0.687246 0.000000
0.922110 0.687246 0.150646
0.922110 0.687246 0.300891
0.922110 0.687246 0.448744
0.922110 0.687246 0.595077
0.922110 0.687246 0.740293
0.922110 0.687246 0.884628
0.922110 0.687246 0.961176
0.922110 0.687246 0.961176
0.922110 0.821391 0.000000
0.922110 0.821391 0.150646
0.922110 0.821391 0.300891
0.922110 0.821391 0.448744
0.922110 0.821391 0.595077
0.922110 0.821391 0.740293
0.922110 0.821391 0.884628
0.922110 0.821391 0.961176
0.922110 0.821391 0.961176
0.922110 0.954859 0.000000
0.922110 0.954859 0.150646
0.922110 0.954859 0.300891
0.922110 0.954859 0.448744
0.922110 0.954859 0.595077
0.922110 0.954859 0.740293
0.922110 0.954859 0.884628
0.922110 0.954859 0.961176
0.922110 0.954859 0.961176
0.922110 1.000000 0.000000
0.922110 1.000000 0.150646
0.922110 1.000000 0.300891
0.922110 1.000000 0.448744
0.922110 1.000000 0.595077
0.922110 1.000000 0.740293
0.922110 1.000000 0.884628
0.922110 1.000000 0.961176
0.922110 1.000000 0.961176
1.000000 0.000000 0.000000
1.000000 0.000000 0.150646
1.000000 0.000000 0.300891
1.000000 0.000000 0.448744
1.000000 0.000000 0.595077
1.000000 0.000000 0.740293
1.000000 0.000000 0.884628
1.000000 0.000000 0.961176
1.000000 0.000000 0.961176
1.000000 0.139204 0.000000
1.000000 0.139204 0.150646
1.000000 0.139204 0.300891
1.000000 0.139204 0.448744
1.000000 0.139204 0.595077
1.000000 0.139204 0.740293
1.000000 0.139204 0.884628
1.000000 0.139204 0.961176
1.000000 0.139204 0.961176
1.000000 0.278855 0.000000
1.000000 0.278855 0.150646
1.000000 0.278855 0.300891
1.000000 0.278855 0.448744
1.000000 0.278855 0.595077
1.000000 0.278855 0.740293
1.000000 0.278855 0.884628
1.000000 0.278855 0.961176
1.000000 0.278855 0.961176
1.000000 0.416276 0.000000
1.000000 0.416276 0.150646
1.000000 0.416276 0.300891
1.000000 0.416276 0.448744
1.000000 0.416276 0.595077
1.000000 0.416276 0.740293
1.000000 0.416276 0.884628
1.000000 0.416276 0.961176
1.000000 0.416276 0.961176
1.000000 0.552280 0.000000
1.000000 0.552280 0.150646
1.000000 0.552280 0.300891
1.000000 0.552280 0.448744
1.000000 0.552280 0.595077
1.000000 0.552280 0.740293
1.000000 0.552280 0.884628
1.000000 0.552280 0.961176
1.000000 0.552280 0.961176
1.000000 0.687246 0.000000
1.000000 0.687246 0.150646
1.000000 0.687246 0.300891
1.000000 0.687246 0.448744
1.000000 0.687246 0.595077
1.000000 0.687246 0.740293
1.000000 0.687246 0.884628
1.000000 0.687246 0.961176
1.000000 0.687246 0.961176
1.000000 0.821391 0.000000
1.000000 0.821391 0.150646
1.000000 0.821391 0.300891
1.000000 0.821391 0.448744
1.000000 0.821391 0.595077
1.000000 0.821391 0.740293
1.000000 0.821391 0.884628
1.000000 0.821391 0.961176
1.000000 0.821391 0.961176
1.000000 0.954859 0.000000
1.000000 0.954859 0.150646
1.000000 0.954859 0.300891
1.000000 0.954859 0.448744
1.000000 0.954859 0.595077
1.000000 0.954859 0.740293
1.000000 0.954859 0.884628
1.000000 0.954859 0.961176
1.000000 0.954859 0.961176
1.000000 1.000000 0.000000
1.000000 1.000000 0.150646
1.000000 1.000000 0.300891
1.000000 1.000000 0.448744
1.000000 1.000000 0.595077
1.000000 1.000000 0.740293
1.000000 1.000000 0.884628
1.000000 1.000000 0.961176
1.000000 1.000000 0.961176
1.000000 0.000000 0.000000
1.000000 0.000000 0.150646
1.000000 0.000000 0.300891
1.000000 0.000000 0.448744
1.000000 0.000000 0.595077
1.000000 0.000000 0.740293
1.000000 0.000000 0.884628
1.000000 0.000000 0.961176
1.000000 0.000000 0.961176
1.000000 0.139204 0.000000
1.000000 0.139204 0.150646
1.000000 0.139204 0.300891
1.000000 0.139204 0.448744
1.000000 0.139204 0.595077
1.000000 0.139204 0.740293
1.000000 0.139204 0.884628
1.000000 0.139204 0.961176
1.000000 0.139204 0.961176
1.000000 0.278855 0.000000
1.000000 0.278855 0.150646
1.000000 0.278855 0.300891
1.000000 0.278855 0.448744
1.000000 0.278855 0.595077
1.000000 0.278855 0.740293
1.000000 0.278855 0.884628
1.000000 0.278855 0.961176
1.000000 0.278855 0.961176
1.000000 0.416276 0.000000
1.000000 0.416276 0.150646
1.000000 0.416276 0.300891
1.000000 0.416276 0.448744
1.000000 0.416276 0.595077
1.000000 0.416276 0.740293
1.000000 0.416276 0.884628
1.000000 0.416276 0.961176
1.000000 0.416276 0.961176
1.000000 0.552280 0.000000
1.000000 0.552280 0.150646
1.000000 0.552280 0.300891
1.000000 0.552280 0.448744
1.000000 0.552280 0.595077
1.000000 0.552280 0.740293
1.000000 0.552280 0.884628
1.000000 0.552280 0.961176
1.000000 0.552280 0.961176
1.000000 0.687246 0.000000
1.000000 0.687246 0.150646
1.000000 0.687246 0.300891
1.000000 0.687246 0.448744
1.000000 0.687246 0.595077
1.000000 0.687246 0.740293
1.000000 0.687246 0.884628
1.000000 0.687246 0.961176
1.000000 0.687246 0.961176
1.000000 0.821391 0.000000
1.000000 0.821391 0.150646
1.000000 0.821391 0.300891
1.000000 0.821391 0.448744
1.000000 0.821391 0.595077
1.000000 0.821391 0.740293
1.000000 0.821391 0.884628
1.000000 0.821391 0.961176
1.000000 0.821391 0.961176
1.000000 0.954859 0.000000
1.000000 0.954859 0.150646
1.000000 0.954859 0.300891
1.000000 0.954859 0.448744
1.000000 0.954859 0.595077
1.000000 0.954859 0.740293
1.000000 0.954859 0.884628
1.000000 0.954859 0.961176
1.000000 0.954859 0.961176
1.000000 1.000000 0.000000
1.000000 1.000000 0.150646
1.000000 1.000000 0.300891
1.000000 1.000000 0.448744
1.000000 1.000000 0.595077
1.000000 1.000000 0.740293
1.000000 1.000000 0.884628
1.000000 1.000000 0.961176
1.000000 1.000000 0.961176
