luts/grand_budapest.cube
# Grand Budapest Hotel LUT
LUT_3D_SIZE 5
0.000000 0.000000 0.000000
0.000000 0.000000 0.300891
0.000000 0.000000 0.595077
0.000000 0.000000 0.884628
0.000000 0.000000 0.961176
0.000000 0.278855 0.000000
0.000000 0.278855 0.300891
0.000000 0.278855 0.595077
0.000000 0.278855 0.884628
0.000000 0.278855 0.961176
0.000000 0.552280 0.000000
0.000000 0.552280 0.300891
0.000000 0.552280 0.595077
0.000000 0.552280 0.884628
0.000000 0.552280 0.961176
0.000000 0.821391 0.000000
0.000000 0.821391 0.300891
0.000000 0.821391 0.595077
0.000000 0.821391 0.884628
0.000000 0.821391 0.961176
0.000000 1.000000 0.000000
0.000000 1.000000 0.300891
0.000000 1.000000 0.595077
0.000000 1.000000 0.884628
0.000000 1.000000 0.961176
0.313447 0.000000 0.000000
0.313447 0.000000 0.300891
0.313447 0.000000 0.595077
0.313447 0.000000 0.884628
0.313447 0.000000 0.961176
0.313447 0.278855 0.000000
0.313447 0.278855 0.300891
0.313447 0.278855 0.595077
0.313447 0.278855 0.884628
0.313447 0.278855 0.961176
0.313447 0.552280 0.000000
0.313447 0.552280 0.300891
0.313447 0.552280 0.595077
0.313447 0.552280 0.884628
0.313447 0.552280 0.961176
0.313447 0.821391 0.000000
0.313447 0.821391 0.300891
0.313447 0.821391 0.595077
0.313447 0.821391 0.884628
0.313447 0.821391 0.961176
0.313447 1.000000 0.000000
0.313447 1.000000 0.300891
0.313447 1.000000 0.595077
0.313447 1.000000 0.884628
0.313447 1.000000 0.961176
0.620196 0.000000 0.000000
0.620196 0.000000 0.300891
0.620196 0.000000 0.595077
0.620196 0.000000 0.884628
0.620196 0.000000 0.961176
0.620196 0.278855 0.000000
0.620196 0.278855 0.300891
0.620196 0.278855 0.595077
0.620196 0.278855 0.884628
0.620196 0.278855 0.961176
0.620196 0.552280 0.000000
0.620196 0.552280 0.300891
0.620196 0.552280 0.595077
0.620196 0.552280 0.884628
0.620196 0.552280 0.961176
0.620196 0.821391 0.000000
0.620196 0.821391 0.300891
0.620196 0.821391 0.595077
0.620196 0.821391 0.884628
0.620196 0.821391 0.961176
0.620196 1.000000 0.000000
0.620196 1.000000 0.300891
0.620196 1.000000 0.595077
0.620196 1.000000 0.884628
0.620196 1.000000 0.961176
0.922110 0.000000 0.000000
0.922110 0.000000 0.300891
0.922110 0.000000 0.595077
0.922110 0.000000 0.884628
0.922110 0.000000 0.961176
0.922110 0.278855 0.000000
0.922110 0.278855 0.300891
0.922110 0.278855 0.595077
0.922110 0.278855 0.884628
0.922110 0.278855 0.961176
0.922110 0.552280 0.000000
0.922110 0.552280 0.300891
0.922110 0.552280 0.595077
0.922110 0.552280 0.884628
0.922110 0.552280 0.961176
0.922110 0.821391 0.000000
0.922110 0.821391 0.300891
0.922110 0.821391 0.595077
0.922110 0.821391 0.884628
0.922110 0.821391 0.961176
0.922110 1.000000 0.000000
0.922110 1.000000 0.300891
0.922110 1.000000 0.595077
0.922110 1.000000 0.884628
0.922110 1.000000 0.961176
1.000000 0.000000 0.000000
1.000000 0.000000 0.300891
1.000000 0.000000 0.595077
1.000000 0.000000 0.884628
1.000000 0.000000 0.961176
1.000000 0.278855 0.000000
1.000000 0.278855 0.300891
1.000000 0.278855 0.595077
1.000000 0.278855 0.884628
1.000000 0.278855 0.961176
1.000000 0.552280 0.000000
1.000000 0.552280 0.300891
1.000000 0.552280 0.595077
1.000000 0.552280 0.884628
1.000000 0.552280 0.961176
1.000000 0.821391 0.000000
1.000000 0.821391 0.300891
1.000000 0.821391 0.595077
1.000000 0.821391 0.884628
1.000000 0.821391 0.961176
1.000000 1.000000 0.000000
1.000000 1.000000 0.300891
1.000000 1.000000 0.595077
1.000000 1.000000 0.884628
1.000000 1.000000 0.961176
