luts/oldboy.cube
# LUT generated from Oldboy filter
LUT_3D_SIZE 9
0.000000 0.000000 0.035294
0.000000 0.000000 0.172549
0.000000 0.000000 0.317647
0.000000 0.000000 0.462745
0.000000 0.000000 0.607843
0.000000 0.000000 0.752941
0.000000 0.000000 0.898039
0.000000 0.000000 0.949020
0.000000 0.000000 0.949020
0.039216 0.000000 0.023529
0.039216 0.000000 0.164706
0.039216 0.000000 0.309804
0.039216 0.000000 0.454902
0.039216 0.000000 0.600000
0.039216 0.000000 0.745098
0.039216 0.000000 0.890196
0.039216 0.000000 0.949020
0.039216 0.000000 0.949020
0.211765 0.000000 0.011765
0.211765 0.000000 0.152941
0.211765 0.000000 0.298039
0.211765 0.000000 0.443137
0.211765 0.000000 0.588235
0.211765 0.000000 0.733333
0.211765 0.000000 0.878431
0.211765 0.000000 0.949020
0.211765 0.000000 0.949020
0.380392 0.000000 0.000000
0.380392 0.000000 0.141176
0.380392 0.000000 0.286275
0.380392 0.000000 0.431373
0.380392 0.000000 0.576471
0.380392 0.000000 0.721569
0.380392 0.000000 0.866667
0.380392 0.000000 0.949020
0.380392 0.000000 0.949020
0.549020 0.000000 0.000000
0.549020 0.000000 0.133333
0.549020 0.000000 0.278431
0.549020 0.000000 0.419608
0.549020 0.000000 0.564706
0.549020 0.000000 0.709804
0.549020 0.000000 0.854902
0.549020 0.000000 0.949020
0.549020 0.000000 0.949020
0.717647 0.000000 0.000000
0.717647 0.000000 0.121569
0.717647 0.000000 0.266667
0.717647 0.000000 0.411765
0.717647 0.000000 0.556863
0.717647 0.000000 0.701961
0.717647 0.000000 0.847059
0.717647 0.000000 0.949020
0.717647 0.000000 0.949020
0.886275 0.000000 0.000000
0.886275 0.000000 0.109804
0.886275 0.000000 0.254902
0.886275 0.000000 0.400000
0.886275 0.000000 0.545098
0.886275 0.000000 0.690196
0.886275 0.000000 0.835294
0.886275 0.000000 0.949020
0.886275 0.000000 0.949020
1.000000 0.000000 0.000000
1.000000 0.000000 0.098039
1.000000 0.000000 0.243137
1.000000 0.000000 0.388235
1.000000 0.000000 0.533333
1.000000 0.000000 0.678431
1.000000 0.000000 0.823529
1.000000 0.000000 0.949020
1.000000 0.000000 0.949020
1.000000 0.000000 0.000000
1.000000 0.000000 0.090196
1.000000 0.000000 0.235294
1.000000 0.000000 0.380392
1.000000 0.000000 0.525490
1.000000 0.000000 0.670588
1.000000 0.000000 0.811765
1.000000 0.000000 0.949020
1.000000 0.000000 0.949020
0.000000 0.086275 0.011765
0.000000 0.082353 0.152941
0.000000 0.082353 0.298039
0.000000 0.078431 0.443137
0.000000 0.078431 0.588235
0.000000 0.078431 0.733333
0.000000 0.074510 0.878431
0.000000 0.074510 0.949020
0.000000 0.070588 0.949020
0.039216 0.082353 0.003922
0.039216 0.078431 0.145098
0.039216 0.078431 0.290196
0.039216 0.074510 0.431373
0.039216 0.074510 0.576471
0.039216 0.074510 0.721569
0.039216 0.070588 0.866667
0.039216 0.070588 0.949020
0.039216 0.070588 0.949020
0.211765 0.078431 0.000000
0.211765 0.074510 0.133333
0.211765 0.074510 0.278431
0.211765 0.070588 0.423529
0.211765 0.070588 0.568627
0.211765 0.070588 0.713726
0.211765 0.066667 0.858824
0.211765 0.066667 0.949020
0.211765 0.066667 0.949020
0.380392 0.074510 0.000000
0.380392 0.070588 0.121569
0.380392 0.070588 0.266667
0.380392 0.066667 0.411765
0.380392 0.066667 0.556863
0.380392 0.066667 0.701961
0.380392 0.062745 0.847059
0.380392 0.062745 0.949020
0.380392 0.062745 0.949020
0.549020 0.070588 0.000000
0.549020 0.066667 0.109804
0.549020 0.066667 0.254902
0.549020 0.062745 0.400000
0.549020 0.062745 0.545098
0.549020 0.062745 0.690196
0.549020 0.058824 0.835294
0.549020 0.058824 0.949020
0.549020 0.058824 0.949020
0.717647 0.066667 0.000000
0.717647 0.062745 0.101961
0.717647 0.062745 0.247059
0.717647 0.058824 0.392157
0.717647 0.058824 0.537255
0.717647 0.058824 0.678431
0.717647 0.054902 0.823529
0.717647 0.054902 0.949020
0.717647 0.050980 0.949020
0.886275 0.062745 0.000000
0.886275 0.058824 0.090196
0.886275 0.058824 0.235294
0.886275 0.054902 0.380392
0.886275 0.054902 0.525490
0.886275 0.054902 0.670588
0.886275 0.050980 0.815686
0.886275 0.050980 0.949020
0.886275 0.047059 0.949020
1.000000 0.058824 0.000000
1.000000 0.054902 0.078431
1.000000 0.054902 0.223529
1.000000 0.050980 0.368627
1.000000 0.050980 0.513726
1.000000 0.050980 0.658824
1.000000 0.047059 0.803922
1.000000 0.047059 0.949020
1.000000 0.043137 0.949020
1.000000 0.054902 0.000000
1.000000 0.050980 0.066667
1.000000 0.050980 0.211765
1.000000 0.047059 0.356863
1.000000 0.047059 0.501961
1.000000 0.047059 0.647059
1.000000 0.043137 0.792157
1.000000 0.043137 0.937255
1.000000 0.039216 0.949020
0.000000 0.243137 0.000000
0.000000 0.239216 0.133333
0.000000 0.239216 0.278431
0.000000 0.235294 0.423529
0.000000 0.235294 0.568627
0.000000 0.235294 0.713726
0.000000 0.231373 0.858824
0.000000 0.231373 0.949020
0.000000 0.231373 0.949020
0.039216 0.239216 0.000000
0.039216 0.235294 0.121569
0.039216 0.235294 0.266667
0.039216 0.231373 0.411765
0.039216 0.231373 0.556863
0.039216 0.231373 0.701961
0.039216 0.227451 0.847059
0.039216 0.227451 0.949020
0.039216 0.227451 0.949020
0.211765 0.235294 0.000000
0.211765 0.231373 0.109804
0.211765 0.231373 0.254902
0.211765 0.227451 0.400000
0.211765 0.227451 0.545098
0.211765 0.227451 0.690196
0.211765 0.223529 0.835294
0.211765 0.223529 0.949020
0.211765 0.223529 0.949020
0.380392 0.231373 0.000000
0.380392 0.227451 0.101961
0.380392 0.227451 0.247059
0.380392 0.223529 0.392157
0.380392 0.223529 0.537255
0.380392 0.223529 0.682353
0.380392 0.219608 0.827451
0.380392 0.219608 0.949020
0.380392 0.219608 0.949020
0.549020 0.227451 0.000000
0.549020 0.223529 0.090196
0.549020 0.223529 0.235294
0.549020 0.219608 0.380392
0.549020 0.219608 0.525490
0.549020 0.219608 0.670588
0.549020 0.215686 0.815686
0.549020 0.215686 0.949020
0.549020 0.215686 0.949020
0.717647 0.223529 0.000000
0.717647 0.219608 0.078431
0.717647 0.219608 0.223529
0.717647 0.215686 0.368627
0.717647 0.215686 0.513726
0.717647 0.215686 0.658824
0.717647 0.211765 0.803922
0.717647 0.211765 0.949020
0.717647 0.211765 0.949020
0.886275 0.219608 0.000000
0.886275 0.215686 0.070588
0.886275 0.215686 0.215686
0.886275 0.211765 0.356863
0.886275 0.211765 0.501961
0.886275 0.211765 0.647059
0.886275 0.207843 0.792157
0.886275 0.207843 0.937255
0.886275 0.207843 0.949020
1.000000 0.215686 0.000000
1.000000 0.211765 0.058824
1.000000 0.211765 0.203922
1.000000 0.207843 0.349020
1.000000 0.207843 0.494118
1.000000 0.207843 0.639216
1.000000 0.203922 0.784314
1.000000 0.203922 0.929412
1.000000 0.207843 0.949020
1.000000 0.211765 0.000000
1.000000 0.207843 0.047059
1.000000 0.207843 0.192157
1.000000 0.203922 0.337255
1.000000 0.203922 0.482353
1.000000 0.207843 0.631373
1.000000 0.207843 0.780392
1.000000 0.211765 0.929412
1.000000 0.211765 0.949020
0.000000 0.400000 0.000000
0.000000 0.396078 0.109804
0.000000 0.396078 0.254902
0.000000 0.392157 0.400000
0.000000 0.392157 0.545098
0.000000 0.392157 0.690196
0.000000 0.388235 0.835294
0.000000 0.388235 0.949020
0.000000 0.388235 0.949020
0.039216 0.396078 0.000000
0.039216 0.392157 0.101961
0.039216 0.392157 0.247059
0.039216 0.388235 0.392157
0.039216 0.388235 0.537255
0.039216 0.388235 0.682353
0.039216 0.384314 0.827451
0.039216 0.384314 0.949020
0.039216 0.384314 0.949020
0.211765 0.392157 0.000000
0.211765 0.388235 0.090196
0.211765 0.388235 0.235294
0.211765 0.384314 0.380392
0.211765 0.384314 0.525490
0.211765 0.384314 0.670588
0.211765 0.380392 0.815686
0.211765 0.380392 0.949020
0.211765 0.380392 0.949020
0.380392 0.388235 0.000000
0.380392 0.384314 0.078431
0.380392 0.384314 0.223529
0.380392 0.380392 0.368627
0.380392 0.380392 0.513726
0.380392 0.380392 0.658824
0.380392 0.376471 0.803922
0.380392 0.376471 0.949020
0.380392 0.376471 0.949020
0.549020 0.384314 0.000000
0.549020 0.380392 0.070588
0.549020 0.380392 0.215686
0.549020 0.376471 0.360784
0.549020 0.376471 0.505882
0.549020 0.376471 0.650980
0.549020 0.372549 0.792157
0.549020 0.372549 0.937255
0.549020 0.372549 0.949020
0.717647 0.380392 0.000000
0.717647 0.376471 0.058824
0.717647 0.376471 0.203922
0.717647 0.372549 0.349020
0.717647 0.372549 0.494118
0.717647 0.372549 0.639216
0.717647 0.368627 0.784314
0.717647 0.368627 0.929412
0.721569 0.372549 0.949020
0.886275 0.376471 0.000000
0.886275 0.372549 0.047059
0.886275 0.372549 0.192157
0.886275 0.368627 0.337255
0.886275 0.368627 0.482353
0.890196 0.372549 0.631373
0.894118 0.372549 0.780392
0.898039 0.372549 0.929412
0.901961 0.376471 0.949020
1.000000 0.372549 0.000000
1.000000 0.368627 0.035294
1.000000 0.368627 0.184314
1.000000 0.372549 0.333333
1.000000 0.372549 0.482353
1.000000 0.376471 0.627451
1.000000 0.376471 0.776471
1.000000 0.380392 0.925490
1.000000 0.380392 0.949020
1.000000 0.372549 0.000000
1.000000 0.372549 0.035294
1.000000 0.376471 0.184314
1.000000 0.376471 0.329412
1.000000 0.380392 0.478431
1.000000 0.380392 0.627451
1.000000 0.384314 0.776471
1.000000 0.384314 0.925490
1.000000 0.384314 0.949020
0.000000 0.556863 0.000000
0.000000 0.552941 0.090196
0.000000 0.552941 0.235294
0.000000 0.549020 0.380392
0.000000 0.549020 0.525490
0.000000 0.549020 0.670588
0.000000 0.545098 0.815686
0.000000 0.545098 0.949020
0.000000 0.545098 0.949020
0.039216 0.552941 0.000000
0.039216 0.549020 0.082353
0.039216 0.549020 0.223529
0.039216 0.549020 0.368627
0.039216 0.545098 0.513726
0.039216 0.545098 0.658824
0.039216 0.541176 0.803922
0.039216 0.541176 0.949020
0.039216 0.541176 0.949020
0.211765 0.549020 0.000000
0.211765 0.545098 0.070588
0.211765 0.545098 0.215686
0.211765 0.545098 0.360784
0.211765 0.541176 0.505882
0.211765 0.541176 0.650980
0.211765 0.537255 0.796078
0.211765 0.537255 0.941176
0.211765 0.537255 0.949020
0.380392 0.545098 0.000000
0.380392 0.541176 0.058824
0.380392 0.541176 0.203922
0.380392 0.541176 0.349020
0.380392 0.537255 0.494118
0.380392 0.537255 0.639216
0.380392 0.533333 0.784314
0.380392 0.533333 0.929412
0.384314 0.537255 0.949020
0.549020 0.541176 0.000000
0.549020 0.537255 0.047059
0.549020 0.537255 0.192157
0.549020 0.537255 0.337255
0.549020 0.533333 0.482353
0.552941 0.533333 0.631373
0.556863 0.537255 0.780392
0.560784 0.537255 0.929412
0.564706 0.541176 0.949020
0.717647 0.537255 0.000000
0.717647 0.533333 0.039216
0.721569 0.533333 0.184314
0.725490 0.537255 0.333333
0.729412 0.537255 0.482353
0.733333 0.541176 0.627451
0.737255 0.541176 0.776471
0.741176 0.545098 0.925490
0.745098 0.545098 0.949020
0.890196 0.537255 0.000000
0.894118 0.537255 0.035294
0.898039 0.541176 0.184314
0.901961 0.541176 0.329412
0.905882 0.545098 0.478431
0.909804 0.545098 0.627451
0.913725 0.545098 0.776471
0.917647 0.549020 0.925490
0.921569 0.549020 0.949020
1.000000 0.541176 0.000000
1.000000 0.541176 0.031373
1.000000 0.545098 0.180392
1.000000 0.545098 0.329412
1.000000 0.549020 0.478431
1.000000 0.549020 0.627451
1.000000 0.552941 0.772549
1.000000 0.552941 0.921569
1.000000 0.556863 0.949020
1.000000 0.545098 0.000000
1.000000 0.549020 0.031373
1.000000 0.549020 0.180392
1.000000 0.552941 0.325490
1.000000 0.552941 0.474510
1.000000 0.556863 0.623529
1.000000 0.556863 0.772549
1.000000 0.556863 0.921569
1.000000 0.560784 0.949020
0.000000 0.713726 0.000000
0.000000 0.709804 0.070588
0.000000 0.709804 0.215686
0.000000 0.709804 0.360784
0.000000 0.705882 0.505882
0.000000 0.705882 0.650980
0.000000 0.701961 0.796078
0.000000 0.701961 0.941176
0.000000 0.701961 0.949020
0.039216 0.709804 0.000000
0.039216 0.705882 0.058824
0.039216 0.705882 0.203922
0.039216 0.705882 0.349020
0.039216 0.701961 0.494118
0.039216 0.701961 0.639216
0.039216 0.698039 0.784314
0.043137 0.698039 0.929412
0.043137 0.701961 0.949020
0.211765 0.705882 0.000000
0.211765 0.701961 0.047059
0.211765 0.701961 0.192157
0.211765 0.701961 0.337255
0.211765 0.698039 0.482353
0.211765 0.698039 0.631373
0.215686 0.701961 0.780392
0.219608 0.701961 0.929412
0.223529 0.705882 0.949020
0.380392 0.701961 0.000000
0.380392 0.698039 0.039216
0.380392 0.698039 0.184314
0.384314 0.701961 0.333333
0.388235 0.701961 0.482353
0.392157 0.705882 0.627451
0.396078 0.705882 0.776471
0.400000 0.709804 0.925490
0.403922 0.709804 0.949020
0.552941 0.701961 0.000000
0.556863 0.701961 0.035294
0.560784 0.705882 0.184314
0.564706 0.705882 0.329412
0.568627 0.705882 0.478431
0.572549 0.709804 0.627451
0.576471 0.709804 0.776471
0.580392 0.713726 0.925490
0.584314 0.713726 0.949020
0.733333 0.705882 0.000000
0.737255 0.705882 0.031373
0.741176 0.709804 0.180392
0.745098 0.709804 0.329412
0.749020 0.713726 0.478431
0.752941 0.713726 0.627451
0.756863 0.717647 0.772549
0.760784 0.717647 0.921569
0.764706 0.721569 0.949020
0.913725 0.709804 0.000000
0.917647 0.713726 0.031373
0.921569 0.713726 0.180392
0.921569 0.713726 0.325490
0.925490 0.717647 0.474510
0.929412 0.717647 0.623529
0.933333 0.721569 0.772549
0.937255 0.721569 0.921569
0.941176 0.725490 0.949020
1.000000 0.713726 0.000000
1.000000 0.717647 0.027451
1.000000 0.717647 0.176471
1.000000 0.721569 0.325490
1.000000 0.721569 0.474510
1.000000 0.725490 0.623529
1.000000 0.725490 0.768627
1.000000 0.729412 0.917647
1.000000 0.729412 0.949020
1.000000 0.721569 0.000000
1.000000 0.721569 0.027451
1.000000 0.725490 0.176471
1.000000 0.725490 0.325490
1.000000 0.725490 0.470588
1.000000 0.729412 0.619608
1.000000 0.729412 0.768627
1.000000 0.733333 0.917647
1.000000 0.733333 0.949020
0.000000 0.870588 0.000000
0.000000 0.866667 0.047059
0.000000 0.866667 0.192157
0.000000 0.866667 0.337255
0.000000 0.862745 0.482353
0.000000 0.862745 0.631373
0.000000 0.866667 0.780392
0.000000 0.866667 0.929412
0.000000 0.870588 0.949020
0.039216 0.866667 0.000000
0.039216 0.862745 0.039216
0.043137 0.862745 0.184314
0.047059 0.866667 0.333333
0.050980 0.866667 0.482353
0.054902 0.870588 0.627451
0.058824 0.870588 0.776471
0.062745 0.874510 0.925490
0.066667 0.874510 0.949020
0.215686 0.866667 0.000000
0.215686 0.866667 0.035294
0.219608 0.866667 0.184314
0.223529 0.870588 0.329412
0.227451 0.870588 0.478431
0.231373 0.874510 0.627451
0.235294 0.874510 0.776471
0.239216 0.878431 0.925490
0.243137 0.878431 0.949020
0.392157 0.870588 0.000000
0.396078 0.870588 0.031373
0.400000 0.874510 0.180392
0.403922 0.874510 0.329412
0.407843 0.878431 0.478431
0.411765 0.878431 0.627451
0.415686 0.882353 0.772549
0.419608 0.882353 0.921569
0.423529 0.886275 0.949020
0.572549 0.874510 0.000000
0.576471 0.874510 0.031373
0.580392 0.878431 0.180392
0.584314 0.878431 0.325490
0.588235 0.882353 0.474510
0.592157 0.882353 0.623529
0.596078 0.886275 0.772549
0.600000 0.886275 0.921569
0.603922 0.890196 0.949020
0.752941 0.878431 0.000000
0.756863 0.882353 0.027451
0.760784 0.882353 0.176471
0.764706 0.886275 0.325490
0.768627 0.886275 0.474510
0.772549 0.890196 0.623529
0.776471 0.890196 0.768627
0.780392 0.894118 0.917647
0.784314 0.894118 0.949020
0.933333 0.886275 0.000000
0.937255 0.886275 0.027451
0.941176 0.886275 0.176471
0.945098 0.890196 0.325490
0.949020 0.890196 0.470588
0.952941 0.894118 0.619608
0.956863 0.894118 0.768627
0.956863 0.898039 0.917647
0.960784 0.898039 0.949020
1.000000 0.890196 0.000000
1.000000 0.890196 0.023529
1.000000 0.894118 0.172549
1.000000 0.894118 0.321569
1.000000 0.898039 0.470588
1.000000 0.898039 0.619608
1.000000 0.901961 0.768627
1.000000 0.901961 0.913725
1.000000 0.905882 0.949020
1.000000 0.894118 0.000000
1.000000 0.898039 0.023529
1.000000 0.898039 0.172549
1.000000 0.898039 0.321569
1.000000 0.901961 0.466667
1.000000 0.901961 0.615686
1.000000 0.905882 0.764706
1.000000 0.905882 0.913725
1.000000 0.909804 0.949020
0.000000 1.000000 0.000000
0.000000 1.000000 0.035294
0.000000 1.000000 0.184314
0.000000 1.000000 0.329412
0.000000 1.000000 0.478431
0.000000 1.000000 0.627451
0.000000 1.000000 0.776471
0.000000 1.000000 0.925490
0.000000 1.000000 0.949020
0.054902 1.000000 0.000000
0.058824 1.000000 0.031373
0.062745 1.000000 0.180392
0.066667 1.000000 0.329412
0.070588 1.000000 0.478431
0.074510 1.000000 0.627451
0.078431 1.000000 0.772549
0.082353 1.000000 0.921569
0.086275 1.000000 0.949020
0.235294 1.000000 0.000000
0.239216 1.000000 0.031373
0.243137 1.000000 0.180392
0.243137 1.000000 0.325490
0.247059 1.000000 0.474510
0.250980 1.000000 0.623529
0.254902 1.000000 0.772549
0.258824 1.000000 0.921569
0.262745 1.000000 0.949020
0.411765 1.000000 0.000000
0.415686 1.000000 0.027451
0.419608 1.000000 0.176471
0.423529 1.000000 0.325490
0.427451 1.000000 0.474510
0.431373 1.000000 0.623529
0.435294 1.000000 0.772549
0.439216 1.000000 0.917647
0.443137 1.000000 0.949020
0.592157 1.000000 0.000000
0.596078 1.000000 0.027451
0.600000 1.000000 0.176471
0.603922 1.000000 0.325490
0.607843 1.000000 0.470588
0.611765 1.000000 0.619608
0.615686 1.000000 0.768627
0.619608 1.000000 0.917647
0.623529 1.000000 0.949020
0.772549 1.000000 0.000000
0.776471 1.000000 0.023529
0.780392 1.000000 0.172549
0.784314 1.000000 0.321569
0.788235 1.000000 0.470588
0.792157 1.000000 0.619608
0.796078 1.000000 0.768627
0.800000 1.000000 0.913725
0.803922 1.000000 0.949020
0.952941 1.000000 0.000000
0.956863 1.000000 0.023529
0.960784 1.000000 0.172549
0.964706 1.000000 0.321569
0.968627 1.000000 0.466667
0.972549 1.000000 0.615686
0.976471 1.000000 0.764706
0.980392 1.000000 0.913725
0.984314 1.000000 0.949020
1.000000 1.000000 0.000000
1.000000 1.000000 0.023529
1.000000 1.000000 0.168627
1.000000 1.000000 0.317647
1.000000 1.000000 0.466667
1.000000 1.000000 0.615686
1.000000 1.000000 0.764706
1.000000 1.000000 0.913725
1.000000 1.000000 0.949020
1.000000 1.000000 0.000000
1.000000 1.000000 0.019608
1.000000 1.000000 0.168627
1.000000 1.000000 0.317647
1.000000 1.000000 0.466667
1.000000 1.000000 0.611765
1.000000 1.000000 0.760784
1.000000 1.000000 0.909804
1.000000 1.000000 0.949020
0.000000 1.000000 0.000000
0.000000 1.000000 0.031373
0.000000 1.000000 0.180392
0.000000 1.000000 0.325490
0.000000 1.000000 0.474510
0.000000 1.000000 0.623529
0.000000 1.000000 0.772549
0.000000 1.000000 0.921569
0.000000 1.000000 0.949020
0.074510 1.000000 0.000000
0.078431 1.000000 0.027451
0.082353 1.000000 0.176471
0.086275 1.000000 0.325490
0.090196 1.000000 0.474510
0.094118 1.000000 0.623529
0.098039 1.000000 0.772549
0.101961 1.000000 0.917647
0.105882 1.000000 0.949020
0.254902 1.000000 0.000000
0.258824 1.000000 0.027451
0.262745 1.000000 0.176471
0.266667 1.000000 0.325490
0.270588 1.000000 0.470588
0.274510 1.000000 0.619608
0.278431 1.000000 0.768627
0.282353 1.000000 0.917647
0.282353 1.000000 0.949020
0.431373 1.000000 0.000000
0.435294 1.000000 0.023529
0.439216 1.000000 0.172549
0.443137 1.000000 0.321569
0.447059 1.000000 0.470588
0.450980 1.000000 0.619608
0.454902 1.000000 0.768627
0.458824 1.000000 0.913725
0.462745 1.000000 0.949020
0.611765 1.000000 0.000000
0.615686 1.000000 0.023529
0.619608 1.000000 0.172549
0.623529 1.000000 0.321569
0.627451 1.000000 0.470588
0.631373 1.000000 0.615686
0.635294 1.000000 0.764706
0.639216 1.000000 0.913725
0.643137 1.000000 0.949020
0.792157 1.000000 0.000000
0.796078 1.000000 0.023529
0.800000 1.000000 0.168627
0.803922 1.000000 0.317647
0.807843 1.000000 0.466667
0.811765 1.000000 0.615686
0.815686 1.000000 0.764706
0.819608 1.000000 0.913725
0.823529 1.000000 0.949020
0.972549 1.000000 0.000000
0.976471 1.000000 0.019608
0.980392 1.000000 0.168627
0.984314 1.000000 0.317647
0.988235 1.000000 0.466667
0.992157 1.000000 0.611765
0.996078 1.000000 0.760784
1.000000 1.000000 0.909804
1.000000 1.000000 0.949020
1.000000 1.000000 0.000000
1.000000 1.000000 0.019608
1.000000 1.000000 0.164706
1.000000 1.000000 0.313726
1.000000 1.000000 0.462745
1.000000 1.000000 0.611765
1.000000 1.000000 0.760784
1.000000 1.000000 0.909804
1.000000 1.000000 0.949020
1.000000 1.000000 0.000000
1.000000 1.000000 0.015686
1.000000 1.000000 0.164706
1.000000 1.000000 0.313726
1.000000 1.000000 0.462745
1.000000 1.000000 0.611765
1.000000 1.000000 0.756863
1.000000 1.000000 0.905882
1.000000 1.000000 0.949020
