luts/oldboy.cube
# LUT generated from Oldboy filter
LUT_3D_SIZE 5
0.000000 0.000000 0.035294
0.000000 0.000000 0.317647
0.000000 0.000000 0.607843
0.000000 0.000000 0.898039
0.000000 0.000000 0.949020
0.211765 0.000000 0.011765
0.211765 0.000000 0.298039
0.211765 0.000000 0.588235
0.211765 0.000000 0.878431
0.211765 0.000000 0.949020
0.549020 0.000000 0.000000
0.549020 0.000000 0.278431
0.549020 0.000000 0.564706
0.549020 0.000000 0.854902
0.549020 0.000000 0.949020
0.886275 0.000000 0.000000
0.886275 0.000000 0.254902
0.886275 0.000000 0.545098
0.886275 0.000000 0.835294
0.886275 0.000000 0.949020
1.000000 0.000000 0.000000
1.000000 0.000000 0.235294
1.000000 0.000000 0.525490
1.000000 0.000000 0.811765
1.000000 0.000000 0.949020
0.000000 0.243137 0.000000
0.000000 0.239216 0.278431
0.000000 0.235294 0.568627
0.000000 0.231373 0.858824
0.000000 0.231373 0.949020
0.211765 0.235294 0.000000
0.211765 0.231373 0.254902
0.211765 0.227451 0.545098
0.211765 0.223529 0.835294
0.211765 0.223529 0.949020
0.549020 0.227451 0.000000
0.549020 0.223529 0.235294
0.549020 0.219608 0.525490
0.549020 0.215686 0.815686
0.549020 0.215686 0.949020
0.886275 0.219608 0.000000
0.886275 0.215686 0.215686
0.886275 0.211765 0.501961
0.886275 0.207843 0.792157
0.886275 0.207843 0.949020
1.000000 0.211765 0.000000
1.000000 0.207843 0.192157
1.000000 0.203922 0.482353
1.000000 0.207843 0.780392
1.000000 0.211765 0.949020
0.000000 0.556863 0.000000
0.000000 0.552941 0.235294
0.000000 0.549020 0.525490
0.000000 0.545098 0.815686
0.000000 0.545098 0.949020
0.211765 0.549020 0.000000
0.211765 0.545098 0.215686
0.211765 0.541176 0.505882
0.211765 0.537255 0.796078
0.211765 0.537255 0.949020
0.549020 0.541176 0.000000
0.549020 0.537255 0.192157
0.549020 0.533333 0.482353
0.556863 0.537255 0.780392
0.564706 0.541176 0.949020
0.890196 0.537255 0.000000
0.898039 0.541176 0.184314
0.905882 0.545098 0.478431
0.913725 0.545098 0.776471
0.921569 0.549020 0.949020
1.000000 0.545098 0.000000
1.000000 0.549020 0.180392
1.000000 0.552941 0.474510
1.000000 0.556863 0.772549
1.000000 0.560784 0.949020
0.000000 0.870588 0.000000
0.000000 0.866667 0.192157
0.000000 0.862745 0.482353
0.000000 0.866667 0.780392
0.000000 0.870588 0.949020
0.215686 0.866667 0.000000
0.219608 0.866667 0.184314
0.227451 0.870588 0.478431
0.235294 0.874510 0.776471
0.243137 0.878431 0.949020
0.572549 0.874510 0.000000
0.580392 0.878431 0.180392
0.588235 0.882353 0.474510
0.596078 0.886275 0.772549
0.603922 0.890196 0.949020
0.933333 0.886275 0.000000
0.941176 0.886275 0.176471
0.949020 0.890196 0.470588
0.956863 0.894118 0.768627
0.960784 0.898039 0.949020
1.000000 0.894118 0.000000
1.000000 0.898039 0.172549
1.000000 0.901961 0.466667
1.000000 0.905882 0.764706
1.000000 0.909804 0.949020
0.000000 1.000000 0.000000
0.000000 1.000000 0.180392
0.000000 1.000000 0.474510
0.000000 1.000000 0.772549
0.000000 1.000000 0.949020
0.254902 1.000000 0.000000
0.262745 1.000000 0.176471
0.270588 1.000000 0.470588
0.278431 1.000000 0.768627
0.282353 1.000000 0.949020
0.611765 1.000000 0.000000
0.619608 1.000000 0.172549
0.627451 1.000000 0.470588
0.635294 1.000000 0.764706
0.643137 1.000000 0.949020
0.972549 1.000000 0.000000
0.980392 1.000000 0.168627
0.988235 1.000000 0.466667
0.996078 1.000000 0.760784
1.000000 1.000000 0.949020
1.000000 1.000000 0.000000
1.000000 1.000000 0.164706
1.000000 1.000000 0.462745
1.000000 1.000000 0.756863
1.000000 1.000000 0.949020
