luts/oppenheimer.cube
# Oppenheimer LUT (by Rana Moly + GPT-5)
LUT_3D_SIZE 9
DOMAIN_MIN 0.0 0.0 0.0
DOMAIN_MAX 1.0 1.0 1.0
0.000000 0.000000 0.000000
0.016131 0.000000 0.000000
0.146770 0.000000 0.000000
0.279418 0.000000 0.000000
0.414074 0.000000 0.000000
0.550738 0.000000 0.000000
0.689411 0.000000 0.000000
0.830093 0.000000 0.000000
0.972783 0.000000 0.000000
0.000000 0.031370 0.000000
0.035935 0.041033 0.000000
0.168683 0.050731 0.000000
0.303439 0.060465 0.000000
0.440204 0.070233 0.000000
0.578977 0.080036 0.000000
0.719759 0.089874 0.000000
0.862549 0.099747 0.000000
1.000000 0.109654 0.000000
0.000000 0.176291 0.000000
0.056278 0.186257 0.000000
0.191134 0.196257 0.000000
0.327999 0.206292 0.000000
0.466873 0.216363 0.000000
0.607754 0.226468 0.000000
0.750645 0.236608 0.000000
0.895543 0.246783 0.000000
1.000000 0.256993 0.000000
0.000000 0.322264 0.000000
0.077159 0.332532 0.000000
0.214124 0.342835 0.000000
0.353098 0.353172 0.000000
0.494080 0.363545 0.000000
0.637070 0.373952 0.000000
0.782069 0.384394 0.000000
0.929076 0.394871 0.005256
1.000000 0.405383 0.013664
0.000000 0.469289 0.000000
0.098579 0.479859 0.000000
0.237652 0.490464 0.000000
0.378734 0.501104 0.000000
0.521825 0.511778 0.000000
0.666924 0.522488 0.004945
0.814031 0.533232 0.013357
0.963147 0.544011 0.021664
1.000000 0.554826 0.029867
0.000000 0.617366 0.000000
0.120537 0.628238 0.000000
0.261719 0.639145 0.000000
0.404910 0.650087 0.004633
0.550109 0.661064 0.013049
0.697316 0.672075 0.021360
0.846532 0.683122 0.029567
0.997757 0.694203 0.037668
1.000000 0.705320 0.045665
0.001750 0.766495 0.000000
0.143033 0.777669 0.004322
0.286324 0.788878 0.012742
0.431623 0.800122 0.021057
0.578931 0.811401 0.029267
0.728247 0.822715 0.037372
0.879572 0.834063 0.045373
1.000000 0.845447 0.053269
1.000000 0.856866 0.061060
0.022676 0.916675 0.012434
0.166068 0.928151 0.020752
0.311467 0.939662 0.028966
0.458875 0.951209 0.037076
0.608291 0.962790 0.045080
0.759716 0.974406 0.052980
0.913150 0.986057 0.060775
1.000000 0.997742 0.068465
1.000000 1.000000 0.076051
0.044141 1.000000 0.028666
0.189641 1.000000 0.036779
0.337149 1.000000 0.044788
0.486665 1.000000 0.052691
0.638190 1.000000 0.060490
0.791724 1.000000 0.068184
0.947266 1.000000 0.075773
1.000000 1.000000 0.083258
1.000000 1.000000 0.090638
0.000000 0.000000 0.022216
0.019935 0.000000 0.031234
0.150984 0.000000 0.040147
0.284041 0.000000 0.048955
0.419106 0.000000 0.057659
0.556180 0.000000 0.066257
0.695263 0.000000 0.074751
0.836354 0.000000 0.083141
0.979453 0.000000 0.091425
0.000000 0.035050 0.039821
0.039844 0.044727 0.048633
0.173001 0.054438 0.057340
0.308167 0.064185 0.065943
0.445341 0.073966 0.074441
0.584524 0.083783 0.082834
0.725715 0.093634 0.091122
0.868914 0.103520 0.099306
1.000000 0.113441 0.107384
0.000000 0.180087 0.057022
0.060291 0.190065 0.065628
0.195557 0.200079 0.074130
0.332831 0.210128 0.082527
0.472114 0.220211 0.090819
0.613406 0.230330 0.099006
0.756705 0.240483 0.107089
0.902013 0.250672 0.115067
1.000000 0.260895 0.122940
0.000000 0.326175 0.073819
0.081277 0.336456 0.082220
0.218651 0.346772 0.090516
0.358034 0.357123 0.098707
0.499426 0.367508 0.106794
0.642826 0.377929 0.114775
0.788234 0.388385 0.122652
0.935651 0.398875 0.130424
1.000000 0.409401 0.138092
0.000000 0.473315 0.090212
0.102801 0.483898 0.098408
0.242284 0.494516 0.106498
0.383776 0.505169 0.114483
0.527276 0.515857 0.122364
0.672784 0.526580 0.130140
0.820301 0.537338 0.137812
0.969827 0.548130 0.145378
1.000000 0.558958 0.152840
0.000000 0.621507 0.106202
0.124863 0.632392 0.114192
0.266455 0.643313 0.122076
0.410055 0.654268 0.129856
0.555664 0.665258 0.137531
0.703281 0.676283 0.145102
0.852907 0.687343 0.152567
1.000000 0.698438 0.159928
1.000000 0.709567 0.167184
0.005772 0.770751 0.121788
0.147464 0.781938 0.129572
0.291165 0.793161 0.137251
0.436874 0.804418 0.144825
0.584591 0.815710 0.152294
0.734317 0.827037 0.159659
0.886051 0.838399 0.166919
1.000000 0.849796 0.174074
1.000000 0.861228 0.181125
0.026803 0.921046 0.136970
0.170604 0.932536 0.144548
0.316413 0.944061 0.152021
0.464230 0.955620 0.159390
0.614056 0.967214 0.166654
0.765890 0.978844 0.173813
0.919733 0.990508 0.180867
1.000000 1.000000 0.187816
1.000000 1.000000 0.194661
0.048372 1.000000 0.151748
0.194281 1.000000 0.159121
0.342199 1.000000 0.166388
0.492125 1.000000 0.173551
0.644059 1.000000 0.180609
0.798002 1.000000 0.187563
0.953954 1.000000 0.194411
1.000000 1.000000 0.201155
1.000000 1.000000 0.207794
0.000000 0.000000 0.156382
0.023759 0.000000 0.164659
0.155217 0.000000 0.172831
0.288684 0.000000 0.180899
0.424159 0.000000 0.188862
0.561643 0.000000 0.196720
0.701135 0.000000 0.204473
0.842635 0.000000 0.212122
0.986144 0.000000 0.219665
0.000000 0.038735 0.172533
0.043773 0.048425 0.180604
0.177340 0.058150 0.188571
0.312915 0.067910 0.196433
0.450499 0.077705 0.204190
0.590091 0.087534 0.211842
0.731691 0.097399 0.219390
0.875300 0.107299 0.226833
1.000000 0.117233 0.234171
0.000000 0.183887 0.188280
0.064325 0.193879 0.196145
0.200000 0.203906 0.203906
0.337684 0.213968 0.211562
0.477376 0.224065 0.219114
0.619077 0.234197 0.226561
0.762786 0.244364 0.233902
0.908504 0.254565 0.241140
1.000000 0.264802 0.248272
0.000000 0.330091 0.203623
0.085415 0.340385 0.211283
0.223199 0.350714 0.218838
0.362991 0.361078 0.226288
0.504792 0.371477 0.233634
0.648602 0.381911 0.240875
0.794420 0.392380 0.248011
0.942246 0.402884 0.255043
1.000000 0.413423 0.261970
0.000000 0.477346 0.218562
0.107043 0.487943 0.226016
0.246936 0.498574 0.233366
0.388837 0.509240 0.240611
0.532747 0.519941 0.247751
0.678665 0.530678 0.254786
0.826591 0.541449 0.261717
0.976526 0.552255 0.268542
1.000000 0.563096 0.275263
0.000000 0.625653 0.233097
0.129211 0.636552 0.240346
0.271212 0.647485 0.247490
0.415222 0.658454 0.254529
0.561240 0.669457 0.261464
0.709266 0.680496 0.268293
0.859301 0.691569 0.275018
1.000000 0.702677 0.281638
1.000000 0.713820 0.288154
0.009814 0.775012 0.247229
0.151916 0.786213 0.254272
0.296026 0.797449 0.261210
0.442144 0.808719 0.268044
0.590271 0.820025 0.274773
0.740406 0.831365 0.281396
0.892550 0.842741 0.287916
1.000000 0.854151 0.294330
1.000000 0.865596 0.300640
0.030950 0.925423 0.260957
0.175160 0.936926 0.267794
0.321378 0.948464 0.274527
0.469605 0.960036 0.281155
0.619841 0.971644 0.287678
0.772085 0.983287 0.294096
0.926337 0.994964 0.300409
1.000000 1.000000 0.306618
1.000000 1.000000 0.312722
0.052623 1.000000 0.274281
0.198942 1.000000 0.280913
0.347269 1.000000 0.287440
0.497605 1.000000 0.293862
0.649949 1.000000 0.300179
0.804301 1.000000 0.306392
0.960662 1.000000 0.312499
1.000000 1.000000 0.318503
1.000000 1.000000 0.324401
0.000000 0.000000 0.289999
0.027604 0.000000 0.297535
0.159472 0.000000 0.304967
0.293348 0.000000 0.312293
0.429232 0.000000 0.319516
0.567125 0.000000 0.326633
0.707027 0.000000 0.333645
0.848937 0.000000 0.340553
0.992855 0.000000 0.347356
0.000000 0.042426 0.304695
0.047722 0.052129 0.312026
0.181698 0.061867 0.319252
0.317683 0.071640 0.326373
0.455676 0.081448 0.333389
0.595678 0.091291 0.340301
0.737688 0.101169 0.347108
0.881707 0.111082 0.353810
1.000000 0.121030 0.360407
0.000000 0.187693 0.318988
0.068378 0.197698 0.326113
0.204463 0.207738 0.333133
0.342557 0.217814 0.340048
0.482659 0.227924 0.346859
0.624769 0.238069 0.353565
0.768888 0.248249 0.360166
0.915015 0.258464 0.366663
1.000000 0.268714 0.373054
0.000000 0.334011 0.332877
0.089573 0.344319 0.339796
0.227767 0.354662 0.346611
0.367969 0.365039 0.353320
0.510179 0.375451 0.359925
0.654398 0.385899 0.366426
0.800625 0.396381 0.372821
0.948861 0.406898 0.379112
1.000000 0.417450 0.385298
0.000000 0.481382 0.346362
0.111306 0.491992 0.353075
0.251609 0.502637 0.359684
0.393919 0.513316 0.366188
0.538238 0.524031 0.372588
0.684566 0.534780 0.378882
0.832902 0.545565 0.385072
0.983246 0.556384 0.391157
1.000000 0.567238 0.397137
0.000000 0.629804 0.359443
0.133578 0.640716 0.365951
0.275989 0.651663 0.372354
0.420408 0.662645 0.378653
0.566836 0.673662 0.384846
0.715272 0.684713 0.390935
0.865716 0.695800 0.396919
1.000000 0.706921 0.402799
1.000000 0.718078 0.408573
0.013877 0.779279 0.372120
0.156388 0.790493 0.378423
0.300907 0.801742 0.384620
0.447435 0.813026 0.390713
0.595972 0.824344 0.396701
0.746516 0.835698 0.402584
0.899070 0.847087 0.408363
1.000000 0.858511 0.414036
1.000000 0.869969 0.419605
0.035117 0.929805 0.384394
0.179736 0.941321 0.390491
0.326364 0.952872 0.396483
0.475001 0.964458 0.402370
0.625646 0.976079 0.408152
0.778299 0.987735 0.413830
0.932961 0.999426 0.419402
1.000000 1.000000 0.424870
1.000000 1.000000 0.430234
0.056895 1.000000 0.396264
0.203623 1.000000 0.402155
0.352360 1.000000 0.407941
0.503105 1.000000 0.413623
0.655858 1.000000 0.419199
0.810620 1.000000 0.424671
0.967391 1.000000 0.430038
1.000000 1.000000 0.435300
1.000000 1.000000 0.440458
0.000000 0.000000 0.423066
0.031469 0.000000 0.429861
0.163746 0.000000 0.436552
0.298032 0.000000 0.443138
0.434326 0.000000 0.449620
0.572628 0.000000 0.455996
0.712939 0.000000 0.462268
0.855259 0.000000 0.468435
0.999587 0.000000 0.474497
0.000000 0.046121 0.436308
0.051691 0.055838 0.442898
0.186077 0.065589 0.449383
0.322472 0.075376 0.455764
0.460874 0.085197 0.462039
0.601286 0.095053 0.468210
0.743705 0.104945 0.474276
0.888133 0.114871 0.480238
1.000000 0.124832 0.486094
0.000000 0.191503 0.449146
0.072452 0.201522 0.455531
0.208947 0.211576 0.461810
0.347450 0.221664 0.467985
0.487961 0.231788 0.474055
0.630481 0.241946 0.480020
0.775009 0.252140 0.485881
0.921546 0.262368 0.491636
1.000000 0.272631 0.497287
0.000000 0.337937 0.461581
0.093752 0.348258 0.467760
0.232355 0.358614 0.473833
0.372966 0.369005 0.479803
0.515586 0.379431 0.485667
0.660215 0.389891 0.491426
0.806852 0.400387 0.497081
0.955497 0.410917 0.502631
1.000000 0.421483 0.508076
0.000000 0.485423 0.473612
0.115590 0.496046 0.479585
0.256301 0.506704 0.485453
0.399021 0.517397 0.491216
0.543750 0.528125 0.496875
0.690487 0.538888 0.502429
0.839233 0.549685 0.507878
0.989986 0.560518 0.513222
1.000000 0.571386 0.518462
0.000000 0.633961 0.485239
0.137966 0.644886 0.491006
0.280786 0.655846 0.496669
0.425615 0.666841 0.502226
0.572452 0.677871 0.507679
0.721298 0.688936 0.513028
0.872152 0.700036 0.518271
1.000000 0.711171 0.523410
1.000000 0.722340 0.528444
0.017960 0.783550 0.496462
0.160880 0.794777 0.502024
0.305809 0.806040 0.507481
0.452747 0.817337 0.512833
0.601692 0.828669 0.518080
0.752647 0.840036 0.523222
0.905609 0.851438 0.528260
1.000000 0.862875 0.533193
1.000000 0.874347 0.538021
0.039304 0.934191 0.507282
0.184333 0.945721 0.512638
0.331371 0.957285 0.517889
0.480417 0.968885 0.523035
0.631471 0.980519 0.528077
0.784534 0.992188 0.533014
0.939605 1.000000 0.537846
1.000000 1.000000 0.542573
1.000000 1.000000 0.547195
0.061187 1.000000 0.517697
0.208325 1.000000 0.522848
0.357471 1.000000 0.527893
0.508625 1.000000 0.532834
0.661788 1.000000 0.537670
0.816960 1.000000 0.542401
0.974140 1.000000 0.547027
1.000000 1.000000 0.551549
1.000000 1.000000 0.555966
0.000000 0.000000 0.555583
0.035354 0.000000 0.561638
0.168041 0.000000 0.567588
0.302736 0.000000 0.573434
0.439440 0.000000 0.579174
0.578152 0.000000 0.584810
0.718872 0.000000 0.590341
0.861601 0.000000 0.595767
1.000000 0.000000 0.601089
0.000000 0.049822 0.567371
0.055681 0.059552 0.573220
0.190477 0.069316 0.578965
0.327280 0.079116 0.584605
0.466093 0.088951 0.590139
0.606913 0.098821 0.595570
0.749743 0.108725 0.600895
0.894580 0.118665 0.606116
1.000000 0.128639 0.611232
0.000000 0.195319 0.578755
0.076547 0.205351 0.584399
0.213451 0.215418 0.589938
0.352363 0.225520 0.595372
0.493284 0.235657 0.600701
0.636213 0.245829 0.605926
0.781151 0.256035 0.611045
0.928097 0.266277 0.616060
1.000000 0.276554 0.620970
0.000000 0.341868 0.589736
0.097951 0.352203 0.595174
0.236963 0.362572 0.600507
0.377984 0.372976 0.605735
0.521014 0.383415 0.610859
0.666052 0.393889 0.615878
0.813098 0.404398 0.620792
0.962153 0.414941 0.625601
1.000000 0.425520 0.630305
0.000000 0.489469 0.600312
0.119893 0.500106 0.605545
0.261014 0.510777 0.610672
0.404144 0.521483 0.615695
0.549282 0.532224 0.620613
0.696429 0.543001 0.625426
0.845584 0.553812 0.630134
0.996747 0.564657 0.634738
1.000000 0.575538 0.639237
0.001152 0.638122 0.610485
0.142374 0.649061 0.615512
0.285604 0.660034 0.620434
0.430842 0.671043 0.625251
0.578089 0.682086 0.629963
0.727344 0.693164 0.634570
0.878607 0.704277 0.639073
1.000000 0.715425 0.643471
1.000000 0.726608 0.647764
0.022063 0.787827 0.620254
0.165393 0.799067 0.625075
0.310731 0.810343 0.629791
0.458078 0.821654 0.634403
0.607434 0.832999 0.638909
0.758797 0.844379 0.643311
0.912170 0.855795 0.647608
1.000000 0.867245 0.651800
1.000000 0.878730 0.655888
0.043512 0.938583 0.629620
0.188950 0.950126 0.634235
0.336397 0.961704 0.638745
0.485853 0.973316 0.643151
0.637317 0.984964 0.647452
0.790789 0.996647 0.651648
0.946270 1.000000 0.655739
1.000000 1.000000 0.659726
1.000000 1.000000 0.663608
0.065499 1.000000 0.638581
0.213046 1.000000 0.642991
0.362602 1.000000 0.647295
0.514166 1.000000 0.651495
0.667739 1.000000 0.655591
0.823320 1.000000 0.659581
0.980909 1.000000 0.663467
1.000000 1.000000 0.667248
1.000000 1.000000 0.670924
0.000000 0.000000 0.687551
0.039260 0.000000 0.692865
0.172356 0.000000 0.698074
0.307461 0.000000 0.703179
0.444574 0.000000 0.708179
0.583695 0.000000 0.713074
0.724825 0.000000 0.717865
0.867964 0.000000 0.722550
1.000000 0.000000 0.727131
0.000000 0.053527 0.697885
0.059691 0.063270 0.702993
0.194896 0.073049 0.707997
0.332110 0.082862 0.712896
0.471331 0.092710 0.717690
0.612562 0.102593 0.722380
0.755800 0.112511 0.726964
0.901047 0.122463 0.731444
1.000000 0.132451 0.735819
0.000000 0.199140 0.707815
0.080661 0.209185 0.712718
0.217975 0.219266 0.717516
0.357297 0.229381 0.722209
0.498627 0.239531 0.726798
0.641966 0.249716 0.731281
0.787313 0.259936 0.735660
0.934669 0.270191 0.739935
1.000000 0.280481 0.744104
0.000000 0.345804 0.717341
0.102170 0.356152 0.722038
0.241592 0.366534 0.726631
0.383023 0.376952 0.731118
0.526462 0.387404 0.735501
0.671909 0.397891 0.739779
0.819365 0.408414 0.743952
0.968829 0.418971 0.748021
1.000000 0.429563 0.751985
0.000000 0.493521 0.726463
0.124217 0.504170 0.730955
0.265748 0.514855 0.735342
0.409287 0.525574 0.739624
0.554834 0.536329 0.743801
0.702390 0.547118 0.747873
0.851955 0.557943 0.751841
1.000000 0.568802 0.755704
1.000000 0.579696 0.759462
0.005171 0.642289 0.735182
0.146802 0.653240 0.739468
0.290441 0.664227 0.743649
0.436089 0.675249 0.747725
0.583745 0.686306 0.751697
0.733410 0.697397 0.755563
0.885083 0.708524 0.759325
1.000000 0.719685 0.762983
1.000000 0.730881 0.766535
0.026186 0.792108 0.743497
0.169926 0.803362 0.747577
0.315674 0.814651 0.751552
0.463430 0.825975 0.755423
0.613195 0.837334 0.759189
0.764968 0.848728 0.762850
0.918750 0.860156 0.766406
1.000000 0.871620 0.769858
1.000000 0.883118 0.773205
0.047740 0.942980 0.751408
0.193588 0.954536 0.755283
0.341444 0.966127 0.759052
0.491309 0.977753 0.762717
0.643183 0.989414 0.766277
0.797065 1.000000 0.769733
0.952955 1.000000 0.773083
1.000000 1.000000 0.776329
1.000000 1.000000 0.779470
0.069832 1.000000 0.758915
0.217788 1.000000 0.762584
0.367754 1.000000 0.766148
0.519727 1.000000 0.769607
0.673709 1.000000 0.772962
0.829700 1.000000 0.776212
0.987699 1.000000 0.779356
1.000000 1.000000 0.782397
1.000000 1.000000 0.785332
0.000000 0.000000 0.818969
0.043185 0.000000 0.823543
0.176691 0.000000 0.828011
0.312205 0.000000 0.832375
0.449728 0.000000 0.836634
0.589259 0.000000 0.840789
0.730799 0.000000 0.844838
0.874347 0.000000 0.848783
1.000000 0.000000 0.852623
0.000000 0.057238 0.827849
0.063722 0.066995 0.832216
0.199336 0.076786 0.836480
0.336959 0.086612 0.840638
0.476590 0.096474 0.844691
0.618230 0.106370 0.848640
0.761878 0.116301 0.852484
0.907535 0.126267 0.856223
1.000000 0.136268 0.859858
0.000000 0.202966 0.836325
0.084796 0.213025 0.840487
0.222519 0.223118 0.844544
0.362251 0.233247 0.848497
0.503991 0.243410 0.852344
0.647739 0.253609 0.856087
0.793496 0.263842 0.859726
0.941261 0.274110 0.863259
1.000000 0.284413 0.866688
0.000000 0.349745 0.844397
0.106410 0.360106 0.848353
0.246241 0.370502 0.852205
0.388081 0.380933 0.855952
0.531930 0.391398 0.859594
0.677787 0.401899 0.863131
0.825652 0.412434 0.866564
0.975526 0.423005 0.869892
1.000000 0.433610 0.873115
0.000000 0.497577 0.852065
0.128561 0.508240 0.855816
0.270501 0.518938 0.859462
0.414450 0.529671 0.863003
0.560407 0.540438 0.866439
0.708373 0.551241 0.869771
0.858347 0.562079 0.872998
1.000000 0.572951 0.876120
1.000000 0.583859 0.879137
0.009210 0.646460 0.859329
0.151251 0.657425 0.862874
0.295300 0.668425 0.866315
0.441357 0.679460 0.869650
0.589423 0.690530 0.872881
0.739497 0.701635 0.876007
0.891579 0.712775 0.879028
1.000000 0.723950 0.881945
1.000000 0.735159 0.884756
0.030330 0.796395 0.866190
0.174479 0.807662 0.869529
0.320637 0.818965 0.872764
0.468802 0.830302 0.875894
0.618977 0.841674 0.878919
0.771160 0.853081 0.881839
0.925351 0.864523 0.884655
1.000000 0.876000 0.887366
1.000000 0.887512 0.889972
0.051988 0.947382 0.872647
0.198246 0.958951 0.875781
0.346512 0.970556 0.878810
0.496786 0.982195 0.881734
0.649069 0.993869 0.884553
0.803361 1.000000 0.887268
0.959660 1.000000 0.889878
1.000000 1.000000 0.892383
1.000000 1.000000 0.894783
0.074184 1.000000 0.878700
0.222551 1.000000 0.881628
0.372925 1.000000 0.884451
0.525309 1.000000 0.887170
0.679700 1.000000 0.889784
0.836100 1.000000 0.892293
0.994509 1.000000 0.894697
1.000000 1.000000 0.896996
1.000000 1.000000 0.899191
0.000000 0.000000 0.949838
0.047132 0.000000 0.953670
0.181047 0.000000 0.957398
0.316971 0.000000 0.961022
0.454903 0.000000 0.964540
0.594843 0.000000 0.967954
0.736793 0.000000 0.971263
0.880750 0.000000 0.974467
1.000000 0.000000 0.977566
0.000000 0.060954 0.957263
0.067773 0.070724 0.960890
0.203796 0.080528 0.964412
0.341829 0.090368 0.967830
0.481870 0.100243 0.971143
0.623919 0.110152 0.974351
0.767976 0.120097 0.977454
0.914043 0.130076 0.980452
1.000000 0.140091 0.983346
0.000000 0.206797 0.964285
0.088952 0.216869 0.967706
0.227084 0.226976 0.971023
0.367225 0.237118 0.974235
0.509375 0.247294 0.977342
0.653532 0.257506 0.980344
0.799699 0.267753 0.983242
0.947873 0.278034 0.986034
1.000000 0.288351 0.988722
0.000000 0.353692 0.970903
0.110669 0.364066 0.974118
0.250911 0.374475 0.977229
0.393160 0.384919 0.980235
0.537418 0.395398 0.983137
0.683685 0.405912 0.985933
0.831959 0.416461 0.988625
0.982243 0.427044 0.991212
1.000000 0.437663 0.993695
0.000000 0.501638 0.977117
0.132925 0.512315 0.980127
0.275275 0.523026 0.983032
0.419633 0.533772 0.985832
0.566000 0.544553 0.988528
0.714375 0.555369 0.991119
0.864759 0.566220 0.993605
1.000000 0.577106 0.995987
1.000000 0.588027 0.998263
0.013270 0.650637 0.982927
0.155720 0.661615 0.985731
0.300178 0.672629 0.988431
0.446645 0.683677 0.991026
0.595120 0.694760 0.993516
0.745604 0.705878 0.995901
0.898096 0.717031 0.998182
1.000000 0.728219 1.000000
1.000000 0.739442 1.000000
0.034494 0.800687 0.988333
0.179053 0.811967 0.990932
0.325620 0.823283 0.993426
0.474195 0.834634 0.995815
0.624779 0.846019 0.998099
0.777371 0.857439 1.000000
0.931972 0.868895 1.000000
1.000000 0.880385 1.000000
1.000000 0.891910 1.000000
0.056257 0.951789 0.993336
0.202924 0.963372 0.995729
0.351599 0.974989 0.998017
0.502283 0.986642 1.000000
0.654976 0.998330 1.000000
0.809677 1.000000 1.000000
0.966386 1.000000 1.000000
1.000000 1.000000 1.000000
1.000000 1.000000 1.000000
0.078558 1.000000 0.997935
0.227333 1.000000 1.000000
0.378118 1.000000 1.000000
0.530910 1.000000 1.000000
0.685711 1.000000 1.000000
0.842521 1.000000 1.000000
1.000000 1.000000 1.000000
1.000000 1.000000 1.000000
1.000000 1.000000 1.000000
