luts/oppenheimer.cube
# Oppenheimer LUT (by Rana Moly + GPT-5)
LUT_3D_SIZE 5
DOMAIN_MIN 0.0 0.0 0.0
DOMAIN_MAX 1.0 1.0 1.0
0.000000 0.000000 0.000000
0.146770 0.000000 0.000000
0.414074 0.000000 0.000000
0.689411 0.000000 0.000000
0.972783 0.000000 0.000000
0.000000 0.176291 0.000000
0.191134 0.196257 0.000000
0.466873 0.216363 0.000000
0.750645 0.236608 0.000000
1.000000 0.256993 0.000000
0.000000 0.469289 0.000000
0.237652 0.490464 0.000000
0.521825 0.511778 0.000000
0.814031 0.533232 0.013357
1.000000 0.554826 0.029867
0.001750 0.766495 0.000000
0.286324 0.788878 0.012742
0.578931 0.811401 0.029267
0.879572 0.834063 0.045373
1.000000 0.856866 0.061060
0.044141 1.000000 0.028666
0.337149 1.000000 0.044788
0.638190 1.000000 0.060490
0.947266 1.000000 0.075773
1.000000 1.000000 0.090638
0.000000 0.000000 0.156382
0.155217 0.000000 0.172831
0.424159 0.000000 0.188862
0.701135 0.000000 0.204473
0.986144 0.000000 0.219665
0.000000 0.183887 0.188280
0.200000 0.203906 0.203906
0.477376 0.224065 0.219114
0.762786 0.244364 0.233902
1.000000 0.264802 0.248272
0.000000 0.477346 0.218562
0.246936 0.498574 0.233366
0.532747 0.519941 0.247751
0.826591 0.541449 0.261717
1.000000 0.563096 0.275263
0.009814 0.775012 0.247229
0.296026 0.797449 0.261210
0.590271 0.820025 0.274773
0.892550 0.842741 0.287916
1.000000 0.865596 0.300640
0.052623 1.000000 0.274281
0.347269 1.000000 0.287440
0.649949 1.000000 0.300179
0.960662 1.000000 0.312499
1.000000 1.000000 0.324401
0.000000 0.000000 0.423066
0.163746 0.000000 0.436552
0.434326 0.000000 0.449620
0.712939 0.000000 0.462268
0.999587 0.000000 0.474497
0.000000 0.191503 0.449146
0.208947 0.211576 0.461810
0.487961 0.231788 0.474055
0.775009 0.252140 0.485881
1.000000 0.272631 0.497287
0.000000 0.485423 0.473612
0.256301 0.506704 0.485453
0.543750 0.528125 0.496875
0.839233 0.549685 0.507878
1.000000 0.571386 0.518462
0.017960 0.783550 0.496462
0.305809 0.806040 0.507481
0.601692 0.828669 0.518080
0.905609 0.851438 0.528260
1.000000 0.874347 0.538021
0.061187 1.000000 0.517697
0.357471 1.000000 0.527893
0.661788 1.000000 0.537670
0.974140 1.000000 0.547027
1.000000 1.000000 0.555966
0.000000 0.000000 0.687551
0.172356 0.000000 0.698074
0.444574 0.000000 0.708179
0.724825 0.000000 0.717865
1.000000 0.000000 0.727131
0.000000 0.199140 0.707815
0.217975 0.219266 0.717516
0.498627 0.239531 0.726798
0.787313 0.259936 0.735660
1.000000 0.280481 0.744104
0.000000 0.493521 0.726463
0.265748 0.514855 0.735342
0.554834 0.536329 0.743801
0.851955 0.557943 0.751841
1.000000 0.579696 0.759462
0.026186 0.792108 0.743497
0.315674 0.814651 0.751552
0.613195 0.837334 0.759189
0.918750 0.860156 0.766406
1.000000 0.883118 0.773205
0.069832 1.000000 0.758915
0.367754 1.000000 0.766148
0.673709 1.000000 0.772962
0.987699 1.000000 0.779356
1.000000 1.000000 0.785332
0.000000 0.000000 0.949838
0.181047 0.000000 0.957398
0.454903 0.000000 0.964540
0.736793 0.000000 0.971263
1.000000 0.000000 0.977566
0.000000 0.206797 0.964285
0.227084 0.226976 0.971023
0.509375 0.247294 0.977342
0.799699 0.267753 0.983242
1.000000 0.288351 0.988722
0.000000 0.501638 0.977117
0.275275 0.523026 0.983032
0.566000 0.544553 0.988528
0.864759 0.566220 0.993605
1.000000 0.588027 0.998263
0.034494 0.800687 0.988333
0.325620 0.823283 0.993426
0.624779 0.846019 0.998099
0.931972 0.868895 1.000000
1.000000 0.891910 1.000000
0.078558 1.000000 0.997935
0.378118 1.000000 1.000000
0.685711 1.000000 1.000000
1.000000 1.000000 1.000000
1.000000 1.000000 1.000000
