luts/oppenheimer.cube
# Oppenheimer LUT (by Rana Moly + GPT-5)
LUT_3D_SIZE 33
DOMAIN_MIN 0.0 0.0 0.0
DOMAIN_MAX 1.0 1.0 1.0
0.000000 0.000000 0.000000
0.000000 0.000000 0.000000
0.000000 0.000000 0.000000
0.000000 0.000000 0.000000
0.016131 0.000000 0.000000
0.048602 0.000000 0.000000
0.081199 0.000000 0.000000
0.113922 0.000000 0.000000
0.146770 0.000000 0.000000
0.179744 0.000000 0.000000
0.212843 0.000000 0.000000
0.246067 0.000000 0.000000
0.279418 0.000000 0.000000
0.312893 0.000000 0.000000
0.346495 0.000000 0.000000
0.380221 0.000000 0.000000
0.414074 0.000000 0.000000
0.448052 0.000000 0.000000
0.482155 0.000000 0.000000
0.516384 0.000000 0.000000
0.550738 0.000000 0.000000
0.585218 0.000000 0.000000
0.619824 0.000000 0.000000
0.654555 0.000000 0.000000
0.689411 0.000000 0.000000
0.724393 0.000000 0.000000
0.759501 0.000000 0.000000
0.794734 0.000000 0.000000
0.830093 0.000000 0.000000
0.865577 0.000000 0.000000
0.901187 0.000000 0.000000
0.936922 0.000000 0.000000
0.972783 0.000000 0.000000
0.000000 0.000000 0.000000
0.000000 0.000000 0.000000
0.000000 0.000000 0.000000
0.000000 0.000000 0.000000
0.021031 0.000000 0.000000
0.053635 0.000000 0.000000
0.086364 0.000000 0.000000
0.119218 0.000000 0.000000
0.152198 0.000000 0.000000
0.185303 0.000000 0.000000
0.218534 0.000000 0.000000
0.251891 0.000000 0.000000
0.285373 0.000000 0.000000
0.318980 0.000000 0.000000
0.352713 0.000000 0.000000
0.386572 0.000000 0.000000
0.420556 0.000000 0.000000
0.454665 0.000000 0.000000
0.488901 0.000000 0.000000
0.523261 0.000000 0.000000
0.557748 0.000000 0.000000
0.592359 0.000000 0.000000
0.627097 0.000000 0.000000
0.661959 0.000000 0.000000
0.696948 0.000000 0.000000
0.732062 0.000000 0.000000
0.767301 0.000000 0.000000
0.802666 0.000000 0.000000
0.838156 0.000000 0.000000
0.873772 0.000000 0.000000
0.909514 0.000000 0.000000
0.945381 0.000000 0.000000
0.981373 0.000000 0.000000
0.000000 0.000000 0.000000
0.000000 0.000000 0.000000
0.000000 0.000000 0.000000
0.000000 0.000000 0.000000
0.025966 0.000000 0.000000
0.058701 0.000000 0.000000
0.091561 0.000000 0.000000
0.124548 0.000000 0.000000
0.157659 0.000000 0.000000
0.190896 0.000000 0.000000
0.224259 0.000000 0.000000
0.257747 0.000000 0.000000
0.291361 0.000000 0.000000
0.325100 0.000000 0.000000
0.358965 0.000000 0.000000
0.392956 0.000000 0.000000
0.427072 0.000000 0.000000
0.461313 0.000000 0.000000
0.495680 0.002384 0.000000
0.530172 0.004798 0.000000
0.564790 0.007214 0.000000
0.599534 0.009632 0.000000
0.634403 0.012053 0.000000
0.669398 0.014476 0.000000
0.704518 0.016901 0.000000
0.739763 0.019328 0.000000
0.775135 0.021757 0.000000
0.810631 0.024189 0.000000
0.846253 0.026623 0.000000
0.882001 0.029059 0.000000
0.917874 0.031497 0.000000
0.953873 0.033937 0.000000
0.989998 0.036379 0.000000
0.000000 0.000000 0.000000
0.000000 0.000000 0.000000
0.000000 0.000093 0.000000
0.000000 0.002491 0.000000
0.030934 0.004891 0.000000
0.063800 0.007294 0.000000
0.096793 0.009698 0.000000
0.129911 0.012105 0.000000
0.163154 0.014514 0.000000
0.196523 0.016925 0.000000
0.230018 0.019339 0.000000
0.263638 0.021754 0.000000
0.297383 0.024172 0.000000
0.331254 0.026592 0.000000
0.365251 0.029014 0.000000
0.399373 0.031438 0.000000
0.433621 0.033864 0.000000
0.467994 0.036293 0.000000
0.502493 0.038724 0.000000
0.537117 0.041157 0.000000
0.571867 0.043592 0.000000
0.606742 0.046029 0.000000
0.641743 0.048469 0.000000
0.676869 0.050911 0.000000
0.712121 0.053354 0.000000
0.747499 0.055800 0.000000
0.783002 0.058249 0.000000
0.818630 0.060699 0.000000
0.854384 0.063152 0.000000
0.890264 0.065607 0.000000
0.926269 0.068064 0.000000
0.962399 0.070523 0.000000
0.998656 0.072984 0.000000
0.000000 0.031370 0.000000
0.000000 0.033782 0.000000
0.000000 0.036197 0.000000
0.003062 0.038614 0.000000
0.035935 0.041033 0.000000
0.068934 0.043454 0.000000
0.102058 0.045878 0.000000
0.135308 0.048303 0.000000
0.168683 0.050731 0.000000
0.202184 0.053161 0.000000
0.235810 0.055594 0.000000
0.269562 0.058028 0.000000
0.303439 0.060465 0.000000
0.337442 0.062903 0.000000
0.371571 0.065344 0.000000
0.405825 0.067787 0.000000
0.440204 0.070233 0.000000
0.474709 0.072680 0.000000
0.509339 0.075130 0.000000
0.544096 0.077582 0.000000
0.578977 0.080036 0.000000
0.613984 0.082492 0.000000
0.649117 0.084950 0.000000
0.684375 0.087411 0.000000
0.719759 0.089874 0.000000
0.755268 0.092339 0.000000
0.790903 0.094806 0.000000
0.826663 0.097275 0.000000
0.862549 0.099747 0.000000
0.898560 0.102220 0.000000
0.934697 0.104696 0.000000
0.970959 0.107174 0.000000
1.000000 0.109654 0.000000
0.000000 0.067501 0.000000
0.000000 0.069933 0.000000
0.000000 0.072366 0.000000
0.007965 0.074802 0.000000
0.040970 0.077240 0.000000
0.074101 0.079680 0.000000
0.107357 0.082123 0.000000
0.140738 0.084567 0.000000
0.174245 0.087014 0.000000
0.207878 0.089463 0.000000
0.241636 0.091914 0.000000
0.275520 0.094367 0.000000
0.309529 0.096823 0.000000
0.343663 0.099281 0.000000
0.377924 0.101740 0.000000
0.412309 0.104202 0.000000
0.446821 0.106667 0.000000
0.481457 0.109133 0.000000
0.516220 0.111601 0.000000
0.551108 0.114072 0.000000
0.586121 0.116545 0.000000
0.621260 0.119020 0.000000
0.656524 0.121498 0.000000
0.691914 0.123977 0.000000
0.727430 0.126459 0.000000
0.763071 0.128942 0.000000
0.798837 0.131428 0.000000
0.834729 0.133917 0.000000
0.870747 0.136407 0.000000
0.906890 0.138900 0.000000
0.943159 0.141394 0.000000
0.979553 0.143891 0.000000
1.000000 0.146390 0.000000
0.000000 0.103699 0.000000
0.000000 0.106149 0.000000
0.000000 0.108602 0.000000
0.012903 0.111056 0.000000
0.046039 0.113513 0.000000
0.079301 0.115972 0.000000
0.112689 0.118434 0.000000
0.146203 0.120897 0.000000
0.179841 0.123363 0.000000
0.213606 0.125830 0.000000
0.247496 0.128300 0.000000
0.281511 0.130773 0.000000
0.315652 0.133247 0.000000
0.349918 0.135724 0.000000
0.384310 0.138202 0.000000
0.418828 0.140683 0.000000
0.453471 0.143166 0.000000
0.488240 0.145651 0.000000
0.523134 0.148139 0.000000
0.558153 0.150629 0.000000
0.593298 0.153120 0.000000
0.628569 0.155614 0.000000
0.663965 0.158110 0.000000
0.699487 0.160609 0.000000
0.735134 0.163109 0.000000
0.770907 0.165612 0.000000
0.806805 0.168117 0.000000
0.842829 0.170624 0.000000
0.878979 0.173133 0.000000
0.915254 0.175645 0.000000
0.951654 0.178158 0.000000
0.988180 0.180674 0.000000
1.000000 0.183192 0.000000
0.000000 0.139962 0.000000
0.000000 0.142431 0.000000
0.000000 0.144903 0.000000
0.017873 0.147376 0.000000
0.051142 0.149852 0.000000
0.084536 0.152330 0.000000
0.118055 0.154810 0.000000
0.151700 0.157292 0.000000
0.185471 0.159777 0.000000
0.219367 0.162264 0.000000
0.253389 0.164753 0.000000
0.287536 0.167244 0.000000
0.321809 0.169737 0.000000
0.356207 0.172232 0.000000
0.390731 0.174730 0.000000
0.425380 0.177230 0.000000
0.460155 0.179732 0.000000
0.495055 0.182236 0.000000
0.530081 0.184742 0.000000
0.565233 0.187251 0.000000
0.600510 0.189761 0.000000
0.635912 0.192274 0.000000
0.671440 0.194789 0.000000
0.707094 0.197306 0.000000
0.742873 0.199826 0.000000
0.778777 0.202347 0.000000
0.814807 0.204871 0.000000
0.850963 0.207397 0.000000
0.887244 0.209925 0.000000
0.923651 0.212456 0.000000
0.960183 0.214988 0.000000
0.996841 0.217523 0.000000
1.000000 0.220060 0.000000
0.000000 0.176291 0.000000
0.000000 0.178779 0.000000
0.000000 0.181269 0.000000
0.022878 0.183762 0.000000
0.056278 0.186257 0.000000
0.089804 0.188753 0.000000
0.123455 0.191252 0.000000
0.157232 0.193754 0.000000
0.191134 0.196257 0.000000
0.225162 0.198763 0.000000
0.259316 0.201270 0.000000
0.293595 0.203780 0.000000
0.327999 0.206292 0.000000
0.362529 0.208807 0.000000
0.397185 0.211323 0.000000
0.431966 0.213842 0.000000
0.466873 0.216363 0.000000
0.501905 0.218886 0.000000
0.537062 0.221411 0.000000
0.572346 0.223938 0.000000
0.607754 0.226468 0.000000
0.643289 0.229000 0.000000
0.678948 0.231534 0.000000
0.714734 0.234070 0.000000
0.750645 0.236608 0.000000
0.786681 0.239149 0.000000
0.822843 0.241691 0.000000
0.859130 0.244236 0.000000
0.895543 0.246783 0.000000
0.932082 0.249332 0.000000
0.968746 0.251884 0.000000
1.000000 0.254437 0.000000
1.000000 0.256993 0.000000
0.000000 0.212686 0.000000
0.000000 0.215193 0.000000
0.000000 0.217702 0.000000
0.027916 0.220213 0.000000
0.061448 0.222727 0.000000
0.095105 0.225243 0.000000
0.128888 0.227760 0.000000
0.162797 0.230281 0.000000
0.196831 0.232803 0.000000
0.230991 0.235327 0.000000
0.265276 0.237854 0.000000
0.299687 0.240383 0.000000
0.334223 0.242914 0.000000
0.368885 0.245447 0.000000
0.403673 0.247982 0.000000
0.438585 0.250520 0.000000
0.473624 0.253060 0.000000
0.508788 0.255601 0.000000
0.544077 0.258146 0.000000
0.579492 0.260692 0.000000
0.615033 0.263240 0.000000
0.650699 0.265791 0.000000
0.686490 0.268344 0.000000
0.722407 0.270899 0.000000
0.758450 0.273456 0.000000
0.794618 0.276015 0.000000
0.830912 0.278577 0.000000
0.867331 0.281141 0.000000
0.903876 0.283707 0.000000
0.940546 0.286275 0.000000
0.977342 0.288845 0.000000
1.000000 0.291417 0.000000
1.000000 0.293992 0.001248
0.000000 0.249146 0.000000
0.000000 0.251672 0.000000
0.000000 0.254200 0.000000
0.032987 0.256730 0.000000
0.066651 0.259263 0.000000
0.100441 0.261797 0.000000
0.134356 0.264334 0.000000
0.168396 0.266873 0.000000
0.202562 0.269414 0.000000
0.236853 0.271958 0.000000
0.271270 0.274503 0.000000
0.305813 0.277051 0.000000
0.340481 0.279601 0.000000
0.375275 0.282153 0.000000
0.410194 0.284707 0.000000
0.445239 0.287264 0.000000
0.480409 0.289822 0.000000
0.515705 0.292383 0.000000
0.551126 0.294946 0.000000
0.586673 0.297511 0.000000
0.622345 0.300078 0.000000
0.658143 0.302648 0.000000
0.694066 0.305220 0.000000
0.730115 0.307794 0.000000
0.766289 0.310370 0.000000
0.802589 0.312948 0.000000
0.839015 0.315528 0.000000
0.875566 0.318111 0.000000
0.912242 0.320696 0.000000
0.949044 0.323283 0.000000
0.985972 0.325872 0.001169
1.000000 0.328463 0.003294
1.000000 0.331057 0.005412
0.000000 0.285672 0.000000
0.000000 0.288217 0.000000
0.004423 0.290764 0.000000
0.038093 0.293313 0.000000
0.071888 0.295865 0.000000
0.105809 0.298418 0.000000
0.139856 0.300974 0.000000
0.174028 0.303532 0.000000
0.208326 0.306092 0.000000
0.242750 0.308654 0.000000
0.277298 0.311218 0.000000
0.311973 0.313785 0.000000
0.346773 0.316354 0.000000
0.381698 0.318924 0.000000
0.416749 0.321498 0.000000
0.451925 0.324073 0.000000
0.487227 0.326650 0.000000
0.522655 0.329230 0.000000
0.558208 0.331812 0.000000
0.593886 0.334396 0.000000
0.629691 0.336982 0.000000
0.665620 0.339571 0.000000
0.701675 0.342161 0.000000
0.737856 0.344754 0.000000
0.774162 0.347349 0.000000
0.810594 0.349946 0.000000
0.847151 0.352545 0.000000
0.883834 0.355147 0.000000
0.920642 0.357751 0.001091
0.957576 0.360357 0.003216
0.994636 0.362965 0.005334
1.000000 0.365575 0.007446
1.000000 0.368187 0.009551
0.000000 0.322264 0.000000
0.000000 0.324828 0.000000
0.009430 0.327394 0.000000
0.043232 0.329962 0.000000
0.077159 0.332532 0.000000
0.111212 0.335104 0.000000
0.145391 0.337679 0.000000
0.179695 0.340256 0.000000
0.214124 0.342835 0.000000
0.248679 0.345416 0.000000
0.283360 0.347999 0.000000
0.318166 0.350584 0.000000
0.353098 0.353172 0.000000
0.388155 0.355762 0.000000
0.423338 0.358354 0.000000
0.458646 0.360948 0.000000
0.494080 0.363545 0.000000
0.529639 0.366143 0.000000
0.565324 0.368744 0.000000
0.601134 0.371347 0.000000
0.637070 0.373952 0.000000
0.673131 0.376559 0.000000
0.709318 0.379169 0.000000
0.745631 0.381780 0.000000
0.782069 0.384394 0.000000
0.818632 0.387010 0.000000
0.855321 0.389628 0.001013
0.892136 0.392249 0.003138
0.929076 0.394871 0.005256
0.966142 0.397496 0.007368
1.000000 0.400123 0.009473
1.000000 0.402752 0.011572
1.000000 0.405383 0.013664
0.000000 0.358922 0.000000
0.000000 0.361504 0.000000
0.014471 0.364089 0.000000
0.048404 0.366676 0.000000
0.082463 0.369265 0.000000
0.116648 0.371856 0.000000
0.150959 0.374450 0.000000
0.185394 0.377045 0.000000
0.219956 0.379643 0.000000
0.254643 0.382243 0.000000
0.289455 0.384845 0.000000
0.324393 0.387450 0.000000
0.359456 0.390056 0.000000
0.394645 0.392665 0.000000
0.429960 0.395276 0.000000
0.465400 0.397889 0.000000
0.500965 0.400504 0.000000
0.536657 0.403122 0.000000
0.572473 0.405741 0.000000
0.608415 0.408363 0.000000
0.644483 0.410987 0.000000
0.680676 0.413613 0.000000
0.716995 0.416242 0.000000
0.753439 0.418872 0.000000
0.790009 0.421505 0.000935
0.826704 0.424140 0.003060
0.863525 0.426777 0.005178
0.900471 0.429416 0.007291
0.937543 0.432058 0.009396
0.974741 0.434701 0.011495
1.000000 0.437347 0.013588
1.000000 0.439995 0.015673
1.000000 0.442645 0.017753
0.000000 0.395645 0.000000
0.000000 0.398247 0.000000
0.019545 0.400850 0.000000
0.053611 0.403456 0.000000
0.087802 0.406064 0.000000
0.122118 0.408674 0.000000
0.156560 0.411287 0.000000
0.191128 0.413901 0.000000
0.225821 0.416518 0.000000
0.260640 0.419137 0.000000
0.295584 0.421758 0.000000
0.330653 0.424381 0.000000
0.365849 0.427006 0.000000
0.401169 0.429634 0.000000
0.436616 0.432264 0.000000
0.472188 0.434896 0.000000
0.507885 0.437530 0.000000
0.543708 0.440166 0.000000
0.579656 0.442805 0.000000
0.615730 0.445445 0.000000
0.651930 0.448088 0.000000
0.688255 0.450733 0.000000
0.724705 0.453381 0.000856
0.761281 0.456030 0.002982
0.797983 0.458682 0.005101
0.834810 0.461335 0.007213
0.871763 0.463991 0.009319
0.908841 0.466650 0.011418
0.946044 0.469310 0.013511
0.983374 0.471972 0.015597
1.000000 0.474637 0.017676
1.000000 0.477304 0.019749
1.000000 0.479973 0.021816
0.000000 0.432434 0.000000
0.000000 0.435055 0.000000
0.024653 0.437677 0.000000
0.058850 0.440302 0.000000
0.093173 0.442929 0.000000
0.127622 0.445558 0.000000
0.162195 0.448189 0.000000
0.196895 0.450822 0.000000
0.231720 0.453458 0.000000
0.266670 0.456096 0.000000
0.301746 0.458736 0.000000
0.336948 0.461378 0.000000
0.372275 0.464022 0.000000
0.407727 0.466669 0.000000
0.443305 0.469317 0.000000
0.479009 0.471968 0.000000
0.514838 0.474621 0.000000
0.550793 0.477276 0.000000
0.586873 0.479934 0.000000
0.623079 0.482593 0.000000
0.659410 0.485255 0.000778
0.695867 0.487919 0.002904
0.732449 0.490585 0.005023
0.769157 0.493253 0.007135
0.805990 0.495924 0.009241
0.842949 0.498597 0.011341
0.880034 0.501272 0.013434
0.917244 0.503949 0.015520
0.954579 0.506628 0.017600
0.992040 0.509309 0.019673
1.000000 0.511993 0.021740
1.000000 0.514679 0.023800
1.000000 0.517367 0.025854
0.000000 0.469289 0.000000
0.000000 0.471928 0.000000
0.029795 0.474570 0.000000
0.064124 0.477213 0.000000
0.098579 0.479859 0.000000
0.133159 0.482507 0.000000
0.167864 0.485157 0.000000
0.202696 0.487809 0.000000
0.237652 0.490464 0.000000
0.272735 0.493120 0.000000
0.307942 0.495779 0.000000
0.343276 0.498440 0.000000
0.378734 0.501104 0.000000
0.414319 0.503769 0.000000
0.450029 0.506436 0.000000
0.485864 0.509106 0.000000
0.521825 0.511778 0.000000
0.557911 0.514452 0.000000
0.594123 0.517129 0.000700
0.630461 0.519807 0.002826
0.666924 0.522488 0.004945
0.703513 0.525170 0.007058
0.740227 0.527855 0.009164
0.777066 0.530543 0.011264
0.814031 0.533232 0.013357
0.851122 0.535924 0.015444
0.888338 0.538617 0.017524
0.925680 0.541313 0.019597
0.963147 0.544011 0.021664
1.000000 0.546712 0.023725
1.000000 0.549414 0.025779
1.000000 0.552119 0.027826
1.000000 0.554826 0.029867
0.000000 0.506210 0.000000
0.000635 0.508868 0.000000
0.034970 0.511528 0.000000
0.069431 0.514191 0.000000
0.104018 0.516855 0.000000
0.138730 0.519522 0.000000
0.173567 0.522191 0.000000
0.208530 0.524862 0.000000
0.243618 0.527536 0.000000
0.278832 0.530211 0.000000
0.314172 0.532889 0.000000
0.349637 0.535569 0.000000
0.385228 0.538251 0.000000
0.420944 0.540935 0.000000
0.456786 0.543621 0.000000
0.492753 0.546310 0.000000
0.528845 0.549001 0.000621
0.565064 0.551694 0.002747
0.601407 0.554389 0.004867
0.637877 0.557086 0.006980
0.674472 0.559786 0.009087
0.711192 0.562488 0.011187
0.748038 0.565192 0.013280
0.785009 0.567898 0.015367
0.822106 0.570606 0.017447
0.859329 0.573316 0.019521
0.896677 0.576029 0.021588
0.934150 0.578744 0.023649
0.971749 0.581461 0.025703
1.000000 0.584180 0.027751
1.000000 0.586901 0.029792
1.000000 0.589625 0.031826
1.000000 0.592351 0.033854
0.000000 0.543196 0.000000
0.005712 0.545873 0.000000
0.040179 0.548552 0.000000
0.074772 0.551234 0.000000
0.109490 0.553917 0.000000
0.144334 0.556603 0.000000
0.179303 0.559291 0.000000
0.214398 0.561981 0.000000
0.249618 0.564673 0.000000
0.284964 0.567367 0.000000
0.320435 0.570064 0.000000
0.356032 0.572763 0.000000
0.391755 0.575464 0.000000
0.427603 0.578167 0.000000
0.463576 0.580872 0.000543
0.499675 0.583580 0.002669
0.535900 0.586289 0.004789
0.572250 0.589001 0.006903
0.608725 0.591715 0.009009
0.645326 0.594432 0.011109
0.682053 0.597150 0.013203
0.718905 0.599871 0.015290
0.755883 0.602593 0.017371
0.792986 0.605318 0.019445
0.830215 0.608045 0.021512
0.867569 0.610775 0.023573
0.905049 0.613506 0.025628
0.942654 0.616240 0.027675
0.980385 0.618976 0.029717
1.000000 0.621714 0.031751
1.000000 0.624454 0.033780
1.000000 0.627197 0.035801
1.000000 0.629941 0.037816
0.000000 0.580248 0.000000
0.010823 0.582944 0.000000
0.045422 0.585642 0.000000
0.080147 0.588342 0.000000
0.114997 0.591045 0.000000
0.149972 0.593749 0.000000
0.185073 0.596456 0.000000
0.220300 0.599165 0.000000
0.255652 0.601876 0.000000
0.291129 0.604589 0.000000
0.326732 0.607305 0.000000
0.362461 0.610023 0.000000
0.398315 0.612742 0.000465
0.434295 0.615464 0.002591
0.470400 0.618189 0.004711
0.506631 0.620915 0.006825
0.542987 0.623644 0.008932
0.579469 0.626374 0.011032
0.616076 0.629107 0.013126
0.652809 0.631842 0.015214
0.689668 0.634580 0.017294
0.726652 0.637319 0.019369
0.763761 0.640061 0.021436
0.800996 0.642805 0.023498
0.838357 0.645551 0.025552
0.875843 0.648299 0.027600
0.913454 0.651049 0.029642
0.951191 0.653802 0.031677
0.989054 0.656557 0.033705
1.000000 0.659314 0.035727
1.000000 0.662073 0.037742
1.000000 0.664834 0.039751
1.000000 0.667598 0.041753
0.000000 0.617366 0.000000
0.015968 0.620081 0.000000
0.050699 0.622798 0.000000
0.085555 0.625517 0.000000
0.120537 0.628238 0.000000
0.155644 0.630961 0.000000
0.190877 0.633687 0.000000
0.226235 0.636415 0.000000
0.261719 0.639145 0.000000
0.297328 0.641877 0.000000
0.333063 0.644611 0.000386
0.368924 0.647348 0.002513
0.404910 0.650087 0.004633
0.441021 0.652828 0.006747
0.477258 0.655571 0.008854
0.513621 0.658316 0.010955
0.550109 0.661064 0.013049
0.586722 0.663813 0.015137
0.623461 0.666565 0.017218
0.660326 0.669319 0.019292
0.697316 0.672075 0.021360
0.734432 0.674834 0.023422
0.771673 0.677594 0.025477
0.809040 0.680357 0.027525
0.846532 0.683122 0.029567
0.884150 0.685889 0.031602
0.921894 0.688658 0.033631
0.959762 0.691430 0.035653
0.997757 0.694203 0.037668
1.000000 0.696979 0.039677
1.000000 0.699757 0.041680
1.000000 0.702537 0.043676
1.000000 0.705320 0.045665
0.000000 0.654550 0.000000
0.021146 0.657283 0.000000
0.056009 0.660019 0.000000
0.090997 0.662757 0.000000
0.126110 0.665497 0.000000
0.161349 0.668239 0.000000
0.196714 0.670984 0.000000
0.232204 0.673731 0.000000
0.267820 0.676480 0.000308
0.303561 0.679231 0.002435
0.339427 0.681984 0.004556
0.375420 0.684739 0.006670
0.411537 0.687497 0.008777
0.447781 0.690257 0.010878
0.484150 0.693019 0.012972
0.520644 0.695783 0.015060
0.557264 0.698549 0.017142
0.594009 0.701318 0.019216
0.630880 0.704088 0.021284
0.667877 0.706861 0.023346
0.704999 0.709636 0.025401
0.742246 0.712414 0.027450
0.779619 0.715193 0.029492
0.817118 0.717975 0.031527
0.854742 0.720759 0.033556
0.892491 0.723545 0.035578
0.930367 0.726333 0.037594
0.968367 0.729123 0.039604
1.000000 0.731916 0.041606
1.000000 0.734710 0.043602
1.000000 0.737507 0.045592
1.000000 0.740306 0.047575
1.000000 0.743108 0.049552
0.000000 0.691799 0.000000
0.026358 0.694551 0.000000
0.061352 0.697306 0.000000
0.096472 0.700063 0.000000
0.131717 0.702822 0.000000
0.167088 0.705583 0.000000
0.202585 0.708347 0.000229
0.238207 0.711112 0.002357
0.273954 0.713880 0.004478
0.309827 0.716650 0.006592
0.345825 0.719422 0.008700
0.381949 0.722196 0.010801
0.418199 0.724973 0.012895
0.454574 0.727751 0.014984
0.491075 0.730532 0.017065
0.527701 0.733315 0.019140
0.564453 0.736101 0.021208
0.601330 0.738888 0.023270
0.638332 0.741678 0.025326
0.675461 0.744469 0.027374
0.712714 0.747263 0.029417
0.750094 0.750060 0.031452
0.787599 0.752858 0.033482
0.825229 0.755658 0.035504
0.862985 0.758461 0.037520
0.900866 0.761266 0.039530
0.938873 0.764073 0.041533
0.977006 0.766882 0.043529
1.000000 0.769694 0.045519
1.000000 0.772507 0.047502
1.000000 0.775323 0.049479
1.000000 0.778141 0.051449
1.000000 0.780961 0.053413
0.000000 0.729114 0.000000
0.031604 0.731885 0.000000
0.066730 0.734659 0.000000
0.101981 0.737435 0.000000
0.137358 0.740212 0.000151
0.172861 0.742993 0.002279
0.208489 0.745775 0.004400
0.244243 0.748559 0.006514
0.280122 0.751346 0.008622
0.316127 0.754135 0.010724
0.352257 0.756926 0.012819
0.388513 0.759719 0.014907
0.424894 0.762514 0.016989
0.461401 0.765312 0.019064
0.498033 0.768112 0.021132
0.534791 0.770914 0.023195
0.571675 0.773718 0.025250
0.608684 0.776524 0.027299
0.645818 0.779333 0.029342
0.683078 0.782143 0.031378
0.720464 0.784956 0.033407
0.757975 0.787771 0.035430
0.795612 0.790588 0.037446
0.833374 0.793408 0.039456
0.871261 0.796229 0.041459
0.909275 0.799053 0.043456
0.947413 0.801879 0.045446
0.985678 0.804707 0.047429
1.000000 0.807537 0.049406
1.000000 0.810370 0.051377
1.000000 0.813205 0.053341
1.000000 0.816041 0.055298
1.000000 0.818880 0.057249
0.001750 0.766495 0.000000
0.036883 0.769285 0.000000
0.072141 0.772077 0.000073
0.107524 0.774872 0.002201
0.143033 0.777669 0.004322
0.178667 0.780468 0.006437
0.214427 0.783269 0.008545
0.250313 0.786072 0.010646
0.286324 0.788878 0.012742
0.322460 0.791686 0.014830
0.358722 0.794495 0.016912
0.395110 0.797308 0.018988
0.431623 0.800122 0.021057
0.468262 0.802938 0.023119
0.505026 0.805757 0.025175
0.541916 0.808578 0.027224
0.578931 0.811401 0.029267
0.616072 0.814226 0.031303
0.653338 0.817053 0.033332
0.690730 0.819883 0.035356
0.728247 0.822715 0.037372
0.765890 0.825548 0.039382
0.803658 0.828385 0.041386
0.841552 0.831223 0.043382
0.879572 0.834063 0.045373
0.917717 0.836906 0.047357
0.955987 0.839751 0.049334
0.994383 0.842598 0.051304
1.000000 0.845447 0.053269
1.000000 0.848298 0.055226
1.000000 0.851152 0.057177
1.000000 0.854008 0.059122
1.000000 0.856866 0.061060
0.006931 0.803941 0.000000
0.042196 0.806750 0.002122
0.077585 0.809562 0.004244
0.113100 0.812375 0.006359
0.148741 0.815191 0.008467
0.184507 0.818009 0.010569
0.220399 0.820829 0.012665
0.256416 0.823651 0.014753
0.292559 0.826475 0.016836
0.328827 0.829302 0.018911
0.365221 0.832131 0.020981
0.401741 0.834962 0.023043
0.438386 0.837795 0.025099
0.475156 0.840630 0.027149
0.512052 0.843468 0.029192
0.549074 0.846307 0.031228
0.586221 0.849149 0.033258
0.623493 0.851993 0.035281
0.660891 0.854840 0.037298
0.698415 0.857688 0.039308
0.736064 0.860539 0.041312
0.773839 0.863391 0.043309
0.811739 0.866246 0.045300
0.849764 0.869104 0.047284
0.887916 0.871963 0.049261
0.926193 0.874824 0.051232
0.964595 0.877688 0.053196
1.000000 0.880554 0.055154
1.000000 0.883422 0.057106
1.000000 0.886292 0.059050
1.000000 0.889165 0.060989
1.000000 0.892039 0.062920
1.000000 0.894916 0.064845
0.012146 0.841453 0.004166
0.047542 0.844281 0.006281
0.083063 0.847112 0.008390
0.118710 0.849944 0.010492
0.154483 0.852779 0.012588
0.190381 0.855615 0.014677
0.226404 0.858454 0.016759
0.262554 0.861295 0.018835
0.298828 0.864139 0.020905
0.335228 0.866984 0.022967
0.371754 0.869832 0.025024
0.408405 0.872682 0.027073
0.445182 0.875534 0.029117
0.482084 0.878388 0.031153
0.519112 0.881244 0.033183
0.556265 0.884103 0.035207
0.593544 0.886964 0.037224
0.630948 0.889827 0.039234
0.668478 0.892692 0.041238
0.706133 0.895559 0.043236
0.743914 0.898429 0.045227
0.781821 0.901300 0.047211
0.819853 0.904174 0.049189
0.858010 0.907050 0.051160
0.896293 0.909928 0.053124
0.934702 0.912809 0.055082
0.973236 0.915691 0.057034
