luts/rivendell_sunrise.cube
# LUT size
LUT_3D_SIZE 5
0.055189 0.055189 0.055189
0.103941 0.370627 0.099430
0.147081 0.616885 0.138689
0.187771 0.829927 0.175762
0.226833 1.000000 0.211374
0.377651 0.080109 0.079605
0.406975 0.385346 0.122521
0.434092 0.625652 0.161021
0.460327 0.833547 0.197554
0.485959 1.000000 0.232749
0.637370 0.102563 0.101615
0.655023 0.399006 0.143608
0.671426 0.633809 0.181523
0.687363 0.836919 0.217623
0.702991 1.000000 0.252473
0.869660 0.123917 0.122553
0.877228 0.412264 0.163823
0.884274 0.641745 0.201251
0.891132 0.840202 0.236977
0.897868 1.000000 0.271524
1.000000 0.144518 0.142755
1.000000 0.425252 0.183429
1.000000 0.649536 0.220438
1.000000 0.843428 0.255834
1.000000 1.000000 0.290109
0.063910 0.063250 0.319434
0.112103 0.375328 0.347247
0.154944 0.619682 0.372944
0.195429 0.831082 0.397789
0.234335 1.000000 0.422048
0.382755 0.087863 0.334596
0.412038 0.390027 0.362273
0.439118 0.628445 0.387854
0.465321 0.834701 0.412594
0.490924 1.000000 0.436758
0.640436 0.110115 0.348657
0.658080 0.403669 0.376213
0.674475 0.636598 0.401691
0.690404 0.838072 0.426338
0.706024 1.000000 0.450416
0.870974 0.131318 0.362294
0.878540 0.416909 0.389737
0.885585 0.644530 0.415119
0.892442 0.841355 0.439679
0.899177 1.000000 0.463678
1.000000 0.151797 0.375645
1.000000 0.429881 0.402983
1.000000 0.652317 0.428273
1.000000 0.844580 0.452752
1.000000 1.000000 0.476674
0.071918 0.070660 0.539113
0.119649 0.379702 0.556838
0.162232 0.622287 0.573299
0.202535 0.832158 0.589283
0.241302 1.000000 0.604952
0.387505 0.095020 0.548763
0.416749 0.394383 0.566453
0.443797 0.631046 0.582883
0.469970 0.835776 0.598839
0.495545 1.000000 0.614480
0.643291 0.117102 0.557739
0.660927 0.408008 0.575397
0.677314 0.639196 0.591799
0.693236 0.839147 0.607729
0.708849 1.000000 0.623344
0.872197 0.138174 0.566467
0.879763 0.421233 0.584096
0.886806 0.647124 0.600471
0.893662 0.842429 0.616375
0.900396 1.000000 0.631966
1.000000 0.158546 0.575033
1.000000 0.434191 0.592633
1.000000 0.654907 0.608982
1.000000 0.845654 0.624861
1.000000 1.000000 0.640430
0.079625 0.077796 0.741054
0.126950 0.383958 0.750092
0.169297 0.624824 0.758504
0.209432 0.833205 0.766688
0.248068 1.000000 0.774725
0.392126 0.101935 0.745972
0.421333 0.398621 0.755004
0.448349 0.633579 0.763410
0.474493 0.836823 0.771588
0.500042 1.000000 0.779619
0.646072 0.123864 0.750552
0.663699 0.412231 0.759578
0.680079 0.641725 0.767978
0.695993 0.840194 0.776151
0.711600 1.000000 0.784177
0.873389 0.144816 0.755011
0.880954 0.425441 0.764031
0.887996 0.649649 0.772425
0.894851 0.843475 0.780593
0.901584 1.000000 0.788614
1.000000 0.165090 0.759391
1.000000 0.438384 0.768405
1.000000 0.657430 0.776795
1.000000 0.846700 0.784957
1.000000 1.000000 0.792973
0.087122 0.084741 0.931292
0.134083 0.388137 0.932350
0.176210 0.627317 0.933336
0.216187 0.834235 0.934296
0.254699 1.000000 0.935240
0.396663 0.108684 0.931867
0.425834 0.402783 0.932925
0.452819 0.636068 0.933911
0.478936 0.837853 0.934871
0.504459 1.000000 0.935815
0.648805 0.130472 0.932404
0.666424 0.416377 0.933462
0.682796 0.644210 0.934447
0.698703 0.841223 0.935407
0.714303 1.000000 0.936351
0.874561 0.151313 0.932926
0.882124 0.429573 0.933984
0.889165 0.652132 0.934970
0.896019 0.844504 0.935930
0.902751 1.000000 0.936873
1.000000 0.171496 0.933440
1.000000 0.442503 0.934498
1.000000 0.659909 0.935483
1.000000 0.847728 0.936443
1.000000 1.000000 0.937387
