luts/rivendell_sunrise.cube
# LUT size
LUT_3D_SIZE 9
0.055189 0.055189 0.055189
0.080843 0.228348 0.078444
0.103941 0.370627 0.099430
0.125901 0.498787 0.119407
0.147081 0.616885 0.138689
0.167666 0.726878 0.157440
0.187771 0.829927 0.175762
0.207475 0.926806 0.193723
0.226833 1.000000 0.211374
0.230996 0.068216 0.067951
0.250041 0.237930 0.090761
0.267644 0.378254 0.111450
0.284668 0.504790 0.131198
0.301296 0.621425 0.150295
0.317616 0.730051 0.168890
0.333681 0.831801 0.187077
0.349527 0.927429 0.204921
0.365182 1.000000 0.222467
0.377651 0.080109 0.079605
0.392860 0.246820 0.102074
0.406975 0.385346 0.122521
0.420673 0.510378 0.142080
0.434092 0.625652 0.161021
0.447297 0.733007 0.179483
0.460327 0.833547 0.197554
0.473208 0.928010 0.215295
0.485959 1.000000 0.232749
0.511787 0.091508 0.090778
0.523806 0.255446 0.112961
0.534979 0.392241 0.133201
0.545838 0.515814 0.152593
0.556491 0.629767 0.171393
0.566988 0.735886 0.189735
0.577358 0.835248 0.207701
0.587621 0.928576 0.225347
0.597792 1.000000 0.242717
0.637370 0.102563 0.101615
0.646514 0.263895 0.123552
0.655023 0.399006 0.143608
0.663300 0.521152 0.162850
0.671426 0.633809 0.181523
0.679440 0.738714 0.199755
0.687363 0.836919 0.217623
0.695210 0.929132 0.235182
0.702991 1.000000 0.252473
0.756290 0.113350 0.112191
0.762754 0.272209 0.133912
0.768773 0.405675 0.153803
0.774631 0.526418 0.172908
0.780385 0.637798 0.191465
0.786063 0.741506 0.209594
0.791679 0.838569 0.227371
0.797244 0.929681 0.244849
0.802765 1.000000 0.262066
0.869660 0.123917 0.122553
0.873579 0.280412 0.144081
0.877228 0.412264 0.163823
0.880782 0.531625 0.182803
0.884274 0.641745 0.201251
0.887721 0.744269 0.219285
0.891132 0.840202 0.236977
0.894513 0.930224 0.254377
0.897868 1.000000 0.271524
0.978216 0.134298 0.132733
0.979688 0.288521 0.154086
0.981059 0.418787 0.173692
0.982395 0.536783 0.192556
0.983707 0.645655 0.210903
0.985003 0.747007 0.228848
0.986286 0.841821 0.246459
0.987558 0.930763 0.263787
0.988821 1.000000 0.280867
1.000000 0.144518 0.142755
1.000000 0.296546 0.163950
1.000000 0.425252 0.183429
1.000000 0.541898 0.202185
1.000000 0.649536 0.220438
1.000000 0.749725 0.238299
1.000000 0.843428 0.255834
1.000000 0.931298 0.273093
1.000000 1.000000 0.290109
0.059721 0.059377 0.197973
0.085193 0.231408 0.215720
0.108174 0.373061 0.232113
0.130047 0.500702 0.247959
0.151157 0.618333 0.263429
0.171684 0.727890 0.278606
0.191739 0.830525 0.293541
0.211400 0.927005 0.308269
0.230720 1.000000 0.322814
0.234312 0.072310 0.207648
0.253328 0.240976 0.225305
0.270906 0.380683 0.241622
0.287908 0.506703 0.257401
0.304516 0.622872 0.272809
0.320817 0.731063 0.287929
0.336864 0.832399 0.302811
0.352695 0.927628 0.317489
0.368334 1.000000 0.331988
0.380294 0.084133 0.216619
0.395492 0.249854 0.234197
0.409597 0.387770 0.250447
0.423285 0.512288 0.266164
0.436694 0.627098 0.281517
0.449891 0.734019 0.296586
0.462913 0.834145 0.311421
0.475786 0.928209 0.326054
0.488530 1.000000 0.340512
0.513874 0.095474 0.225319
0.525888 0.258469 0.242824
0.537056 0.394660 0.259010
0.547910 0.517722 0.274671
0.558559 0.631212 0.289972
0.569051 0.736896 0.304992
0.579417 0.835845 0.319782
0.589677 0.928774 0.334374
0.599843 1.000000 0.348792
0.638957 0.106480 0.233835
0.648099 0.266907 0.251271
0.656606 0.401421 0.267399
0.664880 0.523058 0.283006
0.673005 0.635253 0.298257
0.681016 0.739725 0.313232
0.688937 0.837516 0.327979
0.696782 0.929330 0.342531
0.704561 1.000000 0.356911
0.757411 0.117224 0.242211
0.763875 0.275211 0.259582
0.769892 0.408084 0.275653
0.775749 0.528322 0.291209
0.781503 0.639241 0.306414
0.787180 0.742516 0.321345
0.792795 0.839166 0.336051
0.798359 0.929879 0.350565
0.803879 1.000000 0.364909
0.870340 0.127754 0.250472
0.874258 0.283404 0.267780
0.877908 0.414669 0.283798
0.881461 0.533526 0.299305
0.884953 0.643186 0.314465
0.888399 0.745278 0.329354
0.891810 0.840799 0.344021
0.895191 0.930423 0.358498
0.898546 1.000000 0.372807
0.978472 0.138102 0.258634
0.979943 0.291503 0.275883
0.981314 0.421188 0.291849
0.982650 0.538682 0.307310
0.983962 0.647096 0.322426
0.985258 0.748017 0.337275
0.986541 0.842418 0.351905
0.987813 0.930962 0.366346
0.989076 1.000000 0.380621
1.000000 0.148291 0.266709
1.000000 0.299519 0.283901
1.000000 0.427649 0.299818
1.000000 0.543796 0.315234
1.000000 0.650975 0.330309
1.000000 0.750734 0.345119
1.000000 0.844025 0.359712
1.000000 0.931497 0.374119
1.000000 1.000000 0.388362
0.063910 0.063250 0.319434
0.089225 0.234256 0.333863
0.112103 0.375328 0.347247
0.133897 0.502486 0.360231
0.154944 0.619682 0.372944
0.175419 0.728833 0.385452
0.195429 0.831082 0.397789
0.215050 0.927190 0.409982
0.234335 1.000000 0.422048
0.237397 0.076102 0.327292
0.256386 0.243811 0.341683
0.273942 0.382944 0.355034
0.290924 0.508485 0.367986
0.307513 0.624220 0.380670
0.323797 0.732006 0.393149
0.339828 0.832956 0.405460
0.355644 0.927813 0.417628
0.371269 1.000000 0.429669
0.382755 0.087863 0.334596
0.397943 0.252677 0.348953
0.412038 0.390027 0.362273
0.425717 0.514067 0.375196
0.439118 0.628445 0.387854
0.452307 0.734961 0.400308
0.465321 0.834701 0.412594
0.478187 0.928394 0.424739
0.490924 1.000000 0.436758
0.515818 0.099153 0.341694
0.527827 0.261282 0.356018
0.538991 0.396912 0.369309
0.549841 0.519499 0.382206
0.560485 0.632558 0.394838
0.570973 0.737838 0.407267
0.581336 0.836401 0.419531
0.591592 0.928959 0.431653
0.601754 1.000000 0.443651
0.640436 0.110115 0.348657
0.649576 0.269710 0.362950
0.658080 0.403669 0.376213
0.666353 0.524834 0.389083
0.674475 0.636598 0.401691
0.682485 0.740666 0.414097
0.690404 0.838072 0.426338
0.698247 0.929515 0.438439
0.706024 1.000000 0.450416
0.758457 0.120822 0.355517
0.764919 0.278004 0.369779
0.770936 0.410328 0.383016
0.776792 0.530095 0.395861
0.782545 0.640585 0.408445
0.788220 0.743457 0.420828
0.793835 0.839722 0.433048
0.799398 0.930064 0.445128
0.804918 1.000000 0.457086
0.870974 0.131318 0.362294
0.874891 0.286188 0.376527
0.878540 0.416909 0.389737
0.882093 0.535298 0.402558
0.885585 0.644530 0.415119
0.889031 0.746219 0.427480
0.892442 0.841355 0.439679
0.895822 0.930608 0.451739
0.899177 1.000000 0.463678
0.978710 0.141636 0.369000
0.980181 0.294279 0.383205
0.981552 0.423424 0.396390
0.982888 0.540452 0.409187
0.984200 0.648439 0.421725
0.985496 0.748957 0.434066
0.986779 0.842974 0.446244
0.988051 0.931147 0.458285
0.989314 1.000000 0.470204
1.000000 0.151797 0.375645
1.000000 0.302287 0.389823
1.000000 0.429881 0.402983
1.000000 0.545564 0.415757
1.000000 0.652317 0.428273
1.000000 0.751674 0.440593
1.000000 0.844580 0.452752
1.000000 0.931682 0.464773
1.000000 1.000000 0.476674
0.067961 0.066998 0.432138
0.093133 0.237026 0.443805
0.115915 0.377534 0.454646
0.137636 0.504223 0.465180
0.158624 0.620996 0.475510
0.179048 0.729752 0.485687
0.199016 0.831624 0.495738
0.218599 0.927371 0.505683
0.237851 1.000000 0.515535
0.240398 0.079776 0.438489
0.259362 0.246569 0.450137
0.276896 0.385146 0.460962
0.293859 0.510220 0.471480
0.310430 0.625532 0.481795
0.326697 0.732924 0.491956
0.342713 0.833498 0.501993
0.358514 0.927994 0.511924
0.374125 1.000000 0.521764
0.385151 0.091480 0.444398
0.400328 0.255425 0.456029
0.414414 0.392224 0.466839
0.428085 0.515800 0.477342
0.441478 0.629756 0.487643
0.454659 0.735878 0.497791
0.467666 0.835243 0.507815
0.480525 0.928574 0.517733
0.493254 1.000000 0.527560
0.517711 0.102723 0.450146
0.529715 0.264019 0.461761
0.540875 0.399105 0.472555
0.551721 0.521230 0.483045
0.562361 0.633868 0.493332
0.572845 0.738756 0.503467
0.583204 0.836943 0.513479
0.593456 0.929140 0.523385
0.603615 1.000000 0.533201
0.641876 0.113645 0.455789
0.651014 0.272438 0.467388
0.659516 0.405858 0.478168
0.667787 0.526562 0.488644
0.675907 0.637908 0.498919
0.683915 0.741583 0.509041
0.691832 0.838614 0.519041
0.699673 0.929696 0.528935
0.707449 1.000000 0.538739
0.759475 0.124316 0.461354
0.765936 0.280723 0.472937
0.771952 0.412513 0.483704
0.777807 0.531822 0.494166
0.783559 0.641894 0.504428
0.789234 0.744374 0.514538
0.794848 0.840264 0.524526
0.800410 0.930245 0.534409
0.805929 1.000000 0.544202
0.871591 0.134780 0.466855
0.875508 0.288898 0.478424
0.879157 0.419090 0.489177
0.882710 0.537023 0.499626
0.886201 0.645838 0.509876
0.889647 0.747135 0.519974
0.893057 0.841896 0.529950
0.896437 0.930788 0.539822
0.899792 1.000000 0.549604
0.978941 0.145069 0.472304
0.980413 0.296980 0.483858
0.981784 0.425601 0.494597
0.983119 0.542175 0.505034
0.984432 0.649746 0.515271
0.985728 0.749873 0.525358
0.987011 0.843515 0.535323
0.988282 0.931327 0.545184
0.989545 1.000000 0.554955
1.000000 0.155205 0.477707
1.000000 0.304980 0.489246
1.000000 0.432055 0.499972
1.000000 0.547285 0.510397
1.000000 0.653623 0.520623
1.000000 0.752589 0.530698
1.000000 0.845122 0.540651
1.000000 0.931862 0.550502
1.000000 1.000000 0.560263
0.071918 0.070660 0.539113
0.096957 0.239746 0.548296
0.119649 0.379702 0.556838
0.141301 0.505931 0.565145
0.162232 0.622287 0.573299
0.182609 0.730655 0.581337
0.202535 0.832158 0.589283
0.222082 0.927548 0.597151
0.241302 1.000000 0.604952
0.243345 0.083369 0.544111
0.262284 0.249277 0.553284
0.279797 0.387309 0.561817
0.296740 0.511925 0.570116
0.313294 0.626823 0.578262
0.329545 0.733826 0.586293
0.345546 0.834031 0.594232
0.361333 0.928171 0.602093
0.376931 1.000000 0.609886
0.387505 0.095020 0.548763
0.402672 0.258122 0.557928
0.416749 0.394383 0.566453
0.430411 0.517503 0.574745
0.443797 0.631046 0.582883
0.456970 0.736781 0.590907
0.469970 0.835776 0.598839
0.482822 0.928752 0.606693
0.495545 1.000000 0.614480
0.519572 0.106219 0.553291
0.531571 0.266706 0.562448
0.542726 0.401260 0.570965
0.553568 0.522931 0.579249
0.564204 0.635157 0.587381
0.574685 0.739657 0.595398
0.585040 0.837476 0.603323
0.595288 0.929317 0.611171
0.605444 1.000000 0.618952
0.643291 0.117102 0.557739
0.652427 0.275116 0.566887
0.660927 0.408008 0.575397
0.669196 0.528262 0.583675
0.677314 0.639196 0.591799
0.685320 0.742484 0.599810
0.693236 0.839147 0.607729
0.701075 0.929873 0.615570
0.708849 1.000000 0.623344
0.760475 0.127739 0.562126
0.766936 0.283392 0.571267
0.772951 0.414660 0.579770
0.778805 0.533519 0.588040
0.784556 0.643181 0.596159
0.790231 0.745275 0.604163
0.795843 0.840796 0.612075
0.801405 0.930422 0.619910
0.806923 1.000000 0.627679
0.872197 0.138174 0.566467
0.876114 0.291559 0.575599
0.879763 0.421233 0.584096
0.883315 0.538718 0.592359
0.886806 0.647124 0.600471
0.890252 0.748036 0.608468
0.893662 0.842429 0.616375
0.897042 0.930965 0.624204
0.900396 1.000000 0.631966
0.979169 0.148435 0.570767
0.980641 0.299633 0.579892
0.982012 0.427741 0.588381
0.983347 0.543869 0.596638
0.984659 0.651031 0.604743
0.985955 0.750773 0.612735
0.987238 0.844048 0.620635
0.988510 0.931504 0.628458
0.989773 1.000000 0.636215
1.000000 0.158546 0.575033
1.000000 0.307625 0.584151
1.000000 0.434191 0.592633
1.000000 0.548977 0.600883
1.000000 0.654907 0.608982
1.000000 0.753489 0.616967
1.000000 0.845654 0.624861
1.000000 0.932039 0.632679
1.000000 1.000000 0.640430
0.075802 0.074255 0.641804
0.100717 0.242429 0.648675
0.123324 0.381842 0.655071
0.144909 0.507616 0.661294
0.165786 0.623562 0.667407
0.186117 0.731546 0.673437
0.206004 0.832684 0.679400
0.225516 0.927723 0.685308
0.244705 1.000000 0.691168
0.246250 0.086901 0.645542
0.265166 0.251948 0.652409
0.282658 0.389444 0.658801
0.299583 0.513608 0.665021
0.316120 0.628097 0.671130
0.332355 0.734717 0.677156
0.348341 0.834557 0.683116
0.364114 0.928346 0.689020
0.379699 1.000000 0.694877
0.389828 0.098502 0.649024
0.404985 0.260783 0.655887
0.419053 0.396513 0.662275
0.432707 0.519184 0.668492
0.446085 0.632319 0.674597
0.459251 0.737671 0.680619
0.472244 0.836303 0.686576
0.485089 0.928927 0.692477
0.497805 1.000000 0.698330
0.521408 0.109659 0.652414
0.533403 0.269358 0.659273
0.544553 0.403386 0.665658
0.555391 0.524610 0.671870
0.566024 0.636429 0.677972
0.576501 0.740548 0.683992
0.586852 0.838002 0.689945
0.597097 0.929492 0.695843
0.607250 1.000000 0.701693
0.644689 0.120506 0.655745
0.653822 0.277758 0.662600
0.662320 0.410131 0.668981
0.670587 0.529939 0.675191
0.678704 0.640467 0.681289
0.686708 0.743374 0.687305
0.694622 0.839673 0.693255
0.702459 0.930048 0.699150
0.710232 1.000000 0.704997
0.761463 0.131110 0.659033
0.767923 0.286026 0.665884
0.773937 0.416779 0.672261
0.779791 0.535194 0.678467
0.785541 0.644451 0.684563
0.791214 0.746164 0.690575
0.796827 0.841322 0.696522
0.802388 0.930597 0.702414
0.807905 1.000000 0.708258
0.872796 0.141516 0.662285
0.876713 0.294184 0.669133
0.880361 0.423348 0.675507
0.883913 0.540392 0.681709
0.887404 0.648393 0.687801
0.890850 0.748925 0.693811
0.894259 0.842955 0.699755
0.897639 0.931140 0.705644
0.900993 1.000000 0.711485
0.979394 0.151751 0.665509
0.980865 0.302250 0.672353
0.982236 0.429852 0.678723
0.983572 0.545541 0.684923
0.984884 0.652299 0.691012
0.986180 0.751662 0.697018
0.987463 0.844573 0.702959
0.988735 0.931679 0.708845
0.989997 1.000000 0.714683
1.000000 0.161838 0.668708
1.000000 0.310235 0.675548
1.000000 0.436299 0.681915
1.000000 0.550647 0.688111
1.000000 0.656175 0.694197
1.000000 0.754378 0.700201
1.000000 0.846180 0.706139
1.000000 0.932214 0.712021
1.000000 1.000000 0.717857
0.079625 0.077796 0.741054
0.104424 0.245081 0.745734
0.126950 0.383958 0.750092
0.148472 0.509284 0.754335
0.169297 0.624824 0.758504
0.189583 0.732428 0.762618
0.209432 0.833205 0.766688
0.228910 0.927896 0.770722
0.248068 1.000000 0.774725
0.249123 0.090381 0.743600
0.268015 0.254589 0.748279
0.285487 0.391556 0.752635
0.302394 0.515273 0.756877
0.318914 0.629358 0.761044
0.335134 0.735599 0.765156
0.351106 0.835078 0.769225
0.366865 0.928519 0.773258
0.382438 1.000000 0.777259
0.392126 0.101935 0.745972
0.407274 0.263414 0.750649
0.421333 0.398621 0.755004
0.434979 0.520848 0.759244
0.448349 0.633579 0.763410
0.461508 0.738553 0.767521
0.474493 0.836823 0.771588
0.487332 0.929100 0.775619
0.500042 1.000000 0.779619
0.523225 0.113052 0.748282
0.535215 0.271979 0.752957
0.546362 0.405490 0.757311
0.557196 0.526272 0.761549
0.567824 0.637688 0.765714
0.578298 0.741429 0.769823
0.588646 0.838523 0.773889
0.598887 0.929665 0.777919
0.609037 1.000000 0.781918
0.646072 0.123864 0.750552
0.655203 0.280371 0.755226
0.663699 0.412231 0.759578
0.671964 0.531599 0.763815
0.680079 0.641725 0.767978
0.688081 0.744255 0.772086
0.695993 0.840194 0.776151
0.703829 0.930221 0.780179
0.711600 1.000000 0.784177
0.762441 0.134438 0.752793
0.768900 0.288630 0.757465
0.774913 0.418875 0.761816
0.780766 0.536852 0.766051
0.786516 0.645708 0.770213
0.792188 0.747045 0.774320
0.797800 0.841843 0.778383
0.803360 0.930770 0.782411
0.808876 1.000000 0.786407
0.873389 0.144816 0.755011
0.877306 0.296781 0.759681
0.880954 0.425441 0.764031
0.884506 0.542048 0.768265
0.887996 0.649649 0.772425
0.891441 0.749805 0.776531
0.894851 0.843475 0.780593
0.898230 0.931314 0.784619
0.901584 1.000000 0.788614
0.979617 0.155026 0.757209
0.981088 0.304839 0.761878
0.982459 0.431941 0.766226
0.983794 0.547195 0.770459
0.985107 0.653555 0.774618
0.986403 0.752541 0.778722
0.987685 0.845094 0.782783
0.988957 0.931853 0.786808
0.990220 1.000000 0.790802
1.000000 0.165090 0.759391
1.000000 0.312816 0.764059
1.000000 0.438384 0.768405
1.000000 0.552300 0.772637
1.000000 0.657430 0.776795
1.000000 0.755257 0.780898
1.000000 0.846700 0.784957
1.000000 0.932388 0.788981
1.000000 1.000000 0.792973
0.083396 0.081289 0.837420
0.108086 0.247708 0.839999
0.130535 0.386056 0.842401
0.151995 0.510937 0.844740
0.172770 0.626075 0.847039
0.193014 0.733303 0.849309
0.212824 0.833722 0.851555
0.232269 0.928068 0.853782
0.251398 1.000000 0.855992
0.251968 0.093818 0.838823
0.270837 0.257205 0.841401
0.288290 0.393649 0.843803
0.305179 0.516924 0.846142
0.321683 0.630608 0.848440
0.337888 0.736474 0.850710
0.353845 0.835595 0.852955
0.369591 0.928691 0.855182
0.385151 1.000000 0.857392
0.394403 0.105328 0.840130
0.409541 0.266020 0.842708
0.423592 0.400710 0.845109
0.437231 0.522497 0.847447
0.450593 0.634828 0.849746
0.463744 0.739427 0.852015
0.476723 0.837340 0.854260
0.489555 0.929272 0.856486
0.502259 1.000000 0.858696
0.525027 0.116406 0.841403
0.537012 0.274577 0.843980
0.548155 0.407575 0.846381
0.558985 0.527919 0.848719
0.569610 0.638936 0.851017
0.580079 0.742303 0.853286
0.590424 0.839039 0.855531
0.600662 0.929837 0.857756
0.610808 1.000000 0.859966
0.647443 0.127185 0.842654
0.656572 0.282960 0.845231
0.665067 0.414312 0.847632
0.673330 0.533244 0.849969
0.681443 0.642972 0.852267
0.689443 0.745128 0.854535
0.697353 0.840710 0.856780
0.705188 0.930393 0.859005
0.712957 1.000000 0.861214
0.763411 0.137729 0.843890
0.769869 0.291210 0.846466
0.775881 0.420952 0.848866
0.781733 0.538496 0.851204
0.787482 0.646955 0.853501
0.793154 0.747918 0.855769
0.798764 0.842359 0.858013
0.804324 0.930942 0.860238
0.809840 1.000000 0.862446
0.873977 0.148080 0.845113
0.877893 0.299353 0.847689
0.881541 0.427515 0.850088
0.885093 0.543690 0.852425
0.888583 0.650895 0.854722
0.892028 0.750678 0.856990
0.895437 0.843991 0.859234
0.898816 0.931486 0.861458
0.902170 1.000000 0.863666
0.979838 0.158266 0.846325
0.981309 0.307403 0.848901
0.982680 0.434012 0.851300
0.984015 0.548835 0.853637
0.985328 0.654800 0.855933
0.986623 0.753414 0.858200
0.987906 0.845610 0.860444
0.989178 0.932024 0.862668
0.990440 1.000000 0.864876
1.000000 0.168308 0.847529
1.000000 0.315373 0.850104
1.000000 0.440451 0.852503
1.000000 0.553938 0.854839
1.000000 0.658674 0.857135
1.000000 0.756129 0.859402
1.000000 0.847216 0.861645
1.000000 0.932559 0.863869
1.000000 1.000000 0.866077
0.087122 0.084741 0.931292
0.111708 0.250314 0.931840
0.134083 0.388137 0.932350
0.155485 0.512578 0.932847
0.176210 0.627317 0.933336
0.196413 0.734172 0.933818
0.216187 0.834235 0.934296
0.235600 0.928239 0.934770
0.254699 1.000000 0.935240
0.254790 0.097217 0.931590
0.273636 0.259800 0.932137
0.291070 0.395726 0.932648
0.307941 0.518563 0.933145
0.324429 0.631848 0.933634
0.340619 0.737342 0.934116
0.356563 0.836108 0.934594
0.372296 0.928862 0.935067
0.387843 1.000000 0.935538
0.396663 0.108684 0.931867
0.411792 0.268605 0.932415
0.425834 0.402783 0.932925
0.439465 0.524134 0.933422
0.452819 0.636068 0.933911
0.465964 0.740295 0.934394
0.478936 0.837853 0.934871
0.491761 0.929442 0.935345
0.504459 1.000000 0.935815
0.526815 0.119726 0.932138
0.538796 0.277152 0.932685
0.549934 0.409644 0.933196
0.560760 0.529554 0.933693
0.571381 0.640175 0.934182
0.581848 0.743170 0.934664
0.592189 0.839552 0.935142
0.602423 0.930008 0.935615
0.612566 1.000000 0.936086
0.648805 0.130472 0.932404
0.657931 0.285527 0.932951
0.666424 0.416377 0.933462
0.674685 0.534877 0.933959
0.682796 0.644210 0.934447
0.690795 0.745995 0.934930
0.698703 0.841223 0.935407
0.706536 0.930564 0.935881
0.714303 1.000000 0.936351
0.764374 0.140988 0.932666
0.770831 0.293770 0.933214
0.776842 0.423014 0.933724
0.782693 0.540127 0.934221
0.788441 0.648192 0.934710
0.794112 0.748784 0.935192
0.799722 0.842872 0.935670
0.805281 0.931113 0.936143
0.810796 1.000000 0.936614
0.874561 0.151313 0.932926
0.878477 0.301904 0.933474
0.882124 0.429573 0.933984
0.885675 0.545319 0.934481
0.889165 0.652132 0.934970
0.892610 0.751544 0.935452
0.896019 0.844504 0.935930
0.899398 0.931656 0.936403
0.902751 1.000000 0.936873
0.980057 0.161476 0.933184
0.981528 0.309947 0.933731
0.982899 0.436066 0.934242
0.984234 0.550463 0.934739
0.985547 0.656035 0.935227
0.986842 0.754280 0.935710
0.988125 0.846122 0.936187
0.989397 0.932195 0.936661
0.990659 1.000000 0.937131
1.000000 0.171496 0.933440
1.000000 0.317910 0.933987
1.000000 0.442503 0.934498
1.000000 0.555564 0.934995
1.000000 0.659909 0.935483
1.000000 0.756995 0.935966
1.000000 0.847728 0.936443
1.000000 0.932730 0.936917
1.000000 1.000000 0.937387
