luts/rivendell_sunrise.cube
# LUT size
LUT_3D_SIZE 33
0.055189 0.055189 0.055189
0.062173 0.105036 0.061512
0.068603 0.148703 0.067339
0.074803 0.189515 0.072962
0.080843 0.228348 0.078444
0.086758 0.265646 0.083815
0.092571 0.301679 0.089095
0.098295 0.336629 0.094297
0.103941 0.370627 0.099430
0.109519 0.403772 0.104502
0.115035 0.436140 0.109520
0.120494 0.467795 0.114486
0.125901 0.498787 0.119407
0.131260 0.529158 0.124285
0.136575 0.558945 0.129123
0.141847 0.588178 0.133923
0.147081 0.616885 0.138689
0.152278 0.645088 0.143422
0.157440 0.672810 0.148124
0.162568 0.700067 0.152796
0.167666 0.726878 0.157440
0.172734 0.753256 0.162058
0.177773 0.779216 0.166650
0.182785 0.804769 0.171218
0.187771 0.829927 0.175762
0.192732 0.854701 0.180284
0.197669 0.879100 0.184784
0.202583 0.903132 0.189263
0.207475 0.926806 0.193723
0.212345 0.950130 0.198163
0.217194 0.973110 0.202584
0.222023 0.995753 0.206988
0.226833 1.000000 0.211374
0.105537 0.058710 0.058638
0.111804 0.108191 0.064920
0.117610 0.151623 0.070714
0.123234 0.192248 0.076308
0.128737 0.230920 0.081764
0.134144 0.268072 0.087111
0.139474 0.303971 0.092369
0.144737 0.338794 0.097551
0.149942 0.372672 0.102666
0.155094 0.405702 0.107721
0.160199 0.437961 0.112721
0.165260 0.469508 0.117672
0.170281 0.500396 0.122578
0.175265 0.530666 0.127442
0.180215 0.560354 0.132267
0.185132 0.589490 0.137055
0.190018 0.618102 0.141809
0.194874 0.646212 0.146531
0.199704 0.673841 0.151221
0.204507 0.701007 0.155883
0.209284 0.727728 0.160517
0.214038 0.754018 0.165125
0.218769 0.779890 0.169707
0.223478 0.805357 0.174266
0.228166 0.830430 0.178801
0.232833 0.855118 0.183315
0.237481 0.879433 0.187807
0.242109 0.903382 0.192278
0.246719 0.926973 0.196730
0.251312 0.950215 0.201163
0.255887 0.973113 0.205577
0.260446 0.995676 0.209973
0.264988 1.000000 0.214352
0.149806 0.061971 0.061832
0.155613 0.111121 0.068079
0.161003 0.154339 0.073844
0.166234 0.194791 0.079412
0.171359 0.233313 0.084844
0.176404 0.270331 0.090171
0.181382 0.306104 0.095409
0.186303 0.340811 0.100573
0.191175 0.374577 0.105671
0.196003 0.407501 0.110710
0.200791 0.439656 0.115696
0.205543 0.471104 0.120633
0.210261 0.501896 0.125526
0.214948 0.532071 0.130377
0.219605 0.561667 0.135190
0.224235 0.590713 0.139967
0.228839 0.619235 0.144710
0.233418 0.647258 0.149421
0.237974 0.674801 0.154101
0.242508 0.701883 0.158754
0.247020 0.728521 0.163378
0.251513 0.754728 0.167977
0.255985 0.780519 0.172551
0.260439 0.805905 0.177101
0.264874 0.830898 0.181629
0.269292 0.855507 0.186134
0.273694 0.879743 0.190619
0.278079 0.903614 0.195083
0.282448 0.927129 0.199528
0.286802 0.950294 0.203954
0.291141 0.973117 0.208361
0.295466 0.995603 0.212751
0.299777 1.000000 0.217124
0.191335 0.065128 0.064925
0.196773 0.113968 0.071141
0.201826 0.156979 0.076879
0.206735 0.197265 0.082423
0.211548 0.235642 0.087833
0.216289 0.272529 0.093140
0.220971 0.308181 0.098360
0.225604 0.342773 0.103507
0.230192 0.376432 0.108589
0.234742 0.409251 0.113613
0.239258 0.441307 0.118585
0.243741 0.472658 0.123509
0.248194 0.503355 0.128389
0.252621 0.533439 0.133229
0.257022 0.562945 0.138030
0.261398 0.591903 0.142796
0.265752 0.620339 0.147529
0.270085 0.648277 0.152230
0.274397 0.675737 0.156901
0.278690 0.702737 0.161544
0.282964 0.729293 0.166160
0.287221 0.755420 0.170751
0.291460 0.781131 0.175316
0.295683 0.806438 0.179859
0.299890 0.831353 0.184379
0.304082 0.855886 0.188877
0.308259 0.880046 0.193354
0.312421 0.903841 0.197811
0.316570 0.927280 0.202249
0.320705 0.950371 0.206668
0.324828 0.973120 0.211069
0.328937 0.995533 0.215453
0.333035 1.000000 0.219820
0.230996 0.068216 0.067951
0.236116 0.116758 0.074136
0.240875 0.159571 0.079849
0.245502 0.199694 0.085371
0.250041 0.237930 0.090761
0.254514 0.274688 0.096049
0.258934 0.310221 0.101252
0.263308 0.344702 0.106383
0.267644 0.378254 0.111450
0.271944 0.410972 0.116460
0.276213 0.442929 0.121418
0.280454 0.474186 0.126330
0.284668 0.504790 0.131198
0.288858 0.534784 0.136026
0.293025 0.564202 0.140817
0.297171 0.593073 0.145572
0.301296 0.621425 0.150295
0.305402 0.649279 0.154986
0.309491 0.676657 0.159649
0.313562 0.703575 0.164283
0.317616 0.730051 0.168890
0.321654 0.756099 0.173472
0.325678 0.781732 0.178030
0.329686 0.806963 0.182565
0.333681 0.831801 0.187077
0.337662 0.856258 0.191568
0.341629 0.880343 0.196039
0.345584 0.904064 0.200489
0.349527 0.927429 0.204921
0.353458 0.950447 0.209333
0.357377 0.973122 0.213728
0.361285 0.995464 0.218106
0.365182 1.000000 0.222467
0.269231 0.071250 0.070923
0.274064 0.119507 0.077081
0.278558 0.162125 0.082770
0.282928 0.202089 0.088271
0.287218 0.240186 0.093642
0.291446 0.276818 0.098912
0.295626 0.312234 0.104098
0.299764 0.346605 0.109214
0.303867 0.380053 0.114266
0.307937 0.412670 0.119263
0.311980 0.444531 0.124208
0.315996 0.475693 0.129108
0.319988 0.506207 0.133965
0.323958 0.536111 0.138782
0.327908 0.565442 0.143562
0.331838 0.594228 0.148307
0.335750 0.622496 0.153021
0.339645 0.650268 0.157703
0.343524 0.677565 0.162356
0.347386 0.704403 0.166982
0.351234 0.730801 0.171581
0.355068 0.756771 0.176155
0.358888 0.782327 0.180706
0.362695 0.807481 0.185233
0.366489 0.832244 0.189738
0.370271 0.856626 0.194222
0.374041 0.880637 0.198686
0.377799 0.904284 0.203130
0.381547 0.927577 0.207555
0.385283 0.950521 0.211961
0.389009 0.973125 0.216350
0.392726 0.995395 0.220722
0.396432 1.000000 0.225077
0.306308 0.074240 0.073853
0.310874 0.122221 0.079984
0.315123 0.164649 0.085651
0.319256 0.204457 0.091131
0.323314 0.242417 0.096484
0.327315 0.278925 0.101737
0.331271 0.314226 0.106908
0.335188 0.348488 0.112008
0.339073 0.381832 0.117047
0.342928 0.414350 0.122031
0.346757 0.446115 0.126964
0.350563 0.477185 0.131852
0.354346 0.507609 0.136697
0.358110 0.537425 0.141504
0.361854 0.566670 0.146274
0.365581 0.595372 0.151010
0.369291 0.623557 0.155714
0.372986 0.651247 0.160387
0.376666 0.678463 0.165032
0.380331 0.705223 0.169649
0.383983 0.731542 0.174241
0.387622 0.757435 0.178807
0.391249 0.782915 0.183350
0.394863 0.807993 0.187870
0.398466 0.832682 0.192368
0.402058 0.856990 0.196845
0.405639 0.880927 0.201302
0.409210 0.904502 0.205740
0.412771 0.927722 0.210159
0.416322 0.950595 0.214559
0.419864 0.973128 0.218942
0.423396 0.995327 0.223309
0.426920 1.000000 0.227658
0.342404 0.077191 0.076745
0.346722 0.124906 0.082851
0.350741 0.167148 0.088497
0.354650 0.206803 0.093958
0.358490 0.244627 0.099293
0.362276 0.281012 0.104530
0.366020 0.316200 0.109686
0.369729 0.350354 0.114772
0.373407 0.383596 0.119798
0.377058 0.416016 0.124768
0.380685 0.447686 0.129690
0.384290 0.478664 0.134566
0.387875 0.508998 0.139401
0.391442 0.538728 0.144198
0.394991 0.567887 0.148958
0.398524 0.596505 0.153684
0.402042 0.624608 0.158379
0.405545 0.652218 0.163044
0.409035 0.679355 0.167680
0.412511 0.706036 0.172290
0.415976 0.732277 0.176873
0.419428 0.758094 0.181432
0.422870 0.783498 0.185968
0.426300 0.808502 0.190481
0.429719 0.833116 0.194972
0.433129 0.857351 0.199443
0.436529 0.881215 0.203894
0.439919 0.904718 0.208325
0.443300 0.927867 0.212738
0.446673 0.950669 0.217132
0.450036 0.973131 0.221510
0.453392 0.995260 0.225870
0.456739 1.000000 0.230214
0.377651 0.080109 0.079605
0.381732 0.127565 0.085687
0.385532 0.169625 0.091313
0.389229 0.209129 0.096755
0.392860 0.246820 0.102074
0.396442 0.283083 0.107295
0.399985 0.318158 0.112436
0.403494 0.352206 0.117509
0.406975 0.385346 0.122521
0.410431 0.417669 0.127480
0.413865 0.449245 0.132390
0.417278 0.480132 0.137256
0.420673 0.510378 0.142080
0.424050 0.540021 0.146866
0.427412 0.569095 0.151617
0.430759 0.597631 0.156335
0.434092 0.625652 0.161021
0.437411 0.653182 0.165677
0.440718 0.680239 0.170305
0.444013 0.706843 0.174907
0.447297 0.733007 0.179483
0.450570 0.758748 0.184035
0.453832 0.784077 0.188563
0.457084 0.809006 0.193069
0.460327 0.833547 0.197554
0.463561 0.857709 0.202018
0.466785 0.881501 0.206463
0.470001 0.904932 0.210888
0.473208 0.928010 0.215295
0.476408 0.950742 0.219684
0.479599 0.973134 0.224055
0.482783 0.995194 0.228410
0.485959 1.000000 0.232749
0.412144 0.082997 0.082436
0.416000 0.130202 0.088495
0.419589 0.172082 0.094101
0.423083 0.211437 0.099526
0.426515 0.248996 0.104828
0.429900 0.285140 0.110035
0.433249 0.320102 0.115162
0.436567 0.354045 0.120221
0.439858 0.387085 0.125222
0.443126 0.419311 0.130169
0.446374 0.450794 0.135068
0.449602 0.481591 0.139922
0.452814 0.511748 0.144737
0.456009 0.541305 0.149513
0.459190 0.570296 0.154255
0.462357 0.598749 0.158963
0.465511 0.626689 0.163641
0.468653 0.654139 0.168289
0.471783 0.681118 0.172909
0.474902 0.707644 0.177503
0.478011 0.733733 0.182072
0.481110 0.759398 0.186617
0.484199 0.784652 0.191138
0.487279 0.809508 0.195638
0.490350 0.833976 0.200116
0.493413 0.858065 0.204574
0.496467 0.881786 0.209012
0.499514 0.905146 0.213431
0.502552 0.928153 0.217832
0.505584 0.950814 0.222216
0.508608 0.973137 0.226582
0.511625 0.995127 0.230931
0.514635 1.000000 0.235265
0.445959 0.085858 0.085240
0.449597 0.132818 0.091278
0.452985 0.174522 0.096865
0.456282 0.213730 0.102274
0.459521 0.251159 0.107560
0.462717 0.287183 0.112752
0.465879 0.322035 0.117865
0.469012 0.355873 0.122912
0.472120 0.388813 0.127900
0.475207 0.420943 0.132836
0.478274 0.452334 0.137724
0.481324 0.483040 0.142569
0.484357 0.513110 0.147373
0.487376 0.542582 0.152141
0.490382 0.571489 0.156873
0.493374 0.599860 0.161573
0.496355 0.627720 0.166242
0.499324 0.655091 0.170882
0.502283 0.681992 0.175495
0.505232 0.708441 0.180081
0.508170 0.734454 0.184643
0.511100 0.760044 0.189180
0.514021 0.785224 0.193695
0.516933 0.810007 0.198188
0.519837 0.834402 0.202660
0.522734 0.858419 0.207112
0.525622 0.882068 0.211544
0.528504 0.905357 0.215957
0.531378 0.928294 0.220353
0.534246 0.950886 0.224730
0.537107 0.973140 0.229091
0.539961 0.995061 0.233436
0.542809 1.000000 0.237764
0.479157 0.088695 0.088020
0.482585 0.135415 0.094038
0.485777 0.176946 0.099607
0.488884 0.216008 0.104999
0.491937 0.253308 0.110270
0.494949 0.289215 0.115448
0.497929 0.323956 0.120549
0.500883 0.357690 0.125583
0.503813 0.390531 0.130560
0.506723 0.422566 0.135484
0.509615 0.453865 0.140362
0.512491 0.484482 0.145196
0.515352 0.514465 0.149991
0.518200 0.543852 0.154750
0.521034 0.572676 0.159473
0.523857 0.600966 0.164165
0.526669 0.628746 0.168826
0.529471 0.656038 0.173458
0.532262 0.682862 0.178063
0.535044 0.709234 0.182642
0.537817 0.735171 0.187197
0.540582 0.760687 0.191727
0.543339 0.785794 0.196236
0.546088 0.810503 0.200722
0.548829 0.834826 0.205188
0.551563 0.858772 0.209633
0.554290 0.882350 0.214060
0.557010 0.905568 0.218468
0.559724 0.928435 0.222857
0.562432 0.950958 0.227230
0.565133 0.973143 0.231585
0.567829 0.994996 0.235924
0.570518 1.000000 0.240248
0.511787 0.091508 0.090778
0.515011 0.137995 0.096775
0.518012 0.179356 0.102327
0.520935 0.218274 0.107704
0.523806 0.255446 0.112961
0.526640 0.291236 0.118125
0.529443 0.325868 0.123213
0.532222 0.359499 0.128236
0.534979 0.392241 0.133201
0.537717 0.424181 0.138115
0.540439 0.455388 0.142982
0.543145 0.485917 0.147807
0.545838 0.515814 0.152593
0.548518 0.545116 0.157342
0.551186 0.573858 0.162057
0.553844 0.602066 0.166740
0.556491 0.629767 0.171393
0.559128 0.656981 0.176018
0.561757 0.683727 0.180616
0.564376 0.710024 0.185188
0.566988 0.735886 0.189735
0.569591 0.761327 0.194259
0.572187 0.786360 0.198761
0.574776 0.810997 0.203241
0.577358 0.835248 0.207701
0.579933 0.859122 0.212140
0.582502 0.882630 0.216561
0.585065 0.905778 0.220963
0.587621 0.928576 0.225347
0.590172 0.951029 0.229714
0.592718 0.973145 0.234065
0.595257 0.994931 0.238399
0.597792 1.000000 0.242717
0.543891 0.094300 0.093515
0.546915 0.140559 0.099493
0.549732 0.181751 0.105029
0.552474 0.220527 0.110390
0.555168 0.257573 0.115633
0.557828 0.293246 0.120784
0.560459 0.327770 0.125860
0.563067 0.361299 0.130871
0.565655 0.393943 0.135825
0.568225 0.425789 0.140729
0.570780 0.456905 0.145586
0.573321 0.487346 0.150402
0.575849 0.517156 0.155178
0.578365 0.546375 0.159919
0.580871 0.575034 0.164625
0.583366 0.603162 0.169301
0.585852 0.630783 0.173946
0.588329 0.657919 0.178563
0.590797 0.684589 0.183154
0.593258 0.710810 0.187719
0.595711 0.736597 0.192259
0.598156 0.761964 0.196777
0.600595 0.786924 0.201272
0.603027 0.811489 0.205746
0.605453 0.835668 0.210200
0.607873 0.859471 0.214634
0.610286 0.882908 0.219049
0.612694 0.905987 0.223445
0.615097 0.928715 0.227824
0.617494 0.951100 0.232186
0.619886 0.973148 0.236531
0.622273 0.994865 0.240860
0.624655 1.000000 0.245174
0.575503 0.097073 0.096233
0.578333 0.143108 0.102193
0.580968 0.184134 0.107712
0.583534 0.222769 0.113059
0.586056 0.259690 0.118288
0.588544 0.295248 0.123427
0.591007 0.329664 0.128491
0.593448 0.363090 0.133491
0.595870 0.395637 0.138434
0.598276 0.427390 0.143327
0.600668 0.458416 0.148175
0.603047 0.488768 0.152981
0.605413 0.518493 0.157749
0.607769 0.547628 0.162481
0.610115 0.576206 0.167180
0.612452 0.604253 0.171847
0.614780 0.631796 0.176485
0.617099 0.658854 0.181094
0.619411 0.685447 0.185678
0.621715 0.711593 0.190236
0.624013 0.737305 0.194770
0.626304 0.762599 0.199281
0.628588 0.787486 0.203770
0.630866 0.811978 0.208238
0.633139 0.836086 0.212686
0.635405 0.859819 0.217114
0.637667 0.883186 0.221524
0.639923 0.906195 0.225915
0.642174 0.928855 0.230288
0.644420 0.951171 0.234645
0.646661 0.973151 0.238985
0.648898 0.994801 0.243309
0.651130 1.000000 0.247618
0.606654 0.099826 0.098932
0.609293 0.145643 0.104875
0.611751 0.186506 0.110379
0.614144 0.225001 0.115712
0.616496 0.261797 0.120928
0.618818 0.297241 0.126054
0.621115 0.331550 0.131106
0.623392 0.364875 0.136095
0.625652 0.397325 0.141028
0.627897 0.428985 0.145912
0.630128 0.459920 0.150750
0.632348 0.490186 0.155547
0.634557 0.519825 0.160306
0.636755 0.548877 0.165030
0.638944 0.577373 0.169720
0.641125 0.605341 0.174380
0.643298 0.632804 0.179010
0.645463 0.659785 0.183613
0.647620 0.686302 0.188189
0.649771 0.712373 0.192741
0.651916 0.738011 0.197268
0.654054 0.763231 0.201773
0.656187 0.788046 0.206256
0.658314 0.812467 0.210718
0.660436 0.836503 0.215160
0.662552 0.860166 0.219583
0.664663 0.883463 0.223987
0.666770 0.906403 0.228372
0.668872 0.928993 0.232741
0.670970 0.951241 0.237092
0.673063 0.973154 0.241428
0.675152 0.994736 0.245747
0.677237 1.000000 0.250051
0.637370 0.102563 0.101615
0.639821 0.148165 0.107540
0.642105 0.188866 0.113029
0.644329 0.227223 0.118348
0.646514 0.263895 0.123552
0.648671 0.299226 0.128666
0.650806 0.333429 0.133707
0.652923 0.366653 0.138685
0.655023 0.399006 0.143608
0.657110 0.430573 0.148482
0.659184 0.461419 0.153311
0.661247 0.491597 0.158099
0.663300 0.521152 0.162850
0.665344 0.550121 0.167566
0.667379 0.578536 0.172248
0.669406 0.606424 0.176900
0.671426 0.633809 0.181523
0.673439 0.660713 0.186119
0.675446 0.687155 0.190689
0.677446 0.713150 0.195234
0.679440 0.738714 0.199755
0.681429 0.763862 0.204254
0.683412 0.788604 0.208731
0.685390 0.812953 0.213187
0.687363 0.836919 0.217623
0.689331 0.860511 0.222040
0.691295 0.883739 0.226438
0.693255 0.906610 0.230819
0.695210 0.929132 0.235182
0.697161 0.951312 0.239529
0.699108 0.973156 0.243859
0.701051 0.994672 0.248174
0.702991 1.000000 0.252473
0.667672 0.105282 0.104281
0.669940 0.150674 0.110190
0.672052 0.191215 0.115665
0.674109 0.229436 0.120970
0.676131 0.265985 0.126162
0.678127 0.301203 0.131264
0.680102 0.335300 0.136294
0.682060 0.368424 0.141262
0.684004 0.400682 0.146175
0.685934 0.432156 0.151040
0.687854 0.462913 0.155860
0.689763 0.493004 0.160639
0.691663 0.522475 0.165382
0.693555 0.551361 0.170089
0.695438 0.579695 0.174764
0.697315 0.607504 0.179409
0.699184 0.634811 0.184025
0.701047 0.661638 0.188614
0.702904 0.688004 0.193177
0.704756 0.713925 0.197715
0.706602 0.739415 0.202230
0.708443 0.764490 0.206723
0.710279 0.789160 0.211194
0.712110 0.813438 0.215644
0.713937 0.837333 0.220075
0.715759 0.860855 0.224487
0.717578 0.884014 0.228880
0.719392 0.906816 0.233255
0.721203 0.929270 0.237613
0.723009 0.951382 0.241955
0.724812 0.973159 0.246281
0.726612 0.994608 0.250590
0.728408 1.000000 0.254885
0.697581 0.107986 0.106932
0.699668 0.153171 0.112825
0.701612 0.193554 0.118286
0.703505 0.231640 0.123579
0.705366 0.268068 0.128758
0.707203 0.303173 0.133849
0.709021 0.337165 0.138869
0.710823 0.370189 0.143826
0.712612 0.402351 0.148730
0.714389 0.433734 0.153585
0.716156 0.464402 0.158396
0.717914 0.494407 0.163167
0.719663 0.523793 0.167902
0.721404 0.552597 0.172601
0.723138 0.580850 0.177269
0.724866 0.608580 0.181907
0.726587 0.635810 0.186515
0.728303 0.662560 0.191097
0.730013 0.688851 0.195654
0.731718 0.714697 0.200186
0.733417 0.740114 0.204695
0.735113 0.765116 0.209181
0.736803 0.789715 0.213647
0.738490 0.813921 0.218092
0.740172 0.837746 0.222517
0.741851 0.861199 0.226923
0.743526 0.884288 0.231311
0.745197 0.907021 0.235681
0.746864 0.929407 0.240035
0.748528 0.951452 0.244371
0.750189 0.973162 0.248692
0.751847 0.994544 0.252997
0.753502 1.000000 0.257288
0.727115 0.110675 0.109568
0.729024 0.155656 0.115446
0.730802 0.195884 0.120893
0.732533 0.233835 0.126173
0.734235 0.270142 0.131341
0.735915 0.305136 0.136421
0.737578 0.339023 0.141430
0.739227 0.371948 0.146378
0.740863 0.404015 0.151272
0.742489 0.435307 0.156118
0.744106 0.465886 0.160921
0.745714 0.495805 0.165684
0.747314 0.525107 0.170410
0.748907 0.553829 0.175103
0.750494 0.582002 0.179763
0.752075 0.609653 0.184393
0.753650 0.636805 0.188995
0.755220 0.663480 0.193571
0.756784 0.689695 0.198121
0.758344 0.715467 0.202647
0.759900 0.740811 0.207149
0.761452 0.765741 0.211630
0.762999 0.790268 0.216090
0.764543 0.814403 0.220529
0.766082 0.838158 0.224949
0.767619 0.861541 0.229350
0.769152 0.884561 0.233733
0.770681 0.907226 0.238098
0.772208 0.929544 0.242446
0.773731 0.951521 0.246778
0.775251 0.973165 0.251094
0.776769 0.994480 0.255395
0.778284 1.000000 0.259681
0.756290 0.113350 0.112191
0.758022 0.158131 0.118053
0.759637 0.198204 0.123487
0.761209 0.236022 0.128756
0.762754 0.272209 0.133912
0.764280 0.307092 0.138981
0.765790 0.340876 0.143980
0.767287 0.373702 0.148918
0.768773 0.405675 0.153803
0.770249 0.436875 0.158641
0.771717 0.467366 0.163435
0.773177 0.497199 0.168190
0.774631 0.526418 0.172908
0.776078 0.555058 0.177593
0.777519 0.583151 0.182246
0.778954 0.610723 0.186870
0.780385 0.637798 0.191465
0.781811 0.664397 0.196034
0.783232 0.690537 0.200578
0.784649 0.716235 0.205097
0.786063 0.741506 0.209594
0.787472 0.766363 0.214069
0.788878 0.790819 0.218523
0.790280 0.814884 0.222957
0.791679 0.838569 0.227371
0.793075 0.861882 0.231767
0.794467 0.884834 0.236145
0.795857 0.907431 0.240505
0.797244 0.929681 0.244849
0.798628 0.951591 0.249176
0.800009 0.973167 0.253488
0.801388 0.994416 0.257784
0.802765 1.000000 0.262066
0.785119 0.116010 0.114800
0.786678 0.160595 0.120648
0.788131 0.200516 0.126069
0.789545 0.238202 0.131325
0.790936 0.274270 0.136470
0.792309 0.309042 0.141530
0.793668 0.342722 0.146519
0.795015 0.375450 0.151447
0.796353 0.407329 0.156323
0.797681 0.438438 0.161152
0.799003 0.468841 0.165938
0.800317 0.498589 0.170685
0.801625 0.527725 0.175396
0.802927 0.556283 0.180074
0.804225 0.584297 0.184720
0.805517 0.611791 0.189336
0.806805 0.638789 0.193925
0.808088 0.665311 0.198488
0.809368 0.691377 0.203025
0.810644 0.717001 0.207539
0.811916 0.742199 0.212030
0.813185 0.766985 0.216499
0.814451 0.791369 0.220948
0.815713 0.815364 0.225376
0.816973 0.838978 0.229785
0.818229 0.862223 0.234176
0.819483 0.885106 0.238549
0.820735 0.907635 0.242904
0.821983 0.929817 0.247243
0.823230 0.951660 0.251566
0.824474 0.973170 0.255873
0.825716 0.994353 0.260165
0.826955 1.000000 0.264442
0.813616 0.118658 0.117396
0.815004 0.163049 0.123230
0.816297 0.202819 0.128639
0.817556 0.240374 0.133884
0.818794 0.276324 0.139018
0.820016 0.310987 0.144067
0.821225 0.344563 0.149046
0.822424 0.377193 0.153966
0.823615 0.408978 0.158833
0.824798 0.439997 0.163654
0.825974 0.470313 0.168432
0.827144 0.499975 0.173171
0.828308 0.529028 0.177874
0.829468 0.557506 0.182545
0.830623 0.585439 0.187184
0.831773 0.612855 0.191794
0.832920 0.639776 0.196376
0.834063 0.666223 0.200932
0.835202 0.692214 0.205464
0.836338 0.717765 0.209971
0.837471 0.742891 0.214457
0.838601 0.767604 0.218920
0.839728 0.791918 0.223363
0.840852 0.815842 0.227787
0.841973 0.839387 0.232191
0.843093 0.862563 0.236576
0.844209 0.885377 0.240944
0.845324 0.907838 0.245295
0.846436 0.929953 0.249629
0.847546 0.951729 0.253947
0.848654 0.973173 0.258250
0.849760 0.994290 0.262537
0.850864 1.000000 0.266810
0.841793 0.121294 0.119980
0.843011 0.165494 0.125801
0.844146 0.205114 0.131197
0.845251 0.242539 0.136431
0.846338 0.278371 0.141555
0.847410 0.312925 0.146594
0.848472 0.346399 0.151564
0.849525 0.378932 0.156474
0.850570 0.410623 0.161333
0.851609 0.441552 0.166145
0.852641 0.471780 0.170915
0.853668 0.501358 0.175647
0.854691 0.530328 0.180343
0.855709 0.558725 0.185006
0.856723 0.586579 0.189638
0.857733 0.613917 0.194242
0.858740 0.640762 0.198818
0.859744 0.667133 0.203368
0.860744 0.693050 0.207893
0.861742 0.718527 0.212395
0.862736 0.743581 0.216875
0.863728 0.768222 0.221333
0.864718 0.792465 0.225771
0.865705 0.816319 0.230189
0.866690 0.839795 0.234588
0.867673 0.862902 0.238968
0.868654 0.885648 0.243331
0.869633 0.908041 0.247677
0.870610 0.930089 0.252007
0.871585 0.951798 0.256321
0.872558 0.973175 0.260619
0.873529 0.994227 0.264902
0.874499 1.000000 0.269171
0.869660 0.123917 0.122553
0.870710 0.167929 0.128359
0.871689 0.207401 0.133744
0.872642 0.244697 0.138967
0.873579 0.280412 0.144081
0.874504 0.314858 0.149110
0.875419 0.348230 0.154071
0.876327 0.380665 0.158972
0.877228 0.412264 0.163823
0.878124 0.443103 0.168627
0.879014 0.473244 0.173389
0.879900 0.502737 0.178114
0.880782 0.531625 0.182803
0.881660 0.559941 0.187459
0.882535 0.587716 0.192084
0.883406 0.614976 0.196681
0.884274 0.641745 0.201251
0.885140 0.668041 0.205795
0.886003 0.693884 0.210314
0.886863 0.719288 0.214811
0.887721 0.744269 0.219285
0.888577 0.768839 0.223738
0.889431 0.793011 0.228170
0.890282 0.816795 0.232583
0.891132 0.840202 0.236977
0.891980 0.863240 0.241353
0.892826 0.885918 0.245711
0.893670 0.908243 0.250052
0.894513 0.930224 0.254377
0.895354 0.951867 0.258687
0.896194 0.973178 0.262980
0.897032 0.994164 0.267259
0.897868 1.000000 0.271524
0.897228 0.126529 0.125114
0.898112 0.170355 0.130908
0.898935 0.209681 0.136281
0.899737 0.246849 0.141493
0.900526 0.282448 0.146596
0.901305 0.316785 0.151616
0.902075 0.350056 0.156568
0.902840 0.382395 0.161461
0.903598 0.413900 0.166303
0.904352 0.444650 0.171099
0.905102 0.474704 0.175854
0.905848 0.504114 0.180571
0.906590 0.532918 0.185253
0.907329 0.561154 0.189903
0.908066 0.588850 0.194522
0.908799 0.616033 0.199112
0.909531 0.642726 0.203676
0.910259 0.668947 0.208214
0.910986 0.694715 0.212728
0.911710 0.720047 0.217218
0.912433 0.744956 0.221687
0.913154 0.769455 0.226134
0.913873 0.793556 0.230561
0.914590 0.817271 0.234969
0.915305 0.840608 0.239358
0.916019 0.863577 0.243729
0.916732 0.886187 0.248083
0.917443 0.908445 0.252420
0.918153 0.930359 0.256740
0.918861 0.951936 0.261045
0.919568 0.973181 0.265335
0.920274 0.994101 0.269609
0.920979 1.000000 0.273870
0.924504 0.129129 0.127664
0.925223 0.172773 0.133445
0.925893 0.211953 0.138807
0.926546 0.248994 0.144009
0.927188 0.284477 0.149102
0.927822 0.318708 0.154113
0.928449 0.351877 0.159056
0.929071 0.384120 0.163941
0.929688 0.415533 0.168775
0.930302 0.446193 0.173563
0.930912 0.476161 0.178311
0.931519 0.505486 0.183020
0.932124 0.534209 0.187696
0.932725 0.562365 0.192338
0.933325 0.589982 0.196951
0.933922 0.617088 0.201535
0.934517 0.643704 0.206093
0.935110 0.669851 0.210625
0.935702 0.695545 0.215133
0.936291 0.720804 0.219618
0.936880 0.745641 0.224081
0.937466 0.770069 0.228523
0.938052 0.794100 0.232945
0.938635 0.817745 0.237348
0.939218 0.841013 0.241732
0.939799 0.863914 0.246099
0.940379 0.886456 0.250448
0.940958 0.908647 0.254780
0.941536 0.930494 0.259096
